; generated by Slic3r Prusa Edition 1.42.0-beta2 on 2020-10-30 at 19:08:15

; 

; external perimeters extrusion width = 0.88mm
; perimeters extrusion width = 0.88mm
; infill extrusion width = 0.88mm
; solid infill extrusion width = 0.88mm
; top infill extrusion width = 0.88mm
; first layer extrusion width = 0.88mm

M107
G28 Y0 X0 Z0  ;
M140 S80 ; set bed temp
M190 S80 ; wait for bed temp
M104 S215 ; set extruder temp
M109 S215 ; wait for extruder temp
M420 S Z5 ; call on the auto level gods
M300 S1000 P500 ; chirp
G1 Y25 X5.0 F4000.0 ; go outside print area
G92 E0.0
G1 Z0.5 F300.0; 
G1 X60.0 E9.0 F1000.0 ; intro line
G1 X100.0 E12.5 F1000.0 ; intro line
G92 E0.0
M900 K30 ; Filament gcode
G21 ; set units to millimeters
G90 ; use absolute coordinates
M82 ; use absolute distances for extrusion
G92 E0
G1 Z0.500 F6000.000
G1 E-4.00000 F2400.00000
G92 E0
G1 Z1.500 F6000.000
G1 X215.295 Y214.320
G1 Z0.500
G1 E4.00000 F2400.00000
G1 F1500
G1 X257.705 Y214.320 E10.76811
G1 X257.705 Y238.030 E14.55196
G1 X215.295 Y238.030 E21.32007
G1 X215.295 Y214.440 E25.08477
G1 E24.68477 F2400.00000
G1 F4800
G1 X222.495 Y214.419 E21.26477
G1 E21.08477 F2400.00000
G92 E0
G1 Z1.500 F6000.000
G1 X216.063 Y215.087
G1 Z0.500
G1 E4.00000 F2400.00000
G1 F1500
G1 X256.938 Y215.087 E10.52308
G1 X256.938 Y237.262 E14.06190
G1 X216.063 Y237.262 E20.58499
G1 X216.063 Y215.207 E24.10466
G1 X215.782 Y214.338 F6000.000
G1 E23.70466 F2400.00000
G1 F4800
G1 X223.262 Y215.186 E20.28466
G1 E20.10466 F2400.00000
G92 E0
G1 Z1.500 F6000.000
G1 X215.500 Y214.525
G1 X215.000 Y214.525
G1 X215.000 Y237.825
G1 X215.500 Y238.825
G1 X219.892 Y243.325
G1 X217.228 Y244.967
G1 X210.500 Y247.754
G1 X209.594 Y248.505
G1 X208.759 Y249.566
G1 Z0.500
G1 E4.00000 F2400.00000
G1 F1500
G1 X208.759 Y251.084 E4.24238
G1 X204.241 Y251.084 E4.96352
G1 X204.241 Y249.566 E5.20590
G1 X208.639 Y249.566 E5.90789
G1 E5.50789 F2400.00000
G1 F4800
G1 X208.759 Y251.084 E4.78421
G1 X204.241 Y251.084 E2.63777
G1 X204.241 Y249.927 E2.08789
G1 E1.90789 F2400.00000
G92 E0
G1 Z1.500 F6000.000
G1 X209.527 Y248.798
G1 Z0.500
G1 E4.00000 F2400.00000
G1 F1500
G1 X209.527 Y251.852 E4.48741
G1 X203.473 Y251.852 E5.45358
G1 X203.473 Y248.798 E5.94098
G1 X209.407 Y248.798 E6.88800
G1 E6.48800 F2400.00000
G1 F4800
G1 X209.527 Y251.852 E5.03613
G1 X205.384 Y251.852 E3.06800
G1 E2.88800 F2400.00000
G92 E0
G1 Z1.500 F6000.000
G1 X212.116 Y247.084
G1 Z0.500
G1 E4.00000 F2400.00000
G1 F1500
G1 X216.241 Y242.960 E4.93079
G1 X216.241 Y239.566 E5.47252
G1 X256.759 Y239.566 E11.93876
G1 X256.759 Y242.960 E12.48049
G1 X260.884 Y247.084 E13.41128
G1 X212.236 Y247.084 E21.17470
G1 E20.77470 F2400.00000
G1 F4800
G1 X216.241 Y242.960 E18.04426
G1 X216.241 Y241.508 E17.35470
G1 E17.17470 F2400.00000
G92 E0
G1 Z1.500 F6000.000
G1 X215.473 Y242.642
G1 Z0.500
G1 E4.00000 F2400.00000
G1 F1500
G1 X215.473 Y238.798 E4.61350
G1 X257.527 Y238.798 E11.32476
G1 X257.527 Y242.642 E11.93826
G1 X262.737 Y247.852 E13.11408
G1 X210.263 Y247.852 E21.48820
G1 X215.388 Y242.727 E22.64487
G1 E22.24487 F2400.00000
G1 F4800
G1 X215.473 Y238.798 E20.37808
G1 X218.743 Y238.798 E18.82487
G1 E18.64487 F2400.00000
G92 E0
G1 Z1.500 F6000.000
G1 X264.241 Y249.566
G1 Z0.500
G1 E4.00000 F2400.00000
G1 F1500
G1 X268.759 Y249.566 E4.72114
G1 X268.759 Y251.084 E4.96352
G1 X264.241 Y251.084 E5.68466
G1 X264.241 Y249.686 E5.90789
G1 E5.50789 F2400.00000
G1 F4800
G1 X268.759 Y249.566 E3.36070
G1 X268.759 Y251.084 E2.63927
G1 X267.599 Y251.084 E2.08789
G1 E1.90789 F2400.00000
G92 E0
G1 Z1.500 F6000.000
G1 X263.473 Y248.798
G1 Z0.500
G1 E4.00000 F2400.00000
G1 F1500
G1 X269.527 Y248.798 E4.96617
G1 X269.527 Y251.852 E5.45358
G1 X263.473 Y251.852 E6.41974
G1 X263.473 Y248.918 E6.88800
G1 E6.48800 F2400.00000
G1 F4800
G1 X269.527 Y248.798 E3.61169
G1 X269.527 Y249.943 E3.06800
G1 E2.88800 F2400.00000
G92 E0
G1 Z1.500 F6000.000
G1 X263.608 Y248.825
G1 X263.406 Y248.505
G1 X262.500 Y247.754
G1 X255.772 Y244.967
G1 X253.108 Y243.325
G1 X257.500 Y238.825
G1 X258.000 Y237.825
G1 X258.000 Y214.525
G1 X257.500 Y213.525
G1 X256.759 Y212.784
G1 Z0.500
G1 E4.00000 F2400.00000
G1 F1500
G1 X216.241 Y212.784 E10.46624
G1 X216.241 Y207.784 E11.26417
G1 X198.234 Y207.784 E14.13776
G1 X198.234 Y198.916 E15.55309
G1 X256.759 Y198.916 E24.89292
G1 X256.759 Y212.664 E27.08704
G1 E26.68704 F2400.00000
G1 F4800
G1 X249.559 Y212.686 E23.26704
G1 E23.08704 F2400.00000
G92 E0
G1 Z1.500 F6000.000
G1 X215.473 Y208.552
G1 Z0.500
G1 E4.00000 F2400.00000
G1 F1500
G1 X197.466 Y208.552 E6.87359
G1 X197.466 Y198.148 E8.53395
G1 X257.183 Y198.148 E18.06386
G1 X257.527 Y198.492 E18.14157
G1 X257.527 Y213.552 E20.54492
G1 X215.473 Y213.552 E27.25619
G1 X215.473 Y208.672 E28.03497
G1 E27.63497 F2400.00000
G1 F4800
G1 X208.273 Y208.624 E24.21496
G1 E24.03497 F2400.00000
G92 E0
G1 Z1.500 F6000.000
G1 X214.705 Y209.320
G1 Z0.500
G1 E4.00000 F2400.00000
G1 F1500
G1 X196.699 Y209.320 E6.87359
G1 X196.699 Y197.380 E8.77898
G1 X257.501 Y197.380 E18.48215
G1 X258.295 Y198.174 E18.66135
G1 X258.295 Y242.324 E25.70708
G1 X264.001 Y248.030 E26.99486
G1 X270.295 Y248.030 E27.99929
G1 X270.295 Y252.620 E28.73173
G1 X262.705 Y252.620 E29.94292
G1 X262.705 Y248.620 E30.58127
G1 X210.295 Y248.620 E38.94524
G1 X210.295 Y252.620 E39.58358
G1 X202.705 Y252.620 E40.79478
G1 X202.705 Y248.030 E41.52722
G1 X208.999 Y248.030 E42.53165
G1 X214.705 Y242.324 E43.81943
G1 X214.705 Y209.440 E49.06732
G1 E48.66732 F2400.00000
G1 F4800
G1 X207.505 Y209.392 E45.24732
G1 E45.06732 F2400.00000
G92 E0
G1 Z1.500 F6000.000
G1 X213.938 Y210.087
G1 Z0.500
G1 E4.00000 F2400.00000
G1 F1500
G1 X195.931 Y210.087 E6.87359
G1 X195.931 Y196.612 E9.02401
G1 X257.819 Y196.612 E18.90044
G1 X259.063 Y197.856 E19.18114
G1 X259.063 Y242.006 E26.22686
G1 X264.319 Y247.262 E27.41315
G1 X271.063 Y247.262 E28.48935
G1 X271.063 Y253.387 E29.46681
G1 X261.938 Y253.387 E30.92304
G1 X261.938 Y249.387 E31.56138
G1 X211.063 Y249.387 E39.68032
G1 X211.063 Y253.387 E40.31867
G1 X201.938 Y253.387 E41.77489
G1 X201.938 Y247.262 E42.75236
G1 X208.681 Y247.262 E43.82856
G1 X213.938 Y242.006 E45.01484
G1 X213.938 Y210.207 E50.08948
G1 X213.975 Y209.288 F6000.000
G1 E49.68948 F2400.00000
G1 F4800
G1 X206.738 Y210.160 E46.26948
G1 E46.08948 F2400.00000
G92 E0
G1 Z1.500 F6000.000
G1 X216.257 Y212.938
G1 Z0.500
G1 E4.00000 F2400.00000
G1 F1500
G1 X216.257 Y199.108 E6.22849
G1 X215.482 Y199.108 E6.35338
G1 X215.482 Y207.592 E7.72056
G1 X214.707 Y207.592 E7.84545
G1 X214.707 Y199.108 E9.21263
G1 X213.932 Y199.108 E9.33753
G1 X213.932 Y207.592 E10.70470
G1 X213.157 Y207.592 E10.82960
G1 X213.157 Y199.108 E12.19678
G1 X212.382 Y199.108 E12.32167
G1 X212.382 Y207.592 E13.68885
G1 X211.607 Y207.592 E13.81374
G1 X211.607 Y199.108 E15.18092
G1 X210.832 Y199.108 E15.30582
G1 X210.832 Y207.592 E16.67300
G1 X210.056 Y207.592 E16.79789
G1 X210.056 Y199.108 E18.16507
G1 X209.281 Y199.108 E18.28996
G1 X209.281 Y207.592 E19.65714
G1 X208.506 Y207.592 E19.78203
G1 X208.506 Y199.108 E21.14921
G1 X207.731 Y199.108 E21.27411
G1 X207.731 Y207.592 E22.64129
G1 X206.956 Y207.592 E22.76618
G1 X206.956 Y199.108 E24.13336
G1 X206.181 Y199.108 E24.25825
G1 X206.181 Y207.592 E25.62543
G1 X205.406 Y207.592 E25.75033
G1 X205.406 Y199.108 E27.11750
G1 X204.631 Y199.108 E27.24240
G1 X204.631 Y207.592 E28.60958
G1 X203.856 Y207.592 E28.73447
G1 X203.856 Y199.108 E30.10165
G1 X203.080 Y199.108 E30.22654
G1 X203.080 Y207.592 E31.59372
G1 X202.305 Y207.592 E31.71862
G1 X202.305 Y199.108 E33.08579
G1 X201.530 Y199.108 E33.21069
G1 X201.530 Y207.592 E34.57787
G1 X200.755 Y207.592 E34.70276
G1 X200.755 Y199.108 E36.06994
G1 X199.980 Y199.108 E36.19483
G1 X199.980 Y207.592 E37.56201
G1 X199.205 Y207.592 E37.68691
G1 X199.205 Y199.108 E39.05408
G1 X198.430 Y199.108 E39.17898
G1 X198.430 Y207.938 E40.60182
G1 E40.20182 F2400.00000
G1 F4800
G1 X198.430 Y200.738 E36.78182
G1 E36.60182 F2400.00000
G92 E0
G1 Z1.500 F6000.000
G1 X196.493 Y209.525
G1 X202.668 Y203.350
G1 X214.500 Y203.350
G1 X214.500 Y209.525
G1 X219.500 Y209.525
G1 X215.500 Y213.525
G1 X217.033 Y212.938
G1 Z0.500
G1 E4.00000 F2400.00000
G1 F1500
G1 X217.033 Y199.108 E6.22849
G1 X217.808 Y199.108 E6.35338
G1 X217.808 Y212.592 E8.52620
G1 X218.583 Y212.592 E8.65110
G1 X218.583 Y199.108 E10.82392
G1 X219.358 Y199.108 E10.94882
G1 X219.358 Y212.592 E13.12164
G1 X220.133 Y212.592 E13.24653
G1 X220.133 Y199.108 E15.41936
G1 X220.908 Y199.108 E15.54425
G1 X220.908 Y212.592 E17.71707
G1 X221.683 Y212.592 E17.84197
G1 X221.683 Y199.108 E20.01479
G1 X222.458 Y199.108 E20.13968
G1 X222.458 Y212.592 E22.31251
G1 X223.234 Y212.592 E22.43740
G1 X223.234 Y199.108 E24.61022
G1 X224.009 Y199.108 E24.73512
G1 X224.009 Y212.592 E26.90794
G1 X224.784 Y212.592 E27.03284
G1 X224.784 Y199.108 E29.20566
G1 X225.559 Y199.108 E29.33055
G1 X225.559 Y212.592 E31.50338
G1 X226.334 Y212.592 E31.62827
G1 X226.334 Y199.108 E33.80109
G1 X227.109 Y199.108 E33.92599
G1 X227.109 Y212.592 E36.09881
G1 X227.884 Y212.592 E36.22370
G1 X227.884 Y199.108 E38.39653
G1 X228.659 Y199.108 E38.52142
G1 X228.659 Y212.592 E40.69424
G1 X229.435 Y212.592 E40.81914
G1 X229.435 Y199.108 E42.99196
G1 X230.210 Y199.108 E43.11686
G1 X230.210 Y212.592 E45.28968
G1 X230.985 Y212.592 E45.41457
G1 X230.985 Y199.108 E47.58740
G1 X231.760 Y199.108 E47.71229
G1 X231.760 Y212.592 E49.88511
G1 X232.535 Y212.592 E50.01001
G1 X232.535 Y199.108 E52.18283
G1 X233.310 Y199.108 E52.30772
G1 X233.310 Y212.592 E54.48055
G1 X234.085 Y212.592 E54.60544
G1 X234.085 Y199.108 E56.77826
G1 X234.860 Y199.108 E56.90316
G1 X234.860 Y212.592 E59.07598
G1 X235.635 Y212.592 E59.20088
G1 X235.635 Y199.108 E61.37370
G1 X236.411 Y199.108 E61.49859
G1 X236.411 Y212.592 E63.67142
G1 X237.186 Y212.592 E63.79631
G1 X237.186 Y199.108 E65.96913
G1 X237.961 Y199.108 E66.09403
G1 X237.961 Y212.592 E68.26685
G1 X238.736 Y212.592 E68.39174
G1 X238.736 Y199.108 E70.56457
G1 X239.511 Y199.108 E70.68946
G1 X239.511 Y212.592 E72.86228
G1 X240.286 Y212.592 E72.98718
G1 X240.286 Y199.108 E75.16000
G1 X241.061 Y199.108 E75.28490
G1 X241.061 Y212.592 E77.45772
G1 X241.836 Y212.592 E77.58261
G1 X241.836 Y199.108 E79.75544
G1 X242.612 Y199.108 E79.88033
G1 X242.612 Y212.592 E82.05315
G1 X243.387 Y212.592 E82.17805
G1 X243.387 Y199.108 E84.35087
G1 X244.162 Y199.108 E84.47576
G1 X244.162 Y212.592 E86.64859
G1 X244.937 Y212.592 E86.77348
G1 X244.937 Y199.108 E88.94630
G1 X245.712 Y199.108 E89.07120
G1 X245.712 Y212.592 E91.24402
G1 X246.487 Y212.592 E91.36892
G1 X246.487 Y199.108 E93.54174
G1 X247.262 Y199.108 E93.66663
G1 X247.262 Y212.592 E95.83946
G1 X248.037 Y212.592 E95.96435
G1 X248.037 Y199.108 E98.13717
G1 X248.813 Y199.108 E98.26207
G1 X248.813 Y212.592 E100.43489
G1 X249.588 Y212.592 E100.55978
G1 X249.588 Y199.108 E102.73261
G1 X250.363 Y199.108 E102.85750
G1 X250.363 Y212.592 E105.03032
G1 X251.138 Y212.592 E105.15522
G1 X251.138 Y199.108 E107.32804
G1 X251.913 Y199.108 E107.45294
G1 X251.913 Y212.592 E109.62576
G1 X252.688 Y212.592 E109.75065
G1 X252.688 Y199.108 E111.92348
G1 X253.463 Y199.108 E112.04837
G1 X253.463 Y212.592 E114.22119
G1 X254.238 Y212.592 E114.34609
G1 X254.238 Y199.108 E116.51891
G1 X255.013 Y199.108 E116.64380
G1 X255.013 Y212.592 E118.81663
G1 X255.789 Y212.592 E118.94152
G1 X255.789 Y199.108 E121.11434
G1 X256.564 Y199.108 E121.23924
G1 X256.564 Y212.938 E123.46772
G1 E123.06772 F2400.00000
G1 F4800
G1 X256.564 Y205.738 E119.64772
G1 E119.46772 F2400.00000
G92 E0
G1 Z1.500 F6000.000
G1 X257.076 Y243.060
G1 Z0.500
G1 E4.00000 F2400.00000
G1 F1500
G1 X257.076 Y246.892 E4.61860
G1 X257.853 Y246.892 E4.74393
G1 X257.853 Y244.325 E5.15834
G1 X258.629 Y245.101 E5.33558
G1 X258.629 Y246.892 E5.62466
G1 X259.406 Y246.892 E5.74999
G1 X259.406 Y245.878 E5.91375
G1 X260.182 Y246.654 E6.09099
G1 X260.182 Y247.238 E6.18517
G1 E5.78517 F2400.00000
G1 F4800
G1 X260.182 Y246.654 E5.50800
G1 X259.406 Y245.878 E4.98641
G1 X259.406 Y246.892 E4.50451
G1 X258.629 Y246.892 E4.13568
G1 X258.629 Y245.101 E3.28496
G1 X257.853 Y244.325 E2.76337
G1 X257.853 Y245.163 E2.36518
G1 E2.18517 F2400.00000
G92 E0
G1 Z1.500 F6000.000
G1 X263.089 Y248.325
G1 Z0.500
G1 E4.00000 F2400.00000
G1 F1500
G1 X263.753 Y248.325 E4.02457
G1 E3.62457 F2400.00000
G1 F4800
G1 X263.089 Y248.325 E3.30931
G1 E0.02457 F2400.00000
G92 E0
G1 Z1.500 F6000.000
G1 X264.624 Y250.325
G1 Z0.500
G1 E4.00000 F2400.00000
G1 F1500
G1 X268.376 Y250.325 E4.58569
G1 E4.18569 F2400.00000
G1 F4800
G1 X264.624 Y250.325 E2.40391
G1 E0.58569 F2400.00000
G92 E0
G1 Z1.500 F6000.000
G1 X256.300 Y247.238
G1 Z0.500
G1 E4.00000 F2400.00000
G1 F1500
G1 X256.300 Y239.758 E5.20741
G1 X255.523 Y239.758 E5.33274
G1 X255.523 Y246.892 E6.48439
G1 X254.747 Y246.892 E6.60972
G1 X254.747 Y239.758 E7.76137
G1 X253.970 Y239.758 E7.88669
G1 X253.970 Y246.892 E9.03834
G1 X253.194 Y246.892 E9.16367
G1 X253.194 Y239.758 E10.31532
G1 X252.418 Y239.758 E10.44065
G1 X252.418 Y246.892 E11.59230
G1 X251.641 Y246.892 E11.71763
G1 X251.641 Y239.758 E12.86928
G1 X250.865 Y239.758 E12.99461
G1 X250.865 Y246.892 E14.14625
G1 X250.088 Y246.892 E14.27158
G1 X250.088 Y239.758 E15.42323
G1 X249.312 Y239.758 E15.54856
G1 X249.312 Y246.892 E16.70021
G1 X248.535 Y246.892 E16.82554
G1 X248.535 Y239.758 E17.97719
G1 X247.759 Y239.758 E18.10252
G1 X247.759 Y246.892 E19.25417
G1 X246.982 Y246.892 E19.37950
G1 X246.982 Y239.758 E20.53115
G1 X246.206 Y239.758 E20.65647
G1 X246.206 Y246.892 E21.80812
G1 X245.429 Y246.892 E21.93345
G1 X245.429 Y239.758 E23.08510
G1 X244.653 Y239.758 E23.21043
G1 X244.653 Y246.892 E24.36208
G1 X243.876 Y246.892 E24.48741
G1 X243.876 Y239.758 E25.63906
G1 X243.100 Y239.758 E25.76439
G1 X243.100 Y246.892 E26.91604
G1 X242.323 Y246.892 E27.04137
G1 X242.323 Y239.758 E28.19302
G1 X241.547 Y239.758 E28.31835
G1 X241.547 Y246.892 E29.47000
G1 X240.771 Y246.892 E29.59532
G1 X240.771 Y239.758 E30.74697
G1 X239.994 Y239.758 E30.87230
G1 X239.994 Y246.892 E32.02395
G1 X239.218 Y246.892 E32.14928
G1 X239.218 Y239.758 E33.30093
G1 X238.441 Y239.758 E33.42626
G1 X238.441 Y246.892 E34.57791
G1 X237.665 Y246.892 E34.70324
G1 X237.665 Y239.758 E35.85489
G1 X236.888 Y239.758 E35.98022
G1 X236.888 Y246.892 E37.13187
G1 X236.112 Y246.892 E37.25720
G1 X236.112 Y239.758 E38.40885
G1 X235.335 Y239.758 E38.53418
G1 X235.335 Y246.892 E39.68583
G1 X234.559 Y246.892 E39.81116
G1 X234.559 Y239.758 E40.96281
G1 X233.782 Y239.758 E41.08813
G1 X233.782 Y246.892 E42.23979
G1 X233.006 Y246.892 E42.36511
G1 X233.006 Y239.758 E43.51676
G1 X232.229 Y239.758 E43.64209
G1 X232.229 Y246.892 E44.79374
G1 X231.453 Y246.892 E44.91907
G1 X231.453 Y239.758 E46.07072
G1 X230.676 Y239.758 E46.19605
G1 X230.676 Y246.892 E47.34770
G1 X229.900 Y246.892 E47.47303
G1 X229.900 Y239.758 E48.62468
G1 X229.124 Y239.758 E48.75001
G1 X229.124 Y246.892 E49.90166
G1 X228.347 Y246.892 E50.02699
G1 X228.347 Y239.758 E51.17864
G1 X227.571 Y239.758 E51.30397
G1 X227.571 Y246.892 E52.45562
G1 X226.794 Y246.892 E52.58095
G1 X226.794 Y239.758 E53.73260
G1 X226.018 Y239.758 E53.85793
G1 X226.018 Y246.892 E55.00958
G1 X225.241 Y246.892 E55.13491
G1 X225.241 Y239.758 E56.28656
G1 X224.465 Y239.758 E56.41189
G1 X224.465 Y246.892 E57.56354
G1 X223.688 Y246.892 E57.68887
G1 X223.688 Y239.758 E58.84052
G1 X222.912 Y239.758 E58.96585
G1 X222.912 Y246.892 E60.11750
G1 X222.135 Y246.892 E60.24283
G1 X222.135 Y239.758 E61.39448
G1 X221.359 Y239.758 E61.51981
G1 X221.359 Y246.892 E62.67146
G1 X220.582 Y246.892 E62.79679
G1 X220.582 Y239.758 E63.94844
G1 X219.806 Y239.758 E64.07377
G1 X219.806 Y246.892 E65.22542
G1 X219.029 Y246.892 E65.35075
G1 X219.029 Y239.758 E66.50240
G1 X218.253 Y239.758 E66.62773
G1 X218.253 Y246.892 E67.77938
G1 X217.476 Y246.892 E67.90471
G1 X217.476 Y239.758 E69.05636
G1 X216.700 Y239.758 E69.18169
G1 X216.700 Y246.892 E70.33334
G1 X215.924 Y246.892 E70.45867
G1 X215.924 Y243.549 E70.99840
G1 X215.147 Y244.325 E71.17565
G1 X215.147 Y246.892 E71.59005
G1 X214.371 Y246.892 E71.71537
G1 X214.371 Y245.102 E72.00445
G1 X213.594 Y245.878 E72.18169
G1 X213.594 Y246.892 E72.34543
G1 X212.818 Y246.892 E72.47076
