; generated by Slic3r Prusa Edition 1.42.0-beta2 on 2020-11-02 at 13:39:47

; 

; external perimeters extrusion width = 1.05mm
; perimeters extrusion width = 1.05mm
; infill extrusion width = 1.05mm
; solid infill extrusion width = 1.05mm
; top infill extrusion width = 1.05mm
; first layer extrusion width = 0.75mm

M107
G28 Y0 X0 Z0  ;
M140 S80 ; set bed temp
M190 S80 ; wait for bed temp
M104 S265 ; set extruder temp
M109 S265 ; wait for extruder temp
M420 S Z5 ; call on the auto level gods
M300 S1000 P500 ; chirp
G1 Y25 X5.0 F4000.0 ; go outside print area
G92 E0.0
G1 Z0.5 F300.0; 
G1 X60.0 E9.0 F1000.0 ; intro line
G1 X100.0 E12.5 F1000.0 ; intro line
G92 E0.0
M900 K45 ; Filament gcode
G21 ; set units to millimeters
G90 ; use absolute coordinates
M82 ; use absolute distances for extrusion
G92 E0
G1 Z0.500 F3000.000
G1 E-4.00000 F2400.00000
G92 E0
G1 Z1.500 F3000.000
G1 X210.875 Y198.875
G1 Z0.500
G1 E4.00000 F2400.00000
G1 F1800
G1 X239.125 Y198.875 E7.77425
G1 X239.125 Y248.375 E14.38753
G1 X255.125 Y248.375 E16.52515
G1 X255.125 Y251.125 E16.89256
G1 X210.875 Y251.125 E22.80443
G1 X210.875 Y246.125 E23.47244
G1 X194.875 Y246.125 E25.61006
G1 X194.875 Y243.375 E25.97747
G1 X210.875 Y243.375 E28.11509
G1 X210.875 Y199.025 E34.04032
G1 X211.678 Y199.471 F3000.000
G1 X211.518 Y199.518
G1 F1800
G1 X238.482 Y199.518 E37.64284
G1 X238.482 Y249.018 E44.25612
G1 X254.482 Y249.018 E46.39374
G1 X254.482 Y250.482 E46.58942
G1 X211.518 Y250.482 E52.32956
G1 X211.518 Y245.482 E52.99756
G1 X195.518 Y245.482 E55.13519
G1 X195.518 Y244.018 E55.33086
G1 X211.518 Y244.018 E57.46849
G1 X211.518 Y199.668 E63.39372
G1 X212.160 Y200.160 F3000.000
G1 F1800
G1 X237.840 Y200.160 E66.82450
G1 X237.840 Y249.840 E73.46173
G1 X212.160 Y249.840 E76.89251
G1 X212.160 Y200.310 E83.50969
G1 E83.10969 F2400.00000
G1 X215.760 Y200.289 E79.68969
G1 E79.50969
G92 E0
G1 Z1.500 F3000.000
G1 X237.968 Y201.341
G1 Z0.500
G1 E4.00000 F2400.00000
G1 F1800
G1 X236.948 Y200.321 E4.19417
G1 X236.032 Y200.321 E4.31742
G1 X237.679 Y201.968 E4.63084
G1 X237.679 Y202.883 E4.75408
G1 X235.117 Y200.321 E5.24180
G1 X234.201 Y200.321 E5.36505
G1 X237.679 Y203.799 E6.02706
G1 X237.679 Y204.715 E6.15030
G1 X233.285 Y200.321 E6.98661
G1 X232.370 Y200.321 E7.10986
G1 X237.679 Y205.630 E8.12046
G1 X237.679 Y206.546 E8.24371
G1 X231.454 Y200.321 E9.42861
G1 X230.538 Y200.321 E9.55185
G1 X237.679 Y207.462 E10.91105
G1 X237.679 Y208.377 E11.03429
G1 X229.623 Y200.321 E12.56779
G1 X228.707 Y200.321 E12.69103
G1 X237.679 Y209.293 E14.39882
G1 X237.679 Y210.209 E14.52207
G1 X227.791 Y200.321 E16.40415
G1 X226.876 Y200.321 E16.52740
G1 X237.679 Y211.124 E18.58378
G1 X237.679 Y212.040 E18.70703
G1 X225.960 Y200.321 E20.93770
G1 X225.044 Y200.321 E21.06095
G1 X237.679 Y212.956 E23.46592
G1 X237.679 Y213.871 E23.58917
G1 X224.129 Y200.321 E26.16844
G1 X223.213 Y200.321 E26.29169
G1 X237.679 Y214.787 E29.04525
G1 X237.679 Y215.703 E29.16850
G1 X222.297 Y200.321 E32.09636
G1 X221.382 Y200.321 E32.21961
G1 X237.679 Y216.618 E35.32177
G1 X237.679 Y217.534 E35.44501
G1 X220.466 Y200.321 E38.72147
G1 X219.550 Y200.321 E38.84471
G1 X237.679 Y218.450 E42.29547
G1 X237.679 Y219.365 E42.41871
G1 X218.635 Y200.321 E46.04376
G1 X217.719 Y200.321 E46.16701
G1 X237.679 Y220.281 E49.96635
G1 X237.679 Y221.197 E50.08960
G1 X216.803 Y200.321 E54.06324
G1 X215.888 Y200.321 E54.18648
G1 X237.679 Y222.112 E58.33442
G1 X237.679 Y223.028 E58.45767
G1 X214.972 Y200.321 E62.77990
G1 X214.056 Y200.321 E62.90315
G1 X237.679 Y223.944 E67.39967
G1 X237.679 Y224.860 E67.52292
G1 X213.140 Y200.321 E72.19375
G1 X212.321 Y200.321 E72.30404
G1 X212.321 Y200.417 E72.31699
G1 X237.679 Y225.775 E77.14379
G1 X237.679 Y226.691 E77.26704
G1 X212.321 Y201.333 E82.09384
G1 X212.321 Y202.249 E82.21708
G1 X237.679 Y227.607 E87.04388
G1 X237.679 Y228.522 E87.16713
G1 X212.321 Y203.164 E91.99393
G1 X212.321 Y204.080 E92.11717
G1 X237.679 Y229.438 E96.94397
G1 X237.679 Y230.354 E97.06722
G1 X212.321 Y204.996 E101.89402
G1 X212.321 Y205.911 E102.01727
G1 X237.679 Y231.269 E106.84407
G1 X237.679 Y232.185 E106.96731
G1 X212.321 Y206.827 E111.79411
G1 X212.321 Y207.743 E111.91736
G1 X237.679 Y233.101 E116.74416
G1 X237.679 Y234.016 E116.86740
G1 X212.321 Y208.658 E121.69420
G1 X212.321 Y209.574 E121.81745
G1 X237.679 Y234.932 E126.64425
G1 X237.679 Y235.848 E126.76749
G1 X212.321 Y210.490 E131.59429
G1 X212.321 Y211.405 E131.71754
G1 X237.679 Y236.763 E136.54434
G1 X237.679 Y237.679 E136.66759
G1 X212.321 Y212.321 E141.49439
G1 X212.321 Y213.237 E141.61763
G1 X237.679 Y238.595 E146.44443
G1 X237.679 Y239.510 E146.56768
G1 X212.321 Y214.152 E151.39448
G1 X212.321 Y215.068 E151.51772
G1 X237.679 Y240.426 E156.34452
G1 X237.679 Y241.342 E156.46777
G1 X212.321 Y215.984 E161.29457
G1 X212.321 Y216.899 E161.41781
G1 X237.679 Y242.257 E166.24461
G1 X237.679 Y243.173 E166.36786
G1 X212.321 Y217.815 E171.19466
G1 X212.321 Y218.731 E171.31791
G1 X237.679 Y244.089 E176.14471
G1 X237.679 Y245.004 E176.26795
G1 X212.321 Y219.647 E181.09475
G1 X212.321 Y220.562 E181.21800
G1 X237.679 Y245.920 E186.04480
G1 X237.679 Y246.836 E186.16804
G1 X212.321 Y221.478 E190.99484
G1 X212.321 Y222.394 E191.11809
G1 X237.679 Y247.751 E195.94489
G1 X237.679 Y248.667 E196.06813
G1 X212.321 Y223.309 E200.89493
G1 X212.321 Y224.225 E201.01818
G1 X237.679 Y249.583 E205.84498
G1 X237.679 Y249.679 E205.85792
G1 X236.859 Y249.679 E205.96823
G1 X212.321 Y225.141 E210.63903
G1 X212.321 Y226.056 E210.76228
G1 X235.944 Y249.679 E215.25879
G1 X235.028 Y249.679 E215.38203
G1 X212.321 Y226.972 E219.70425
G1 X212.321 Y227.888 E219.82749
G1 X234.112 Y249.679 E223.97541
G1 X233.197 Y249.679 E224.09866
G1 X212.321 Y228.803 E228.07228
G1 X212.321 Y229.719 E228.19553
G1 X232.281 Y249.679 E231.99485
G1 X231.365 Y249.679 E232.11810
G1 X212.321 Y230.635 E235.74312
G1 X212.321 Y231.550 E235.86637
G1 X230.450 Y249.679 E239.31710
G1 X229.534 Y249.679 E239.44035
G1 X212.321 Y232.466 E242.71679
G1 X212.321 Y233.382 E242.84003
G1 X228.618 Y249.679 E245.94217
G1 X227.703 Y249.679 E246.06542
G1 X212.321 Y234.297 E248.99326
G1 X212.321 Y235.213 E249.11651
G1 X226.787 Y249.679 E251.87005
G1 X225.871 Y249.679 E251.99330
G1 X212.321 Y236.129 E254.57255
G1 X212.321 Y237.044 E254.69580
G1 X224.956 Y249.679 E257.10075
G1 X224.040 Y249.679 E257.22400
G1 X212.321 Y237.960 E259.45466
G1 X212.321 Y238.876 E259.57790
G1 X223.124 Y249.679 E261.63427
G1 X222.209 Y249.679 E261.75751
G1 X212.321 Y239.791 E263.63958
G1 X212.321 Y240.707 E263.76282
G1 X221.293 Y249.679 E265.47059
G1 X220.377 Y249.679 E265.59384
G1 X212.321 Y241.623 E267.12731
G1 X212.321 Y242.538 E267.25056
G1 X219.462 Y249.679 E268.60974
G1 X218.546 Y249.679 E268.73298
G1 X212.321 Y243.454 E269.91786
G1 X212.321 Y244.370 E270.04111
G1 X217.630 Y249.679 E271.05169
G1 X216.715 Y249.679 E271.17494
G1 X212.321 Y245.285 E272.01123
G1 X212.321 Y246.201 E272.13447
G1 X215.799 Y249.679 E272.79647
G1 X214.883 Y249.679 E272.91971
G1 X212.321 Y247.117 E273.40741
G1 X212.321 Y248.032 E273.53066
G1 X213.968 Y249.679 E273.84405
G1 X213.052 Y249.679 E273.96730
G1 X212.032 Y248.659 E274.16146
G1 E273.76146 F2400.00000
G1 X213.052 Y249.679 E272.39108
G1 X213.968 Y249.679 E271.52119
G1 X213.089 Y248.801 E270.34145
G1 E270.16146
G92 E0
G1 Z1.500 F3000.000
G1 X211.839 Y244.750
G1 Z0.500
G1 E4.00000 F2400.00000
G1 F1800
G1 X195.839 Y244.750 E6.73366
G1 E6.33366 F2400.00000
G1 X199.439 Y244.750 E2.91366
G1 E2.73366
G92 E0
G1 Z1.500 F3000.000
G1 X238.161 Y249.750
G1 Z0.500
G1 E4.00000 F2400.00000
G1 F1800
G1 X254.161 Y249.750 E6.73366
G1 Z1.200 F3000.000
G1 E2.73366 F2400.00000
G92 E0
G1 Z2.200 F3000.000
G1 X239.575 Y247.925
G1 Z1.200
G1 E4.00000 F2400.00000
G1 F1500
G1 X255.575 Y247.925 E8.18975
G1 X255.575 Y251.575 E9.14553
G1 X210.425 Y251.575 E20.96847
G1 X210.425 Y246.575 E22.27777
G1 X194.425 Y246.575 E26.46752
G1 X194.425 Y242.925 E27.42330
G1 X210.425 Y242.925 E31.61305
G1 X210.425 Y198.425 E43.26578
G1 X239.575 Y198.425 E50.89898
G1 X239.575 Y247.775 E63.82172
G1 X239.751 Y248.909 F3000.000
G1 E63.42172 F2400.00000
G1 X243.175 Y247.809 E60.00172
G1 E59.82172
G92 E0
G1 Z2.200 F3000.000
G1 X238.675 Y248.825
G1 Z1.200
G1 E4.00000 F2400.00000
G1 F1500
G1 X254.675 Y248.825 E8.18975
G1 X254.675 Y250.675 E8.67430
G1 X211.325 Y250.675 E20.02601
G1 X211.325 Y245.675 E21.33531
G1 X195.325 Y245.675 E25.52506
G1 X195.325 Y243.825 E26.00961
G1 X211.325 Y243.825 E30.19936
G1 X211.325 Y199.325 E41.85209
G1 X238.675 Y199.325 E49.01405
G1 X238.675 Y248.675 E61.93680
G1 X237.775 Y249.775 F3000.000
G1 F1500
G1 X212.225 Y249.775 E68.62754
G1 X212.225 Y200.225 E81.60289
G1 X237.775 Y200.225 E88.29363
G1 X237.775 Y249.625 E101.22970
G1 X238.225 Y249.750 F3000.000
G1 F1200
G1 X254.225 Y249.750 E105.65641
G1 X236.113 Y249.955 F3000.000
G1 F2100
G1 X237.551 Y248.518 E106.19529
G1 X237.551 Y247.230 E106.53676
G1 X235.230 Y249.551 E107.40677
G1 X233.942 Y249.551 E107.74824
G1 X237.551 Y245.942 E109.10116
G1 X237.551 Y244.654 E109.44264
G1 X232.654 Y249.551 E111.27848
G1 X231.365 Y249.551 E111.61996
G1 X237.551 Y243.365 E113.93872
G1 X237.551 Y242.077 E114.28019
G1 X230.077 Y249.551 E117.08187
G1 X228.789 Y249.551 E117.42335
G1 X237.551 Y240.789 E120.70794
G1 X237.551 Y239.501 E121.04942
G1 X227.501 Y249.551 E124.81694
G1 X226.213 Y249.551 E125.15841
G1 X237.551 Y238.213 E129.40884
G1 X237.551 Y236.925 E129.75032
G1 X224.925 Y249.551 E134.48367
G1 X223.636 Y249.551 E134.82515
G1 X237.551 Y235.636 E140.04142
G1 X237.551 Y234.348 E140.38289
G1 X222.348 Y249.551 E146.08208
G1 X221.060 Y249.551 E146.42356
G1 X237.551 Y233.060 E152.60567
G1 X237.551 Y231.772 E152.94714
G1 X219.772 Y249.551 E159.61217
G1 X218.484 Y249.551 E159.95364
G1 X237.551 Y230.484 E167.10159
G1 X237.551 Y229.196 E167.44306
G1 X217.196 Y249.551 E175.07393
G1 X215.907 Y249.551 E175.41540
G1 X237.551 Y227.907 E183.52919
G1 X237.551 Y226.619 E183.87066
G1 X214.619 Y249.551 E192.46736
G1 X213.331 Y249.551 E192.80884
G1 X237.551 Y225.331 E201.88846
G1 X237.551 Y224.043 E202.22993
G1 X212.449 Y249.144 E211.64004
G1 X212.449 Y247.856 E211.98152
G1 X237.551 Y222.755 E221.39163
G1 X237.551 Y221.467 E221.73311
G1 X212.449 Y246.568 E231.14322
G1 X212.449 Y245.279 E231.48469
G1 X237.551 Y220.178 E240.89481
G1 X237.551 Y218.890 E241.23628
G1 X212.449 Y243.991 E250.64640
G1 X212.449 Y242.703 E250.98787
G1 X237.551 Y217.602 E260.39798
G1 X237.551 Y216.314 E260.73946
G1 X212.449 Y241.415 E270.14957
G1 X212.449 Y240.127 E270.49105
G1 X237.551 Y215.026 E279.90116
G1 X237.551 Y213.738 E280.24263
G1 X212.449 Y238.839 E289.65275
G1 X212.449 Y237.550 E289.99422
G1 X237.551 Y212.449 E299.40433
G1 X237.551 Y211.161 E299.74581
G1 X212.449 Y236.262 E309.15592
G1 X212.449 Y234.974 E309.49739
G1 X237.551 Y209.873 E318.90751
G1 X237.551 Y208.585 E319.24898
G1 X212.449 Y233.686 E328.65909
G1 X212.449 Y232.398 E329.00057
G1 X237.551 Y207.297 E338.41068
G1 X237.551 Y206.009 E338.75216
G1 X212.449 Y231.110 E348.16227
G1 X212.449 Y229.821 E348.50374
G1 X237.551 Y204.720 E357.91385
G1 X237.551 Y203.432 E358.25533
G1 X212.449 Y228.533 E367.66544
G1 X212.449 Y227.245 E368.00691
G1 X237.551 Y202.144 E377.41703
G1 X237.551 Y200.856 E377.75850
G1 X212.449 Y225.957 E387.16861
G1 X212.449 Y224.669 E387.51009
G1 X236.669 Y200.449 E396.58967
G1 X235.381 Y200.449 E396.93114
G1 X212.449 Y223.381 E405.52781
G1 X212.449 Y222.093 E405.86928
G1 X234.093 Y200.449 E413.98303
G1 X232.804 Y200.449 E414.32450
G1 X212.449 Y220.804 E421.95533
G1 X212.449 Y219.516 E422.29680
G1 X231.516 Y200.449 E429.44471
G1 X230.228 Y200.449 E429.78618
G1 X212.449 Y218.228 E436.45117
G1 X212.449 Y216.940 E436.79265
G1 X228.940 Y200.449 E442.97472
G1 X227.652 Y200.449 E443.31619
G1 X212.449 Y215.652 E449.01534
G1 X212.449 Y214.364 E449.35682
G1 X226.364 Y200.449 E454.57305
G1 X225.075 Y200.449 E454.91453
G1 X212.449 Y213.075 E459.64784
G1 X212.449 Y211.787 E459.98932
G1 X223.787 Y200.449 E464.23972
G1 X222.499 Y200.449 E464.58119
G1 X212.449 Y210.499 E468.34867
G1 X212.449 Y209.211 E468.69015
G1 X221.211 Y200.449 E471.97471
G1 X219.923 Y200.449 E472.31618
G1 X212.449 Y207.923 E475.11782
G1 X212.449 Y206.635 E475.45930
G1 X218.635 Y200.449 E477.77802
G1 X217.346 Y200.449 E478.11950
G1 X212.449 Y205.346 E479.95530
G1 X212.449 Y204.058 E480.29678
G1 X216.058 Y200.449 E481.64966
G1 X214.770 Y200.449 E481.99114
G1 X212.449 Y202.770 E482.86111
G1 X212.449 Y201.482 E483.20258
G1 X213.887 Y200.045 E483.74143
G1 X211.775 Y244.750 F3000.000
G1 F1200
G1 X195.775 Y244.750 E488.16813
G1 Z1.900 F3000.000
G1 X239.725 Y247.775
G1 F1500
G1 X255.725 Y247.775 E492.35788
G1 X255.725 Y251.725 E493.39222
G1 X210.275 Y251.725 E505.29372
G1 X210.275 Y246.725 E506.60302
G1 X194.275 Y246.725 E510.79276
G1 X194.275 Y242.775 E511.82711
G1 X210.275 Y242.775 E516.01685
G1 X210.275 Y198.275 E527.66958
G1 X239.725 Y198.275 E535.38134
G1 X239.725 Y247.625 E548.30409
G1 X239.903 Y248.759 F3000.000
G1 X238.825 Y248.675
G1 F1500
G1 X254.825 Y248.675 E552.49383
G1 X254.825 Y250.825 E553.05695
G1 X211.175 Y250.825 E564.48721
G1 X211.175 Y245.825 E565.79651
G1 X195.175 Y245.825 E569.98626
G1 X195.175 Y243.675 E570.54937
G1 X211.175 Y243.675 E574.73912
G1 X211.175 Y199.175 E586.39185
G1 X238.825 Y199.175 E593.63237
G1 X238.825 Y248.525 E606.55512
G1 X237.925 Y249.925 F3000.000
G1 F1500
G1 X212.075 Y249.925 E613.32441
G1 X212.075 Y200.075 E626.37832
G1 X237.925 Y200.075 E633.14762
G1 X237.925 Y249.775 E646.16225
G1 X238.375 Y249.750 F3000.000
G1 F1200
G1 X254.375 Y249.750 E651.98588
G1 X213.720 Y250.105 F3000.000
G1 F2100
G1 X212.299 Y248.685 E652.51355
G1 X212.299 Y247.409 E652.84897
G1 X214.591 Y249.701 E653.70055
G1 X215.868 Y249.701 E654.03597
G1 X212.299 Y246.132 E655.36191
G1 X212.299 Y244.855 E655.69734
G1 X217.145 Y249.701 E657.49763
G1 X218.422 Y249.701 E657.83305
G1 X212.299 Y243.578 E660.10771
G1 X212.299 Y242.302 E660.44313
G1 X219.698 Y249.701 E663.19214
G1 X220.975 Y249.701 E663.52756
G1 X212.299 Y241.025 E666.75092
G1 X212.299 Y239.748 E667.08634
G1 X222.252 Y249.701 E670.78406
G1 X223.528 Y249.701 E671.11948
G1 X212.299 Y238.472 E675.29156
G1 X212.299 Y237.195 E675.62698
G1 X224.805 Y249.701 E680.27342
G1 X226.082 Y249.701 E680.60884
G1 X212.299 Y235.918 E685.72963
G1 X212.299 Y234.642 E686.06505
G1 X227.358 Y249.701 E691.66019
G1 X228.635 Y249.701 E691.99561
G1 X212.299 Y233.365 E698.06512
G1 X212.299 Y232.088 E698.40054
G1 X229.912 Y249.701 E704.94440
G1 X231.188 Y249.701 E705.27982
G1 X212.299 Y230.812 E712.29803
G1 X212.299 Y229.535 E712.63345
G1 X232.465 Y249.701 E720.12602
G1 X233.742 Y249.701 E720.46144
G1 X212.299 Y228.258 E728.42837
G1 X212.299 Y226.981 E728.76379
G1 X235.019 Y249.701 E737.20507
G1 X236.295 Y249.701 E737.54049
G1 X212.299 Y225.705 E746.45613
G1 X212.299 Y224.428 E746.79155
G1 X237.572 Y249.701 E756.18155
G1 X237.701 Y249.701 E756.21534
G1 X237.701 Y248.552 E756.51697
G1 X212.299 Y223.151 E765.95475
G1 X212.299 Y221.875 E766.29017
G1 X237.701 Y247.276 E775.72795
G1 X237.701 Y245.999 E776.06337
G1 X212.299 Y220.598 E785.50115
G1 X212.299 Y219.321 E785.83657
G1 X237.701 Y244.722 E795.27435
G1 X237.701 Y243.446 E795.60977
G1 X212.299 Y218.045 E805.04755
G1 X212.299 Y216.768 E805.38297
G1 X237.701 Y242.169 E814.82075
G1 X237.701 Y240.892 E815.15617
G1 X212.299 Y215.491 E824.59395
G1 X212.299 Y214.215 E824.92937
G1 X237.701 Y239.616 E834.36715
G1 X237.701 Y238.339 E834.70258
G1 X212.299 Y212.938 E844.14036
G1 X212.299 Y211.661 E844.47578
G1 X237.701 Y237.062 E853.91356
G1 X237.701 Y235.786 E854.24898
G1 X212.299 Y210.384 E863.68676
G1 X212.299 Y209.108 E864.02218
G1 X237.701 Y234.509 E873.45996
G1 X237.701 Y233.232 E873.79538
G1 X212.299 Y207.831 E883.23316
G1 X212.299 Y206.554 E883.56858
G1 X237.701 Y231.955 E893.00636
G1 X237.701 Y230.679 E893.34178
G1 X212.299 Y205.278 E902.77956
G1 X212.299 Y204.001 E903.11498
G1 X237.701 Y229.402 E912.55276
G1 X237.701 Y228.125 E912.88818
G1 X212.299 Y202.724 E922.32596
G1 X212.299 Y201.448 E922.66138
G1 X237.701 Y226.849 E932.09916
G1 X237.701 Y225.572 E932.43458
G1 X212.428 Y200.299 E941.82460
G1 X213.705 Y200.299 E942.16002
