; generated by Slic3r Prusa Edition 1.42.0-beta2 on 2020-11-04 at 18:04:59

; 

; external perimeters extrusion width = 1.40mm
; perimeters extrusion width = 1.40mm
; infill extrusion width = 1.40mm
; solid infill extrusion width = 1.40mm
; top infill extrusion width = 1.40mm
; first layer extrusion width = 1.40mm

M107
G28 Y0 X0 Z0  ;
M140 S80 ; set bed temp
M190 S80 ; wait for bed temp
M104 S265 ; set extruder temp
M109 S265 ; wait for extruder temp
M420 S Z5 ; call on the auto level gods
M300 S1000 P500 ; chirp
G1 Y25 X5.0 F4000.0 ; go outside print area
G92 E0.0
G1 Z0.5 F300.0; 
G1 X60.0 E9.0 F1000.0 ; intro line
G1 X100.0 E12.5 F1000.0 ; intro line
G92 E0.0
M900 K45 ; Filament gcode
G21 ; set units to millimeters
G90 ; use absolute coordinates
M82 ; use absolute distances for extrusion
G92 E0
G1 Z0.500 F6000.000
G1 X247.822 Y233.008
G1 F1500
G1 X248.073 Y232.764 E0.09396
G1 X248.339 Y232.562 E0.18381
G1 X248.651 Y232.375 E0.28133
G1 X248.972 Y232.233 E0.37582
G1 X249.307 Y232.131 E0.46979
G1 X249.651 Y232.069 E0.56375
G1 X249.985 Y232.050 E0.65360
G1 X250.347 Y232.069 E0.75112
G1 X250.693 Y232.131 E0.84561
G1 X251.028 Y232.233 E0.93958
G1 X251.348 Y232.374 E1.03354
G1 X251.649 Y232.552 E1.12750
G1 X251.927 Y232.764 E1.22147
G1 X252.178 Y233.008 E1.31543
G1 X252.398 Y233.279 E1.40939
G1 X252.585 Y233.575 E1.50335
G1 X252.735 Y233.891 E1.59731
G1 X252.847 Y234.222 E1.69128
G1 X252.919 Y234.564 E1.78524
G1 X252.950 Y234.913 E1.87920
G1 X252.940 Y235.262 E1.97317
G1 X252.888 Y235.608 E2.06713
G1 X252.796 Y235.945 E2.16109
G1 X252.664 Y236.269 E2.25505
G1 X252.496 Y236.575 E2.34901
G1 X252.292 Y236.860 E2.44298
G1 X252.056 Y237.118 E2.53694
G1 X251.791 Y237.346 E2.63090
G1 X251.501 Y237.541 E2.72487
G1 X251.203 Y237.694 E2.81471
G1 X250.864 Y237.822 E2.91223
G1 X250.522 Y237.905 E3.00673
G1 X250.175 Y237.946 E3.10069
G1 X249.825 Y237.946 E3.19465
G1 X249.478 Y237.905 E3.28861
G1 X249.138 Y237.823 E3.38257
G1 X248.810 Y237.701 E3.47654
G1 X248.513 Y237.548 E3.56639
G1 X248.211 Y237.347 E3.66391
G1 X247.944 Y237.118 E3.75840
G1 X247.708 Y236.860 E3.85236
G1 X247.504 Y236.575 E3.94633
G1 X247.343 Y236.283 E4.03618
G1 X247.205 Y235.947 E4.13370
G1 X247.112 Y235.608 E4.22819
G1 X247.060 Y235.262 E4.32216
G1 X247.050 Y234.913 E4.41611
G1 X247.081 Y234.564 E4.51008
G1 X247.153 Y234.222 E4.60404
G1 X247.260 Y233.905 E4.69389
G1 X247.414 Y233.577 E4.79141
G1 X247.602 Y233.280 E4.88590
G1 X247.728 Y233.124 E4.93956
G1 X247.717 Y232.675 F6000.000
G92 E0
G1 X244.265 Y218.285
G1 F1500
G1 X246.715 Y218.285 E0.65822
G1 X246.715 Y220.735 E1.31645
G1 X250.651 Y220.503 E2.37616
G1 X251.294 Y220.388 E2.55147
G1 X251.918 Y220.199 E2.72679
G1 X252.965 Y219.741 E3.03380
G1 X252.965 Y230.262 E5.86096
G1 X251.929 Y229.806 E6.16491
G1 X251.302 Y229.614 E6.34135
G1 X250.646 Y229.496 E6.52027
G1 X249.977 Y229.460 E6.70025
G1 X249.345 Y229.498 E6.87059
G1 X248.698 Y229.614 E7.04701
G1 X248.071 Y229.806 E7.22344
G1 X247.461 Y230.074 E7.40235
G1 X246.886 Y230.418 E7.58233
G1 X246.383 Y230.802 E7.75267
G1 X245.912 Y231.260 E7.92909
G1 X245.498 Y231.770 E8.10553
G1 X245.142 Y232.333 E8.28444
G1 X244.858 Y232.939 E8.46442
G1 X244.655 Y233.539 E8.63477
G1 X244.520 Y234.182 E8.81118
G1 X244.461 Y234.836 E8.98762
G1 X244.481 Y235.492 E9.16403
G1 X244.578 Y236.141 E9.34044
G1 X244.753 Y236.784 E9.51937
G1 X245.008 Y237.403 E9.69936
G1 X245.314 Y237.958 E9.86971
G1 X245.697 Y238.491 E10.04613
G1 X246.140 Y238.976 E10.22255
G1 X246.645 Y239.410 E10.40146
G1 X247.202 Y239.782 E10.58144
G1 X247.766 Y240.071 E10.75179
G1 X248.382 Y240.300 E10.92822
G1 X249.020 Y240.454 E11.10463
G1 X249.672 Y240.531 E11.28106
G1 X250.328 Y240.531 E11.45748
G1 X250.980 Y240.454 E11.63390
G1 X251.627 Y240.297 E11.81283
G1 X252.254 Y240.061 E11.99280
G1 X252.965 Y239.696 E12.20747
G1 X252.965 Y241.715 E12.74994
G1 X197.035 Y241.715 E27.77929
G1 X197.035 Y239.696 E28.32176
G1 X197.766 Y240.071 E28.54251
G1 X198.382 Y240.300 E28.71893
G1 X199.020 Y240.454 E28.89535
G1 X199.672 Y240.531 E29.07178
G1 X200.328 Y240.531 E29.24819
G1 X200.980 Y240.454 E29.42462
G1 X201.627 Y240.297 E29.60354
G1 X202.254 Y240.061 E29.78352
G1 X202.818 Y239.771 E29.95385
G1 X203.362 Y239.404 E30.13028
G1 X203.860 Y238.976 E30.30670
G1 X204.303 Y238.491 E30.48312
G1 X204.686 Y237.958 E30.65957
G1 X205.003 Y237.383 E30.83599
G1 X205.249 Y236.775 E31.01240
G1 X205.422 Y236.141 E31.18881
G1 X205.519 Y235.492 E31.36522
G1 X205.539 Y234.836 E31.54167
G1 X205.480 Y234.182 E31.71809
G1 X205.345 Y233.539 E31.89451
G1 X205.135 Y232.917 E32.07093
G1 X204.853 Y232.325 E32.24735
G1 X204.502 Y231.770 E32.42379
G1 X204.088 Y231.260 E32.60018
G1 X203.617 Y230.803 E32.77661
G1 X203.096 Y230.404 E32.95305
G1 X202.530 Y230.070 E33.12946
G1 X201.929 Y229.806 E33.30587
G1 X201.302 Y229.614 E33.48231
G1 X200.646 Y229.496 E33.66123
G1 X199.977 Y229.460 E33.84121
G1 X199.345 Y229.498 E34.01155
G1 X198.698 Y229.614 E34.18797
G1 X198.071 Y229.806 E34.36440
G1 X197.035 Y230.262 E34.66836
G1 X197.035 Y219.696 E37.50759
G1 X197.766 Y220.071 E37.72834
G1 X198.382 Y220.300 E37.90476
G1 X199.020 Y220.454 E38.08118
G1 X199.672 Y220.531 E38.25760
G1 X200.328 Y220.531 E38.43402
G1 X200.980 Y220.454 E38.61045
G1 X201.618 Y220.300 E38.78687
G1 X202.234 Y220.071 E38.96329
G1 X202.818 Y219.771 E39.13970
G1 X203.362 Y219.404 E39.31613
G1 X203.860 Y218.976 E39.49255
G1 X204.303 Y218.491 E39.66897
G1 X204.686 Y217.958 E39.84542
G1 X205.003 Y217.383 E40.02184
G1 X205.249 Y216.775 E40.19825
G1 X205.422 Y216.141 E40.37466
G1 X205.519 Y215.492 E40.55107
G1 X205.539 Y214.836 E40.72752
G1 X205.480 Y214.182 E40.90394
G1 X205.345 Y213.539 E41.08036
G1 X205.135 Y212.917 E41.25678
G1 X204.853 Y212.325 E41.43320
G1 X204.502 Y211.770 E41.60964
G1 X204.089 Y211.260 E41.78603
G1 X203.617 Y210.803 E41.96246
G1 X203.096 Y210.404 E42.13890
G1 X202.530 Y210.070 E42.31531
G1 X201.929 Y209.806 E42.49173
G1 X201.302 Y209.614 E42.66816
G1 X200.646 Y209.496 E42.84708
G1 X199.977 Y209.460 E43.02706
G1 X199.345 Y209.498 E43.19740
G1 X198.698 Y209.614 E43.37382
G1 X198.071 Y209.806 E43.55025
G1 X197.035 Y210.262 E43.85421
G1 X197.035 Y208.285 E44.38525
G1 X252.965 Y208.285 E59.41460
G1 X252.965 Y210.313 E59.95933
G1 X252.320 Y209.968 E60.15579
G1 X251.712 Y209.730 E60.33110
G1 X251.081 Y209.565 E60.50642
G1 X250.426 Y209.475 E60.68422
G1 X249.760 Y209.465 E60.86308
G1 X249.133 Y209.527 E61.03236
G1 X248.496 Y209.667 E61.20766
G1 X247.880 Y209.881 E61.38299
G1 X247.292 Y210.165 E61.55832
G1 X246.743 Y210.517 E61.73363
G1 X246.239 Y210.931 E61.90894
G1 X245.787 Y211.401 E62.08426
G1 X245.393 Y211.922 E62.25958
G1 X245.063 Y212.484 E62.43490
G1 X244.801 Y213.082 E62.61024
G1 X244.612 Y213.706 E62.78554
G1 X244.497 Y214.349 E62.96084
G1 X244.274 Y218.136 E63.98026
G92 E0
G1 X245.636 Y216.993 F6000.000
G1 F1500
G1 X248.007 Y216.993 E0.63713
G1 X248.007 Y219.364 E1.27427
G1 X250.499 Y219.217 E1.94502
G1 X250.991 Y219.129 E2.07937
G1 X251.470 Y218.984 E2.21371
G1 X251.928 Y218.783 E2.34806
G1 X252.359 Y218.531 E2.48242
G1 X252.758 Y218.229 E2.61676
G1 X253.118 Y217.882 E2.75110
G1 X253.435 Y217.496 E2.88546
G1 X253.700 Y217.083 E3.01719
G1 X254.257 Y217.246 E3.17336
G1 X254.257 Y232.754 E7.34068
G1 X253.697 Y232.916 E7.49736
G1 X253.450 Y232.525 E7.62181
G1 X253.133 Y232.134 E7.75699
G1 X252.772 Y231.783 E7.89218
G1 X252.372 Y231.478 E8.02738
G1 X251.939 Y231.222 E8.16257
G1 X251.479 Y231.020 E8.29776
G1 X250.997 Y230.873 E8.43296
G1 X250.497 Y230.783 E8.56967
G1 X249.981 Y230.755 E8.70841
G1 X249.498 Y230.784 E8.83851
G1 X249.003 Y230.873 E8.97370
G1 X248.521 Y231.020 E9.10890
G1 X248.056 Y231.225 E9.24560
G1 X247.613 Y231.490 E9.38435
G1 X247.228 Y231.783 E9.51444
G1 X246.867 Y232.134 E9.64964
G1 X246.550 Y232.525 E9.78484
G1 X246.278 Y232.955 E9.92154
G1 X246.059 Y233.422 E10.06029
G1 X245.904 Y233.881 E10.19039
G1 X245.800 Y234.373 E10.32558
G1 X245.756 Y234.874 E10.46078
G1 X245.771 Y235.377 E10.59596
G1 X245.845 Y235.875 E10.73115
G1 X245.979 Y236.365 E10.86786
G1 X246.176 Y236.843 E11.00662
G1 X246.409 Y237.267 E11.13671
G1 X246.703 Y237.675 E11.27191
G1 X247.042 Y238.047 E11.40710
G1 X247.428 Y238.379 E11.54380
G1 X247.858 Y238.665 E11.68255
G1 X248.288 Y238.886 E11.81265
G1 X248.760 Y239.061 E11.94784
G1 X249.249 Y239.179 E12.08303
G1 X249.748 Y239.239 E12.21823
G1 X250.252 Y239.239 E12.35342
G1 X250.751 Y239.179 E12.48861
G1 X251.246 Y239.060 E12.62532
G1 X251.729 Y238.877 E12.76407
G1 X252.159 Y238.656 E12.89416
G1 X252.577 Y238.375 E13.02936
G1 X252.958 Y238.047 E13.16455
G1 X253.297 Y237.676 E13.29974
G1 X253.719 Y237.088 E13.49421
G1 X254.257 Y237.261 E13.64611
G1 X254.257 Y243.007 E15.19037
G1 X195.743 Y243.007 E30.91447
G1 X195.743 Y237.261 E32.45873
G1 X196.281 Y237.087 E32.61063
G1 X196.703 Y237.676 E32.80511
G1 X197.042 Y238.047 E32.94030
G1 X197.423 Y238.375 E33.07549
G1 X197.841 Y238.656 E33.21068
G1 X198.288 Y238.886 E33.34588
G1 X198.760 Y239.061 E33.48107
G1 X199.249 Y239.179 E33.61626
G1 X199.748 Y239.239 E33.75145
G1 X200.252 Y239.239 E33.88664
G1 X200.751 Y239.179 E34.02184
G1 X201.246 Y239.060 E34.15855
G1 X201.729 Y238.877 E34.29730
G1 X202.159 Y238.656 E34.42739
G1 X202.577 Y238.375 E34.56258
G1 X202.958 Y238.047 E34.69777
G1 X203.297 Y237.675 E34.83297
G1 X203.591 Y237.267 E34.96817
G1 X203.833 Y236.826 E35.10336
G1 X204.023 Y236.360 E35.23855
G1 X204.155 Y235.875 E35.37373
G1 X204.229 Y235.377 E35.50892
G1 X204.244 Y234.874 E35.64413
G1 X204.200 Y234.373 E35.77932
G1 X204.096 Y233.881 E35.91451
G1 X203.935 Y233.404 E36.04970
G1 X203.719 Y232.950 E36.18489
G1 X203.450 Y232.525 E36.32009
G1 X203.133 Y232.134 E36.45527
G1 X202.772 Y231.783 E36.59046
G1 X202.372 Y231.478 E36.72567
G1 X201.939 Y231.222 E36.86085
G1 X201.479 Y231.020 E36.99604
G1 X200.997 Y230.873 E37.13124
G1 X200.497 Y230.783 E37.26795
G1 X199.981 Y230.755 E37.40670
G1 X199.498 Y230.784 E37.53679
G1 X199.003 Y230.873 E37.67198
G1 X198.521 Y231.020 E37.80718
G1 X198.056 Y231.225 E37.94388
G1 X197.613 Y231.490 E38.08263
G1 X197.228 Y231.783 E38.21272
G1 X196.867 Y232.134 E38.34792
G1 X196.550 Y232.525 E38.48312
G1 X196.303 Y232.916 E38.60756
G1 X195.743 Y232.754 E38.76424
G1 X195.743 Y217.261 E42.92769
G1 X196.281 Y217.087 E43.07959
G1 X196.703 Y217.676 E43.27407
G1 X197.042 Y218.047 E43.40926
G1 X197.423 Y218.375 E43.54444
G1 X197.841 Y218.656 E43.67963
G1 X198.288 Y218.886 E43.81483
G1 X198.760 Y219.061 E43.95002
G1 X199.249 Y219.179 E44.08521
G1 X199.748 Y219.239 E44.22041
G1 X200.252 Y219.239 E44.35560
G1 X200.751 Y219.179 E44.49079
G1 X201.240 Y219.061 E44.62599
G1 X201.712 Y218.886 E44.76118
G1 X202.159 Y218.656 E44.89636
G1 X202.577 Y218.375 E45.03156
G1 X202.958 Y218.047 E45.16675
G1 X203.297 Y217.675 E45.30194
G1 X203.591 Y217.267 E45.43715
G1 X203.833 Y216.826 E45.57234
G1 X204.023 Y216.360 E45.70752
G1 X204.155 Y215.875 E45.84271
G1 X204.229 Y215.377 E45.97790
G1 X204.244 Y214.874 E46.11311
G1 X204.200 Y214.373 E46.24829
G1 X204.096 Y213.881 E46.38348
G1 X203.935 Y213.404 E46.51868
G1 X203.719 Y212.950 E46.65387
G1 X203.450 Y212.525 E46.78907
G1 X203.133 Y212.134 E46.92424
G1 X202.772 Y211.783 E47.05944
G1 X202.372 Y211.478 E47.19464
G1 X201.939 Y211.222 E47.32983
G1 X201.479 Y211.020 E47.46502
G1 X200.997 Y210.873 E47.60022
G1 X200.497 Y210.783 E47.73693
G1 X199.981 Y210.755 E47.87567
G1 X199.498 Y210.784 E48.00577
G1 X199.003 Y210.873 E48.14096
G1 X198.521 Y211.020 E48.27616
G1 X198.061 Y211.222 E48.41135
G1 X197.628 Y211.478 E48.54653
G1 X197.228 Y211.783 E48.68172
G1 X196.867 Y212.134 E48.81692
G1 X196.550 Y212.525 E48.95212
G1 X196.303 Y212.916 E49.07656
G1 X195.743 Y212.754 E49.23324
G1 X195.743 Y206.993 E50.78146
G1 X254.257 Y206.993 E66.50556
G1 X254.257 Y212.745 E68.05137
G1 X253.714 Y212.916 E68.20436
G1 X253.335 Y212.371 E68.38272
G1 X253.003 Y211.998 E68.51707
G1 X252.629 Y211.665 E68.65143
G1 X252.219 Y211.380 E68.78578
G1 X251.778 Y211.144 E68.92012
G1 X251.312 Y210.962 E69.05446
G1 X250.828 Y210.835 E69.18881
G1 X250.328 Y210.766 E69.32466
G1 X249.815 Y210.759 E69.46255
G1 X249.336 Y210.806 E69.59183
G1 X248.847 Y210.913 E69.72617
G1 X248.375 Y211.077 E69.86052
G1 X247.925 Y211.295 E69.99488
G1 X247.504 Y211.565 E70.12922
G1 X247.118 Y211.882 E70.26356
G1 X246.771 Y212.242 E70.39791
G1 X246.469 Y212.641 E70.53226
G1 X246.217 Y213.072 E70.66660
G1 X246.016 Y213.530 E70.80096
G1 X245.871 Y214.009 E70.93530
G1 X245.783 Y214.501 E71.06963
G1 X245.645 Y216.843 E71.70010
G92 E0
G1 X247.008 Y215.700 F6000.000
G1 F1500
G1 X247.069 Y214.653 E0.28181
G1 X247.130 Y214.311 E0.37518
G1 X247.231 Y213.979 E0.46855
G1 X247.370 Y213.660 E0.56193
G1 X247.546 Y213.360 E0.65531
G1 X247.756 Y213.083 E0.74868
G1 X247.997 Y212.833 E0.84206
G1 X248.265 Y212.612 E0.93543
G1 X248.558 Y212.425 E1.02881
G1 X248.871 Y212.273 E1.12218
G1 X249.199 Y212.160 E1.21556
G1 X249.538 Y212.085 E1.30893
G1 X249.869 Y212.053 E1.39822
G1 X250.230 Y212.058 E1.49514
G1 X250.576 Y212.105 E1.58904
G1 X250.912 Y212.193 E1.68242
G1 X251.236 Y212.320 E1.77579
G1 X251.542 Y212.484 E1.86916
G1 X251.827 Y212.682 E1.96254
G1 X252.087 Y212.913 E2.05592
G1 X252.318 Y213.173 E2.14930
G1 X252.516 Y213.458 E2.24266
G1 X252.680 Y213.764 E2.33604
G1 X252.807 Y214.088 E2.42942
G1 X252.895 Y214.424 E2.52279
G1 X252.942 Y214.768 E2.61617
G1 X252.949 Y215.116 E2.70954
G1 X252.915 Y215.462 E2.80292
G1 X252.840 Y215.801 E2.89629
G1 X252.732 Y216.115 E2.98558
G1 X252.576 Y216.440 E3.08249
G1 X252.388 Y216.735 E3.17639
G1 X252.167 Y217.003 E3.26978
G1 X251.917 Y217.244 E3.36315
G1 X251.640 Y217.454 E3.45652
G1 X251.340 Y217.630 E3.54990
G1 X251.021 Y217.769 E3.64328
G1 X250.689 Y217.870 E3.73665
G1 X250.347 Y217.931 E3.83002
G1 X249.300 Y217.993 E4.11183
G1 X249.300 Y215.700 E4.72788
G1 X247.158 Y215.700 E5.30361
G1 X246.052 Y215.403 F6000.000
G92 E0
G1 X202.950 Y214.913
G1 F1500
G1 X202.940 Y215.262 E0.09397
G1 X202.888 Y215.608 E0.18793
G1 X202.796 Y215.945 E0.28189
G1 X202.664 Y216.269 E0.37585
G1 X202.496 Y216.575 E0.46981
G1 X202.292 Y216.860 E0.56378
G1 X202.056 Y217.118 E0.65774
G1 X201.791 Y217.346 E0.75170
G1 X201.501 Y217.541 E0.84567
G1 X201.190 Y217.701 E0.93963
G1 X200.862 Y217.823 E1.03359
G1 X200.522 Y217.905 E1.12755
G1 X200.175 Y217.946 E1.22151
G1 X199.825 Y217.946 E1.31548
G1 X199.478 Y217.905 E1.40944
G1 X199.138 Y217.823 E1.50340
G1 X198.810 Y217.701 E1.59736
G1 X198.499 Y217.541 E1.69133
G1 X198.209 Y217.346 E1.78529
G1 X197.944 Y217.118 E1.87925
G1 X197.708 Y216.860 E1.97321
G1 X197.504 Y216.575 E2.06718
G1 X197.343 Y216.283 E2.15702
G1 X197.205 Y215.947 E2.25455
G1 X197.112 Y215.608 E2.34904
G1 X197.060 Y215.262 E2.44300
G1 X197.050 Y214.913 E2.53696
G1 X197.081 Y214.564 E2.63093
G1 X197.153 Y214.222 E2.72489
G1 X197.260 Y213.905 E2.81474
G1 X197.414 Y213.577 E2.91226
G1 X197.602 Y213.279 E3.00675
G1 X197.822 Y213.008 E3.10072
G1 X198.073 Y212.764 E3.19468
G1 X198.351 Y212.552 E3.28865
G1 X198.652 Y212.374 E3.38260
G1 X198.972 Y212.233 E3.47657
G1 X199.307 Y212.131 E3.57053
G1 X199.651 Y212.069 E3.66449
G1 X199.985 Y212.050 E3.75434
G1 X200.347 Y212.069 E3.85186
G1 X200.693 Y212.131 E3.94636
G1 X201.028 Y212.233 E4.04032
G1 X201.348 Y212.374 E4.13428
G1 X201.649 Y212.552 E4.22824
G1 X201.927 Y212.764 E4.32221
G1 X202.178 Y213.008 E4.41617
G1 X202.398 Y213.279 E4.51013
G1 X202.585 Y213.575 E4.60409
G1 X202.735 Y213.891 E4.69805
G1 X202.847 Y214.222 E4.79202
G1 X202.919 Y214.564 E4.88598
G1 X202.937 Y214.763 E4.93963
G1 X203.258 Y215.078 F6000.000
G92 E0
G1 X200.347 Y232.069
G1 F1500
G1 X200.693 Y232.131 E0.09450
G1 X201.028 Y232.233 E0.18846
G1 X201.348 Y232.374 E0.28242
G1 X201.649 Y232.552 E0.37638
G1 X201.927 Y232.764 E0.47035
G1 X202.178 Y233.008 E0.56431
G1 X202.398 Y233.279 E0.65827
G1 X202.585 Y233.575 E0.75223
G1 X202.735 Y233.891 E0.84620
G1 X202.847 Y234.222 E0.94016
G1 X202.919 Y234.564 E1.03412
G1 X202.950 Y234.913 E1.12808
G1 X202.940 Y235.262 E1.22205
G1 X202.888 Y235.608 E1.31601
G1 X202.796 Y235.945 E1.40997
G1 X202.664 Y236.269 E1.50393
G1 X202.496 Y236.575 E1.59789
G1 X202.292 Y236.860 E1.69186
G1 X202.056 Y237.118 E1.78582
G1 X201.791 Y237.346 E1.87978
