; generated by Slic3r Prusa Edition 1.42.0-beta2 on 2020-09-29 at 18:03:09

; 

; external perimeters extrusion width = 0.88mm
; perimeters extrusion width = 0.88mm
; infill extrusion width = 0.88mm
; solid infill extrusion width = 0.88mm
; top infill extrusion width = 0.88mm
; first layer extrusion width = 0.88mm

M107
G28 Y0 X0 Z0  ;
M140 S85 ; set bed temp
M190 S85 ; wait for bed temp
M104 S245 ; set extruder temp
M109 S245 ; wait for extruder temp
M420 S Z5 ; call on the auto level gods
M300 S1000 P500 ; chirp
G1 Y25 X5.0 F4000.0 ; go outside print area
G92 E0.0
G1 Z0.5 F300.0; 
G1 X60.0 E9.0 F1000.0 ; intro line
G1 X100.0 E12.5 F1000.0 ; intro line
G92 E0.0
M900 K45 ; Filament gcode
G21 ; set units to millimeters
G90 ; use absolute coordinates
M82 ; use absolute distances for extrusion
G92 E0
G1 Z0.500 F6000.000
G1 E-4.00000 F2400.00000
G92 E0
G1 Z1.500 F6000.000
G1 X247.313 Y206.014
G1 Z0.500
G1 E4.00000 F2400.00000
G1 F1500
G1 X271.188 Y206.014 E7.81012
G1 X271.188 Y244.889 E14.01403
G1 X247.313 Y244.889 E17.82415
G1 X247.313 Y206.134 E24.00890
G1 X247.166 Y205.227 F6000.000
G1 E23.60890 F2400.00000
G1 F4800
G1 X254.512 Y206.098 E20.18890
G1 E20.00890 F2400.00000
G92 E0
G1 Z1.500 F6000.000
G1 X246.705 Y205.246
G1 Z0.500
G1 E4.00000 F2400.00000
G1 F1500
G1 X246.705 Y204.407 E4.13399
G1 X271.795 Y204.407 E8.13794
G1 X271.795 Y205.246 E8.27193
G1 X246.825 Y205.246 E12.25673
G1 E11.85673 F2400.00000
G1 F4800
G1 X246.705 Y204.407 E11.45387
G1 X253.057 Y204.407 E8.43673
G1 E8.25673 F2400.00000
G92 E0
G1 Z1.500 F6000.000
G1 X246.825 Y245.657
G1 Z0.500
G1 E4.00000 F2400.00000
G1 F1500
G1 X271.795 Y245.657 E7.98480
G1 X271.795 Y246.496 E8.11879
G1 X246.705 Y246.496 E12.12274
G1 X246.705 Y245.657 E12.25673
G1 E11.85673 F2400.00000
G1 F4800
G1 X253.905 Y245.657 E8.43673
G1 E8.25673 F2400.00000
G92 E0
G1 Z1.500 F6000.000
G1 X245.938 Y247.264
G1 Z0.500
G1 E4.00000 F2400.00000
G1 F1500
G1 X245.938 Y203.639 E10.96194
G1 X272.563 Y203.639 E15.21092
G1 X272.563 Y247.264 E22.17287
G1 X246.058 Y247.264 E26.40270
G1 X246.083 Y246.477 F6000.000
G1 E26.00270 F2400.00000
G1 F4800
G1 X246.038 Y240.064 E22.58270
G1 E22.40270 F2400.00000
G92 E0
G1 Z1.500 F6000.000
G1 X246.625 Y245.273
G1 Z0.500
G1 E4.00000 F2400.00000
G1 F1500
G1 X246.625 Y205.630 E9.00463
G1 E8.60463 F2400.00000
G1 F4800
G1 X246.625 Y212.830 E5.18463
G1 E5.00463 F2400.00000
G92 E0
G1 Z1.500 F6000.000
G1 X271.875 Y205.630
G1 Z0.500
G1 E4.00000 F2400.00000
G1 F1500
G1 X271.875 Y245.273 E9.00463
G1 E8.60463 F2400.00000
G1 F4800
G1 X271.875 Y238.073 E5.18463
G1 E5.00463 F2400.00000
G92 E0
G1 Z1.500 F6000.000
G1 X220.009 Y248.759
G1 Z0.500
G1 E4.00000 F2400.00000
G1 F1500
G1 X196.491 Y248.759 E7.75327
G1 X196.491 Y201.241 E15.33662
G1 X220.009 Y201.241 E19.08989
G1 X220.009 Y248.639 E26.65408
G1 E26.25408 F2400.00000
G1 F4800
G1 X212.809 Y248.676 E22.83408
G1 E22.65408 F2400.00000
G92 E0
G1 Z1.500 F6000.000
G1 X220.777 Y249.527
G1 Z0.500
G1 E4.00000 F2400.00000
G1 F1500
G1 X195.723 Y249.527 E7.99830
G1 X195.723 Y200.473 E15.82667
G1 X220.777 Y200.473 E19.82497
G1 X220.777 Y249.407 E27.63419
G1 X221.545 Y249.205 F6000.000
G1 F1500
G1 X237.545 Y249.205 E30.18757
G1 X237.545 Y250.295 E30.36146
G1 X194.955 Y250.295 E37.15816
G1 X194.955 Y245.295 E37.95609
G1 X178.955 Y245.295 E40.50947
G1 X178.955 Y244.205 E40.68336
G1 X194.955 Y244.205 E43.23673
G1 X194.955 Y199.705 E50.33832
G1 X221.545 Y199.705 E54.58165
G1 X221.545 Y249.085 E62.46201
G1 E62.06201 F2400.00000
G1 F4800
G1 X228.745 Y249.139 E58.64201
G1 E58.46201 F2400.00000
G92 E0
G1 Z1.500 F6000.000
G1 X222.313 Y248.438
G1 Z0.500
G1 E4.00000 F2400.00000
G1 F1500
G1 X238.313 Y248.438 E6.55338
G1 X238.313 Y251.063 E6.97229
G1 X194.188 Y251.063 E14.01403
G1 X194.188 Y246.063 E14.81196
G1 X178.188 Y246.063 E17.36534
G1 X178.188 Y243.438 E17.78425
G1 X194.188 Y243.438 E20.33763
G1 X194.188 Y198.938 E27.43921
G1 X222.313 Y198.938 E31.92757
G1 X222.313 Y248.318 E39.80793
G1 X222.450 Y249.226 F6000.000
G1 E39.40793 F2400.00000
G1 F4800
G1 X229.512 Y248.371 E35.98793
G1 E35.80793 F2400.00000
G92 E0
G1 Z1.500 F6000.000
G1 X221.161 Y249.750
G1 Z0.500
G1 E4.00000 F2400.00000
G1 F1500
G1 X237.161 Y249.750 E5.07066
G1 E4.67066 F2400.00000
G1 F4800
G1 X229.961 Y249.750 E1.25066
G1 E1.07066 F2400.00000
G92 E0
G1 Z1.500 F6000.000
G1 X219.816 Y248.913
G1 Z0.500
G1 E4.00000 F2400.00000
G1 F1500
G1 X219.816 Y201.433 E11.61033
G1 X219.045 Y201.433 E11.73392
G1 X219.045 Y248.567 E19.28888
G1 X218.274 Y248.567 E19.41247
G1 X218.274 Y201.433 E26.96743
G1 X217.503 Y201.433 E27.09102
G1 X217.503 Y248.567 E34.64598
G1 X216.732 Y248.567 E34.76957
G1 X216.732 Y201.433 E42.32453
G1 X215.961 Y201.433 E42.44812
G1 X215.961 Y248.567 E50.00308
G1 X215.189 Y248.567 E50.12667
G1 X215.189 Y201.433 E57.68163
G1 X214.418 Y201.433 E57.80522
G1 X214.418 Y248.567 E65.36018
G1 X213.647 Y248.567 E65.48377
G1 X213.647 Y201.433 E73.03873
G1 X212.876 Y201.433 E73.16232
G1 X212.876 Y248.567 E80.71728
G1 X212.105 Y248.567 E80.84087
G1 X212.105 Y201.433 E88.39583
G1 X211.334 Y201.433 E88.51942
G1 X211.334 Y248.567 E96.07438
G1 X210.563 Y248.567 E96.19797
G1 X210.563 Y201.433 E103.75293
G1 X209.792 Y201.433 E103.87652
G1 X209.792 Y248.567 E111.43148
G1 X209.021 Y248.567 E111.55507
G1 X209.021 Y201.433 E119.11003
G1 X208.250 Y201.433 E119.23362
G1 X208.250 Y248.567 E126.78858
G1 X207.479 Y248.567 E126.91217
G1 X207.479 Y201.433 E134.46713
G1 X206.708 Y201.433 E134.59072
G1 X206.708 Y248.567 E142.14568
G1 X205.937 Y248.567 E142.26927
G1 X205.937 Y201.433 E149.82423
G1 X205.166 Y201.433 E149.94782
G1 X205.166 Y248.567 E157.50278
G1 X204.395 Y248.567 E157.62637
G1 X204.395 Y201.433 E165.18133
G1 X203.624 Y201.433 E165.30492
G1 X203.624 Y248.567 E172.85988
G1 X202.853 Y248.567 E172.98347
G1 X202.853 Y201.433 E180.53843
G1 X202.082 Y201.433 E180.66202
G1 X202.082 Y248.567 E188.21698
G1 X201.310 Y248.567 E188.34057
G1 X201.310 Y201.433 E195.89553
G1 X200.539 Y201.433 E196.01912
G1 X200.539 Y248.567 E203.57408
G1 X199.768 Y248.567 E203.69767
G1 X199.768 Y201.433 E211.25263
G1 X198.997 Y201.433 E211.37622
G1 X198.997 Y248.567 E218.93118
G1 X198.226 Y248.567 E219.05477
G1 X198.226 Y201.433 E226.60973
G1 X197.455 Y201.433 E226.73332
G1 X197.455 Y248.567 E234.28828
G1 X196.684 Y248.567 E234.41187
G1 X196.684 Y201.087 E242.02220
G1 E241.62220 F2400.00000
G1 F4800
G1 X196.684 Y208.287 E238.20220
G1 E238.02220 F2400.00000
G92 E0
G1 Z1.500 F6000.000
G1 X195.339 Y244.750
G1 Z0.500
G1 E4.00000 F2400.00000
G1 F1500
G1 X179.339 Y244.750 E5.07066
G1 Z1.000 F6000.000
G1 E1.07066 F2400.00000
G92 E0
G1 Z2.000 F6000.000
G1 X247.313 Y244.750
G1 Z1.000
G1 E4.00000 F2400.00000
G1 F1500
G1 X247.313 Y206.014 E10.18174
G1 X271.188 Y206.014 E13.99186
G1 X271.188 Y244.889 E20.19576
G1 X247.313 Y244.889 E24.00588
G1 X247.313 Y244.870 E24.00890
G1 X246.513 Y244.748 F6000.000
G1 X246.705 Y205.246
G1 F1500
G1 X246.705 Y203.907 E24.22269
G1 X271.795 Y203.907 E28.22664
G1 X271.795 Y205.246 E28.44042
G1 X246.825 Y205.246 E32.42522
G1 X246.825 Y245.657 F6000.000
G1 F1500
G1 X271.795 Y245.657 E36.41002
G1 X271.795 Y246.996 E36.62380
G1 X246.705 Y246.996 E40.62776
G1 X246.705 Y245.657 E40.84154
G1 X245.938 Y245.657 F6000.000
G1 F1500
G1 X245.938 Y203.139 E47.62677
G1 X272.563 Y203.139 E51.87575
G1 X272.563 Y247.764 E58.99728
G1 X245.938 Y247.764 E63.24626
G1 X245.938 Y245.777 E63.56341
G1 X246.356 Y244.975 F6000.000
G1 X246.625 Y245.273
G1 F1200
G1 X246.625 Y205.630 E68.56803
G1 X247.089 Y204.576 F6000.000
G1 F1200
G1 X271.411 Y204.576 E71.45954
G1 X271.875 Y205.630 F6000.000
G1 F1200
G1 X271.875 Y245.273 E76.46417
G1 X271.411 Y246.326 F6000.000
G1 F1200
G1 X247.089 Y246.326 E79.35568
G1 E78.95568 F2400.00000
G1 F4800
G1 X254.289 Y246.326 E75.53568
G1 E75.35568 F2400.00000
G92 E0
G1 Z2.000 F6000.000
G1 X220.509 Y249.259
G1 Z1.000
G1 E4.00000 F2400.00000
G1 F1500
G1 X195.991 Y249.259 E7.91286
G1 X195.991 Y200.741 E15.65579
G1 X220.509 Y200.741 E19.56865
G1 X220.509 Y249.139 E27.29242
G1 X221.277 Y249.139 F6000.000
G1 F1500
G1 X221.277 Y249.473 E27.34565
G1 X237.277 Y249.473 E29.89902
G1 X237.277 Y250.027 E29.98747
G1 X195.223 Y250.027 E36.69873
G1 X195.223 Y245.027 E37.49666
G1 X179.223 Y245.027 E40.05004
G1 X179.223 Y244.473 E40.13848
G1 X195.223 Y244.473 E42.69186
G1 X195.223 Y199.973 E49.79344
G1 X221.277 Y199.973 E53.95133
G1 X221.277 Y249.019 E61.77847
G1 X222.045 Y248.705 F6000.000
G1 F1500
G1 X238.045 Y248.705 E64.33185
G1 X238.045 Y250.795 E64.66532
G1 X194.455 Y250.795 E71.62161
G1 X194.455 Y245.795 E72.41954
G1 X178.455 Y245.795 E74.97292
G1 X178.455 Y243.705 E75.30639
G1 X194.455 Y243.705 E77.85977
G1 X194.455 Y199.205 E84.96135
G1 X222.045 Y199.205 E89.36427
G1 X222.045 Y248.585 E97.24463
G1 E96.84463 F2400.00000
G1 F4800
G1 X229.245 Y248.639 E93.42463
G1 E93.24463 F2400.00000
G92 E0
G1 Z2.000 F6000.000
G1 X222.813 Y247.938
G1 Z1.000
G1 E4.00000 F2400.00000
G1 F1500
G1 X238.813 Y247.938 E6.55338
G1 X238.813 Y251.563 E7.13188
G1 X193.688 Y251.563 E14.33320
G1 X193.688 Y246.563 E15.13113
G1 X177.688 Y246.563 E17.68451
G1 X177.688 Y242.938 E18.26301
G1 X193.688 Y242.938 E20.81638
G1 X193.688 Y198.438 E27.91797
G1 X222.813 Y198.438 E32.56591
G1 X222.813 Y247.818 E40.44627
G1 X222.954 Y248.725 F6000.000
G1 E40.04627 F2400.00000
G1 F4800
G1 X230.012 Y247.871 E36.62627
G1 E36.44627 F2400.00000
G92 E0
G1 Z2.000 F6000.000
G1 X195.837 Y249.063
G1 Z1.000
G1 E4.00000 F2400.00000
G1 F1500
G1 X220.317 Y249.063 E7.95017
G1 X220.317 Y248.287 E8.07542
G1 X196.183 Y248.287 E11.96985
G1 X196.183 Y247.511 E12.09510
G1 X220.317 Y247.511 E15.98953
G1 X220.317 Y246.734 E16.11478
G1 X196.183 Y246.734 E20.00920
G1 X196.183 Y245.958 E20.13446
G1 X220.317 Y245.958 E24.02888
G1 X220.317 Y245.182 E24.15414
G1 X196.183 Y245.182 E28.04856
G1 X196.183 Y244.406 E28.17381
G1 X220.317 Y244.406 E32.06824
G1 X220.317 Y243.630 E32.19349
G1 X196.183 Y243.630 E36.08792
G1 X196.183 Y242.853 E36.21317
G1 X220.317 Y242.853 E40.10760
G1 X220.317 Y242.077 E40.23285
G1 X196.183 Y242.077 E44.12727
G1 X196.183 Y241.301 E44.25253
G1 X220.317 Y241.301 E48.14695
G1 X220.317 Y240.525 E48.27221
G1 X196.183 Y240.525 E52.16663
G1 X196.183 Y239.748 E52.29188
G1 X220.317 Y239.748 E56.18631
G1 X220.317 Y238.972 E56.31156
G1 X196.183 Y238.972 E60.20599
G1 X196.183 Y238.196 E60.33124
G1 X220.317 Y238.196 E64.22567
G1 X220.317 Y237.420 E64.35092
G1 X196.183 Y237.420 E68.24534
G1 X196.183 Y236.643 E68.37060
G1 X220.317 Y236.643 E72.26502
G1 X220.317 Y235.867 E72.39028
G1 X196.183 Y235.867 E76.28470
G1 X196.183 Y235.091 E76.40995
G1 X220.317 Y235.091 E80.30438
G1 X220.317 Y234.315 E80.42963
G1 X196.183 Y234.315 E84.32406
G1 X196.183 Y233.539 E84.44931
G1 X220.317 Y233.539 E88.34374
G1 X220.317 Y232.762 E88.46899
G1 X196.183 Y232.762 E92.36341
G1 X196.183 Y231.986 E92.48867
G1 X220.317 Y231.986 E96.38309
G1 X220.317 Y231.210 E96.50835
G1 X196.183 Y231.210 E100.40277
G1 X196.183 Y230.434 E100.52802
G1 X220.317 Y230.434 E104.42245
G1 X220.317 Y229.657 E104.54770
G1 X196.183 Y229.657 E108.44213
G1 X196.183 Y228.881 E108.56738
G1 X220.317 Y228.881 E112.46181
G1 X220.317 Y228.105 E112.58706
G1 X196.183 Y228.105 E116.48148
G1 X196.183 Y227.329 E116.60674
G1 X220.317 Y227.329 E120.50116
G1 X220.317 Y226.552 E120.62642
G1 X196.183 Y226.552 E124.52084
G1 X196.183 Y225.776 E124.64609
G1 X220.317 Y225.776 E128.54052
G1 X220.317 Y225.000 E128.66577
G1 X196.183 Y225.000 E132.56020
G1 X196.183 Y224.224 E132.68545
G1 X220.317 Y224.224 E136.57988
G1 X220.317 Y223.447 E136.70513
G1 X196.183 Y223.447 E140.59955
G1 X196.183 Y222.671 E140.72481
G1 X220.317 Y222.671 E144.61923
G1 X220.317 Y221.895 E144.74449
G1 X196.183 Y221.895 E148.63891
G1 X196.183 Y221.119 E148.76416
G1 X220.317 Y221.119 E152.65859
G1 X220.317 Y220.343 E152.78384
G1 X196.183 Y220.343 E156.67827
G1 X196.183 Y219.566 E156.80352
G1 X220.317 Y219.566 E160.69795
G1 X220.317 Y218.790 E160.82320
G1 X196.183 Y218.790 E164.71762
G1 X196.183 Y218.014 E164.84288
G1 X220.317 Y218.014 E168.73730
G1 X220.317 Y217.238 E168.86256
G1 X196.183 Y217.238 E172.75698
G1 X196.183 Y216.461 E172.88223
G1 X220.317 Y216.461 E176.77666
G1 X220.317 Y215.685 E176.90191
G1 X196.183 Y215.685 E180.79634
G1 X196.183 Y214.909 E180.92159
G1 X220.317 Y214.909 E184.81602
G1 X220.317 Y214.133 E184.94127
G1 X196.183 Y214.133 E188.83569
G1 X196.183 Y213.356 E188.96095
G1 X220.317 Y213.356 E192.85537
G1 X220.317 Y212.580 E192.98063
G1 X196.183 Y212.580 E196.87505
G1 X196.183 Y211.804 E197.00030
G1 X220.317 Y211.804 E200.89473
G1 X220.317 Y211.028 E201.01998
G1 X196.183 Y211.028 E204.91441
G1 X196.183 Y210.252 E205.03966
G1 X220.317 Y210.252 E208.93409
G1 X220.317 Y209.475 E209.05934
G1 X196.183 Y209.475 E212.95377
G1 X196.183 Y208.699 E213.07902
G1 X220.317 Y208.699 E216.97344
G1 X220.317 Y207.923 E217.09870
G1 X196.183 Y207.923 E220.99312
G1 X196.183 Y207.147 E221.11837
G1 X220.317 Y207.147 E225.01280
G1 X220.317 Y206.370 E225.13805
G1 X196.183 Y206.370 E229.03248
G1 X196.183 Y205.594 E229.15773
G1 X220.317 Y205.594 E233.05216
G1 X220.317 Y204.818 E233.17741
G1 X196.183 Y204.818 E237.07184
G1 X196.183 Y204.042 E237.19709
G1 X220.317 Y204.042 E241.09151
G1 X220.317 Y203.265 E241.21677
G1 X196.183 Y203.265 E245.11119
G1 X196.183 Y202.489 E245.23644
G1 X220.317 Y202.489 E249.13087
G1 X220.317 Y201.713 E249.25612
G1 X196.183 Y201.713 E253.15055
G1 X196.183 Y200.937 E253.27580
G1 X220.663 Y200.937 E257.22597
G1 Z1.500 F6000.000
G1 E253.22597 F2400.00000
G92 E0
G1 Z2.500 F6000.000
G1 X247.313 Y206.014
G1 Z1.500
G1 E4.00000 F2400.00000
G1 F1500
G1 X271.188 Y206.014 E7.81012
G1 X271.188 Y244.889 E14.01403
G1 X247.313 Y244.889 E17.82415
G1 X247.313 Y206.134 E24.00890
G1 X247.166 Y205.227 F6000.000
G1 X246.705 Y205.246
G1 F1500
G1 X246.705 Y203.407 E24.30248
G1 X271.795 Y203.407 E28.30643
G1 X271.795 Y205.246 E28.60001
G1 X246.825 Y205.246 E32.58481
G1 X246.825 Y245.657 F6000.000
G1 F1500
G1 X271.795 Y245.657 E36.56961
G1 X271.795 Y247.496 E36.86318
G1 X246.705 Y247.496 E40.86714
G1 X246.705 Y245.657 E41.16071
G1 X245.938 Y245.657 F6000.000
G1 F1500
G1 X245.938 Y202.639 E48.02574
G1 X272.563 Y202.639 E52.27472
G1 X272.563 Y248.264 E59.55583
G1 X245.938 Y248.264 E63.80481
G1 X245.938 Y245.777 E64.20175
G1 X246.360 Y244.977 F6000.000
G1 X246.625 Y245.273
G1 F1200
G1 X246.625 Y205.630 E69.20638
G1 X247.089 Y204.326 F6000.000
G1 F1200
G1 X271.411 Y204.326 E74.62586
G1 X271.875 Y205.630 F6000.000
G1 F1200
G1 X271.875 Y245.273 E79.63048
G1 X271.411 Y246.576 F6000.000
G1 F1200
G1 X247.089 Y246.576 E85.04996
G1 E84.64996 F2400.00000
G1 F4800
G1 X254.289 Y246.576 E81.22996
G1 E81.04996 F2400.00000
G92 E0
G1 Z2.500 F6000.000
G1 X220.759 Y249.509
G1 Z1.500
G1 E4.00000 F2400.00000
G1 F1500
G1 X195.741 Y249.509 E7.99265
G1 X195.741 Y200.491 E15.81537
G1 X220.759 Y200.491 E19.80803
G1 X220.759 Y249.389 E27.61160
G1 X221.527 Y249.223 F6000.000
G1 F1500
G1 X237.527 Y249.223 E30.16497
G1 X237.527 Y250.277 E30.33321
G1 X194.973 Y250.277 E37.12427
G1 X194.973 Y245.277 E37.92220
G1 X178.973 Y245.277 E40.47558
G1 X178.973 Y244.223 E40.64381
G1 X194.973 Y244.223 E43.19719
G1 X194.973 Y199.723 E50.29877
G1 X221.527 Y199.723 E54.53645
G1 X221.527 Y249.103 E62.41682
G1 X222.295 Y248.455 F6000.000
G1 F1500
G1 X238.295 Y248.455 E64.97019
G1 X238.295 Y251.045 E65.38346
G1 X194.205 Y251.045 E72.41954
G1 X194.205 Y246.045 E73.21748
G1 X178.205 Y246.045 E75.77085
G1 X178.205 Y243.455 E76.18412
G1 X194.205 Y243.455 E78.73749
G1 X194.205 Y198.955 E85.83908
G1 X222.295 Y198.955 E90.32179
G1 X222.295 Y248.335 E98.20215
G1 X223.063 Y247.688 F6000.000
G1 F1500
G1 X239.063 Y247.688 E100.75552
G1 X239.063 Y251.813 E101.41382
G1 X193.438 Y251.813 E108.69493
G1 X193.438 Y246.813 E109.49286
G1 X177.438 Y246.813 E112.04624
G1 X177.438 Y242.688 E112.70453
G1 X193.438 Y242.688 E115.25791
G1 X193.438 Y198.188 E122.35949
G1 X223.063 Y198.188 E127.08723
G1 X223.063 Y247.568 E134.96759
G1 X223.206 Y248.475 F6000.000
G1 X221.143 Y249.750
G1 F1200
G1 X237.143 Y249.750 E135.92051
G1 X222.500 Y249.750 F6000.000
G1 X219.500 Y248.250
G1 X220.567 Y242.262
G1 F1500
G1 X220.495 Y242.642 E135.98219
