; generated by Slic3r Prusa Edition 1.42.0-beta2 on 2020-11-03 at 18:43:21

; 

; external perimeters extrusion width = 0.65mm
; perimeters extrusion width = 0.65mm
; infill extrusion width = 0.65mm
; solid infill extrusion width = 0.65mm
; top infill extrusion width = 0.65mm
; first layer extrusion width = 0.65mm

M107
G28 Y0 X0 Z0  ;
M140 S80 ; set bed temp
M190 S80 ; wait for bed temp
M104 S215 ; set extruder temp
M109 S215 ; wait for extruder temp
M420 S Z5 ; call on the auto level gods
M300 S1000 P500 ; chirp
G1 Y25 X5.0 F4000.0 ; go outside print area
G92 E0.0
G1 Z0.5 F300.0; 
G1 X60.0 E9.0 F1000.0 ; intro line
G1 X100.0 E12.5 F1000.0 ; intro line
G92 E0.0
M900 K30 ; Filament gcode
G21 ; set units to millimeters
G90 ; use absolute coordinates
M82 ; use absolute distances for extrusion
G92 E0
G1 Z0.500 F6000.000
G1 X212.632 Y205.132
G1 F900
G1 X237.368 Y205.132 E2.79050
G1 X237.368 Y244.868 E7.27321
G1 X212.632 Y244.868 E10.06371
G1 X212.632 Y205.252 E14.53288
G1 X213.175 Y205.675 F6000.000
G1 F900
G1 X236.825 Y205.675 E17.20093
G1 X236.825 Y244.325 E21.56120
G1 X213.175 Y244.325 E24.22925
G1 X213.175 Y205.795 E28.57597
G1 X213.029 Y204.888 F6000.000
G92 E0
G1 X212.118 Y203.868
G1 F900
G1 X237.882 Y203.868 E2.90661
G1 X237.882 Y246.132 E7.67465
G1 X212.118 Y246.132 E10.58126
G1 X212.118 Y203.988 E15.33576
G1 X211.575 Y203.325 F6000.000
G1 F900
G1 X238.425 Y203.325 E18.36482
G1 X238.425 Y246.675 E23.25531
G1 X211.575 Y246.675 E26.28436
G1 X211.575 Y203.445 E31.16131
G1 X212.330 Y203.591 F6000.000
G92 E0
G1 X212.389 Y204.500
G1 F900
G1 X237.611 Y204.500 E3.78497
G92 E0
G1 X237.611 Y245.500 F6000.000
G1 F900
G1 X212.389 Y245.500 E3.78497
M106 S255
G1 Z1.000 F6000.000
G1 X212.632 Y244.868
G1 F1200
G1 X212.632 Y205.132 E8.26777
G1 X237.368 Y205.143 E11.05826
G1 X237.368 Y244.857 E15.53867
G1 X212.752 Y244.868 E18.31564
G1 X213.175 Y244.325 F6000.000
G1 F1200
G1 X213.175 Y205.675 E22.67593
G1 X236.825 Y205.685 E25.34398
G1 X236.825 Y244.315 E29.70199
G1 X213.295 Y244.325 E32.35651
G1 X212.421 Y244.592 F6000.000
G1 X212.118 Y246.132
G1 F1200
G1 X212.118 Y203.868 E37.12455
G1 X237.882 Y203.868 E40.03116
G1 X237.882 Y246.132 E44.79920
G1 X212.238 Y246.132 E47.69227
G1 X211.575 Y246.675 F6000.000
G1 F1200
G1 X211.575 Y203.325 E52.58276
G1 X238.425 Y203.325 E55.61181
G1 X238.425 Y246.675 E60.50230
G1 X211.695 Y246.675 E63.51782
G1 X211.722 Y245.889 F6000.000
G1 X212.389 Y245.500
G1 F1200
G1 X237.611 Y245.495 E67.35602
G1 X237.611 Y204.505 F6000.000
G1 F1200
G1 X212.389 Y204.500 E71.19418
G1 Z1.500 F6000.000
G1 X212.632 Y205.132
G1 F1200
G1 X231.401 Y205.132 E73.31152
G1 X237.368 Y205.239 E73.98479
G1 X237.368 Y244.761 E78.44336
G1 X231.401 Y244.868 E79.11663
G1 X212.632 Y244.868 E81.23397
G1 X212.632 Y205.252 E85.70314
G1 X213.175 Y205.675 F6000.000
G1 F1200
G1 X231.396 Y205.675 E87.75870
G1 X236.825 Y205.772 E88.37129
G1 X236.825 Y244.228 E92.70959
G1 X231.396 Y244.325 E93.32218
G1 X213.175 Y244.325 E95.37774
G1 X213.175 Y205.795 E99.72446
G1 X213.058 Y204.884 F6000.000
G1 X212.118 Y203.868
G1 F1200
G1 X237.882 Y203.868 E102.63107
G1 X237.882 Y246.132 E107.39911
G1 X212.118 Y246.132 E110.30572
G1 X212.118 Y203.988 E115.06022
G1 X211.575 Y203.325 F6000.000
G1 F1200
G1 X238.425 Y203.325 E118.08928
G1 X238.425 Y246.675 E122.97977
G1 X211.575 Y246.675 E126.00883
G1 X211.575 Y203.445 E130.88578
G1 X212.330 Y203.591 F6000.000
G1 X212.389 Y204.500
G1 F1200
G1 X231.403 Y204.500 E133.73915
G1 X231.410 Y204.500 E133.74013
G1 X233.477 Y204.519 E134.06524
G1 X235.544 Y204.537 E134.40521
G1 X237.611 Y204.556 E134.76005
G1 X237.611 Y245.444 F6000.000
G1 F1200
G1 X235.544 Y245.463 E135.11489
G1 X233.477 Y245.481 E135.45486
G1 X231.410 Y245.500 E135.77997
G1 X231.403 Y245.500 E135.78094
G1 X212.389 Y245.500 E138.63432
G1 Z2.000 F6000.000
G1 X212.632 Y244.868
G1 F1200
G1 X212.632 Y205.132 E143.11703
G1 X229.769 Y205.132 E145.05035
G1 X230.793 Y205.153 E145.16586
G1 X232.007 Y205.215 E145.30297
G1 X234.926 Y205.398 E145.63293
G1 X237.368 Y205.446 E145.90843
G1 X237.368 Y244.554 E150.32035
G1 X234.926 Y244.602 E150.59586
G1 X232.007 Y244.785 E150.92581
G1 X230.793 Y244.847 E151.06292
G1 X229.770 Y244.868 E151.17843
G1 X212.752 Y244.868 E153.09821
G1 X213.175 Y244.325 F6000.000
G1 F1200
G1 X213.175 Y205.675 E157.45848
G1 X229.764 Y205.675 E159.32994
G1 X230.774 Y205.696 E159.44389
G1 X231.976 Y205.757 E159.57971
G1 X234.904 Y205.940 E159.91063
G1 X236.825 Y205.978 E160.12742
G1 X236.825 Y244.022 E164.41927
G1 X234.904 Y244.060 E164.63605
G1 X231.976 Y244.243 E164.96697
G1 X230.774 Y244.304 E165.10280
G1 X229.764 Y244.325 E165.21674
G1 X213.295 Y244.325 E167.07467
G1 X212.375 Y244.325 F6000.000
G1 X212.375 Y245.000
G1 X212.375 Y205.000
G1 X212.750 Y204.500
G1 X230.812 Y204.511
G1 X232.612 Y204.564
G1 X232.872 Y204.726
G1 F1200
G1 X232.882 Y204.410 E167.11028
G1 X237.340 Y204.410 E167.61316
G1 X237.340 Y204.903 E167.66870
G1 X234.948 Y204.856 E167.93852
G1 X232.992 Y204.733 E168.15966
G1 X232.612 Y204.564 F6000.000
G1 X237.102 Y204.648
G1 X237.625 Y205.297
G1 X237.625 Y244.703
G1 X237.102 Y245.352
G1 X237.340 Y245.590
G1 F1200
G1 X232.882 Y245.590 E168.66255
G1 X232.872 Y245.274 E168.69815
G1 X234.948 Y245.144 E168.93284
G1 X237.340 Y245.097 E169.20266
G1 X237.340 Y245.470 E169.24466
G1 X237.882 Y246.132 F6000.000
G1 F1200
G1 X212.118 Y246.132 E172.15127
G1 X212.118 Y203.868 E176.91931
G1 X237.882 Y203.868 E179.82592
G1 X237.882 Y246.012 E184.58042
G1 X238.425 Y246.675 F6000.000
G1 F1200
G1 X211.575 Y246.675 E187.60948
G1 X211.575 Y203.325 E192.49997
G1 X238.425 Y203.325 E195.52903
G1 X238.425 Y246.555 E200.40598
G1 X237.670 Y246.409 F6000.000
G1 X232.606 Y245.440
G1 F1200
G1 X232.048 Y245.458 E200.50068
G1 X232.043 Y245.458 E200.50144
G1 X231.432 Y245.474 E200.60377
G1 X230.822 Y245.489 E200.70213
G1 X230.811 Y245.489 E200.70389
G1 X229.780 Y245.500 E200.86315
G1 X229.772 Y245.500 E200.86426
G1 X212.389 Y245.500 E203.47290
G1 X212.389 Y204.500 F6000.000
G1 F1200
G1 X229.772 Y204.500 E206.08155
G1 X229.780 Y204.500 E206.08266
G1 X230.811 Y204.511 E206.24191
G1 X230.822 Y204.511 E206.24368
G1 X231.432 Y204.526 E206.34204
G1 X232.043 Y204.542 E206.44437
G1 X232.048 Y204.542 E206.44513
G1 X232.606 Y204.560 E206.53984
G1 Z2.500 F6000.000
G1 X212.632 Y205.132
G1 F1200
G1 X228.495 Y205.132 E208.32938
G1 X229.341 Y205.154 E208.42485
G1 X230.278 Y205.217 E208.53081
G1 X231.312 Y205.320 E208.64797
G1 X233.489 Y205.592 E208.89552
G1 X234.998 Y205.742 E209.06658
G1 X235.723 Y205.781 E209.14848
G1 X237.368 Y205.809 E209.33407
G1 X237.368 Y244.191 E213.66421
G1 X235.723 Y244.219 E213.84981
G1 X234.998 Y244.258 E213.93171
G1 X233.489 Y244.408 E214.10277
G1 X231.312 Y244.680 E214.35032
G1 X230.278 Y244.783 E214.46747
G1 X229.341 Y244.846 E214.57343
G1 X228.495 Y244.868 E214.66891
G1 X212.632 Y244.868 E216.45845
G1 X212.632 Y205.252 E220.92762
G1 X213.175 Y205.675 F6000.000
G1 F1200
G1 X228.488 Y205.675 E222.65517
G1 X229.316 Y205.696 E222.74857
G1 X230.233 Y205.758 E222.85225
G1 X231.251 Y205.860 E222.96768
G1 X233.429 Y206.131 E223.21525
G1 X234.956 Y206.283 E223.38846
G1 X235.704 Y206.323 E223.47287
G1 X236.825 Y206.342 E223.59940
G1 X236.825 Y243.658 E227.80914
G1 X235.704 Y243.677 E227.93567
G1 X234.956 Y243.717 E228.02009
G1 X233.429 Y243.869 E228.19329
G1 X231.251 Y244.140 E228.44086
G1 X230.233 Y244.242 E228.55629
G1 X229.316 Y244.304 E228.65997
G1 X228.488 Y244.325 E228.75338
G1 X213.175 Y244.325 E230.48092
G1 X213.175 Y205.795 E234.82765
G1 X213.075 Y204.881 F6000.000
G1 X230.760 Y204.720
G1 F1200
G1 X230.776 Y204.410 E234.86259
G1 X237.340 Y204.410 E235.60311
G1 X237.340 Y205.265 E235.69955
G1 X235.742 Y205.238 E235.87981
G1 X235.039 Y205.200 E235.95920
G1 X233.549 Y205.052 E236.12811
G1 X230.880 Y204.732 E236.43148
G1 X231.148 Y204.585 F6000.000
G1 X236.919 Y204.831
G1 X237.625 Y205.662
G1 X237.625 Y244.338
G1 X237.340 Y244.735
G1 F1200
G1 X237.340 Y245.590 E236.52792
G1 X230.775 Y245.590 E237.26844
G1 X230.760 Y245.280 E237.30339
G1 X233.549 Y244.948 E237.62029
G1 X235.039 Y244.800 E237.78921
G1 X235.742 Y244.762 E237.86859
G1 X237.220 Y244.737 E238.03531
G1 X237.882 Y246.132 F6000.000
G1 F1200
G1 X212.118 Y246.132 E240.94192
G1 X212.118 Y203.868 E245.70996
G1 X237.882 Y203.868 E248.61657
G1 X237.882 Y246.012 E253.37107
G1 X238.425 Y246.675 F6000.000
G1 F1200
G1 X211.575 Y246.675 E256.40013
G1 X211.575 Y203.325 E261.29062
G1 X238.425 Y203.325 E264.31967
G1 X238.425 Y246.555 E269.19662
G1 X237.670 Y246.409 F6000.000
G1 X237.068 Y245.164
G1 F1200
G1 X235.757 Y245.176 E269.27977
G1 X235.070 Y245.194 E269.32054
G1 X234.575 Y245.219 E269.34612
G1 X234.080 Y245.243 E269.36664
G1 X233.585 Y245.268 E269.38211
G1 X233.359 Y245.282 E269.38687
G1 X230.497 Y245.451 F6000.000
G1 F1200
G1 X229.379 Y245.489 E269.57130
G1 X229.363 Y245.489 E269.57374
G1 X228.508 Y245.500 E269.70598
G1 X228.498 Y245.500 E269.70734
G1 X212.389 Y245.500 E272.12483
G1 X212.389 Y204.500 F6000.000
G1 F1200
G1 X228.498 Y204.500 E274.54231
G1 X228.508 Y204.500 E274.54368
G1 X229.363 Y204.511 E274.67591
G1 X229.379 Y204.511 E274.67836
G1 X230.497 Y204.549 E274.86279
G1 X233.359 Y204.718 F6000.000
G1 F1200
G1 X233.585 Y204.732 E274.86755
G1 X234.080 Y204.757 E274.88302
G1 X234.575 Y204.781 E274.90354
G1 X235.070 Y204.806 E274.92911
G1 X235.757 Y204.824 E274.96989
G1 X237.068 Y204.836 E275.05303
G1 Z3.000 F6000.000
G1 X237.003 Y206.496
G1 F1200
G1 X237.368 Y206.511 E275.09415
G1 X237.368 Y243.489 E279.26589
G1 X235.783 Y243.551 E279.44476
G1 X235.096 Y243.637 E279.52296
G1 X234.389 Y243.751 E279.60367
G1 X231.618 Y244.354 E279.92366
G1 X230.696 Y244.533 E280.02960
G1 X229.820 Y244.676 E280.12969
G1 X228.983 Y244.782 E280.22485
G1 X228.182 Y244.846 E280.31559
G1 X227.428 Y244.868 E280.40063
G1 X212.632 Y244.868 E282.06980
G1 X212.632 Y205.132 E286.55251
G1 X227.428 Y205.132 E288.22168
G1 X228.182 Y205.154 E288.30673
G1 X228.983 Y205.218 E288.39747
G1 X229.820 Y205.324 E288.49263
G1 X230.696 Y205.467 E288.59271
G1 X231.618 Y205.646 E288.69865
G1 X234.389 Y206.249 E289.01864
G1 X235.096 Y206.363 E289.09935
G1 X235.783 Y206.449 E289.17755
G1 X236.884 Y206.492 E289.30176
G1 X236.471 Y206.345 F6000.000
G1 X236.495 Y205.173
G1 X228.232 Y204.512
G1 X212.750 Y204.500
G1 X212.500 Y204.750
G1 X212.500 Y205.000
G1 X213.175 Y205.675
G1 F1200
G1 X227.420 Y205.675 E290.90883
G1 X228.152 Y205.696 E290.99142
G1 X228.928 Y205.758 E291.07920
G1 X229.742 Y205.861 E291.17185
G1 X230.600 Y206.002 E291.26991
G1 X231.508 Y206.178 E291.37426
G1 X234.288 Y206.783 E291.69522
G1 X235.019 Y206.900 E291.77868
G1 X235.739 Y206.990 E291.86059
G1 X236.825 Y207.032 E291.98318
G1 X236.825 Y242.968 E296.03715
G1 X235.739 Y243.010 E296.15975
G1 X235.019 Y243.100 E296.24165
G1 X234.288 Y243.217 E296.32512
G1 X231.508 Y243.822 E296.64608
G1 X230.600 Y243.998 E296.75043
G1 X229.742 Y244.139 E296.84849
G1 X228.928 Y244.242 E296.94114
G1 X228.152 Y244.304 E297.02892
G1 X227.420 Y244.325 E297.11151
G1 X213.175 Y244.325 E298.71857
G1 X213.175 Y205.795 E303.06530
G1 X213.081 Y204.881 F6000.000
G1 X235.029 Y205.253
G1 F1200
G1 X235.053 Y204.953 E303.09921
G1 X236.797 Y204.953 E303.29599
G1 X236.797 Y205.402 E303.34664
G1 X235.872 Y205.366 E303.45107
G1 X235.147 Y205.272 E303.53352
G1 X237.340 Y205.966 F6000.000
G1 F1200
G1 X235.828 Y205.907 E303.70422
G1 X235.172 Y205.826 E303.77872
G1 X234.490 Y205.716 E303.85668
G1 X231.727 Y205.114 E304.17569
G1 X230.791 Y204.933 E304.28321
G1 X229.898 Y204.787 E304.38533
G1 X229.334 Y204.716 E304.44944
G1 X229.353 Y204.410 E304.48394
G1 X237.340 Y204.410 E305.38490
G1 X237.340 Y205.846 E305.54689
G1 X236.797 Y244.598 F6000.000
G1 F1200
G1 X236.797 Y245.047 E305.59754
G1 X235.053 Y245.047 E305.79433
G1 X235.029 Y244.747 E305.82824
G1 X235.872 Y244.634 E305.92423
G1 X236.677 Y244.603 E306.01512
G1 X237.340 Y244.034 F6000.000
G1 F1200
G1 X237.340 Y245.590 E306.19065
G1 X229.353 Y245.590 E307.09161
G1 X229.334 Y245.284 E307.12612
G1 X229.898 Y245.213 E307.19023
G1 X230.791 Y245.067 E307.29234
G1 X231.727 Y244.886 E307.39987
G1 X234.490 Y244.284 E307.71888
G1 X235.172 Y244.174 E307.79683
G1 X235.828 Y244.093 E307.87134
G1 X237.220 Y244.038 E308.02850
G1 X237.882 Y246.132 F6000.000
G1 F1200
G1 X212.118 Y246.132 E310.93511
G1 X212.118 Y203.868 E315.70315
G1 X237.882 Y203.868 E318.60976
G1 X237.882 Y246.012 E323.36426
G1 X238.425 Y246.675 F6000.000
G1 F1200
G1 X211.575 Y246.675 E326.39332
G1 X211.575 Y203.325 E331.28380
G1 X238.425 Y203.325 E334.31286
G1 X238.425 Y246.555 E339.18981
G1 X237.670 Y246.409 F6000.000
G1 X234.770 Y244.914
G1 F1200
G1 X234.522 Y244.941 E339.22757
G1 X234.275 Y244.968 E339.26290
G1 X234.027 Y244.994 E339.29582
G1 X233.780 Y245.021 E339.32632
G1 X233.532 Y245.048 E339.35440
G1 X233.285 Y245.074 E339.38006
G1 X233.037 Y245.101 E339.40331
G1 X232.790 Y245.127 E339.42413
G1 X232.542 Y245.154 E339.44254
G1 X232.295 Y245.181 E339.45853
G1 X232.047 Y245.207 E339.47210
G1 X231.800 Y245.234 E339.48325
G1 X231.798 Y245.234 E339.48332
G1 X231.543 Y245.259 E339.49228
G1 X231.288 Y245.283 E339.49883
G1 X229.073 Y245.454 F6000.000
G1 F1200
G1 X228.226 Y245.488 E339.63651
G1 X228.207 Y245.489 E339.63950
G1 X227.442 Y245.500 E339.75778
G1 X227.432 Y245.500 E339.75933
G1 X212.389 Y245.500 E342.01677
G1 X212.389 Y204.500 F6000.000
G1 F1200
G1 X227.432 Y204.500 E344.27420
G1 X227.442 Y204.500 E344.27575
G1 X228.207 Y204.511 E344.39403
G1 X228.226 Y204.512 E344.39702
G1 X229.073 Y204.546 E344.53470
G1 X231.288 Y204.717 F6000.000
G1 F1200
G1 X231.543 Y204.741 E344.54126
G1 X231.798 Y204.766 E344.55021
G1 X231.800 Y204.766 E344.55028
G1 X232.047 Y204.793 E344.56143
G1 X232.295 Y204.819 E344.57500
G1 X232.542 Y204.846 E344.59099
G1 X232.790 Y204.873 E344.60940
G1 X233.037 Y204.899 E344.63022
G1 X233.285 Y204.926 E344.65347
G1 X233.532 Y204.952 E344.67913
G1 X233.780 Y204.979 E344.70721
G1 X234.027 Y205.006 E344.73771
G1 X234.275 Y205.032 E344.77063
G1 X234.522 Y205.059 E344.80597
G1 X234.770 Y205.086 E344.84372
G1 Z3.500 F6000.000
G1 X234.792 Y205.706
G1 X231.196 Y204.898
G1 X227.231 Y204.512
G1 X214.335 Y204.500
G1 X213.067 Y204.817
G1 X212.375 Y206.770
G1 X212.375 Y243.165
G1 X212.466 Y243.595
G1 X212.779 Y243.442
G1 F1200
G1 X212.632 Y243.135 E344.88215
G1 X212.632 Y206.799 E348.98135
G1 X213.096 Y206.107 E349.07525
G1 X213.340 Y205.838 E349.11625
G1 X213.607 Y205.596 E349.15697
G1 X214.299 Y205.132 E349.25085
G1 X226.495 Y205.132 E350.62675
G1 X227.176 Y205.154 E350.70369
G1 X227.902 Y205.220 E350.78585
G1 X228.642 Y205.327 E350.87017
G1 X229.388 Y205.474 E350.95598
G1 X230.135 Y205.658 E351.04277
G1 X230.875 Y205.876 E351.12984
G1 X231.595 Y206.125 E351.21573
G1 X232.298 Y206.403 E351.30109
G1 X232.965 Y206.715 E351.38416
G1 X233.572 Y207.082 E351.46411
G1 X233.979 Y207.458 E351.52663
G1 X234.106 Y207.575 E351.55910
G1 X234.383 Y208.222 E351.69150
G1 X234.383 Y241.778 E358.00282
G1 X234.106 Y242.425 E358.13521
G1 X233.979 Y242.542 E358.16769
G1 X233.572 Y242.918 E358.23020
G1 X232.965 Y243.285 E358.31016
G1 X232.298 Y243.597 E358.39322
G1 X231.595 Y243.875 E358.47858
G1 X230.875 Y244.124 E358.56448
G1 X230.135 Y244.342 E358.65155
G1 X229.388 Y244.526 E358.73834
G1 X228.642 Y244.673 E358.82414
G1 X227.902 Y244.780 E358.90846
G1 X227.176 Y244.846 E358.99063
G1 X226.495 Y244.868 E359.06757
G1 X214.299 Y244.868 E360.44347
G1 X213.607 Y244.404 E360.53737
G1 X213.338 Y244.160 E360.57837
G1 X213.103 Y243.900 E360.61795
G1 X212.849 Y243.540 E360.66767
G92 E0
G1 X214.464 Y244.325 F6000.000
G1 F1200
G1 X213.942 Y243.976 E0.07080
G1 X213.722 Y243.776 E0.10432
G1 X213.527 Y243.560 E0.13715
G1 X213.249 Y243.166 E0.19153
G1 X213.175 Y243.011 E0.21092
G1 X213.175 Y206.964 E4.27759
G1 X213.525 Y206.442 E4.34838
G1 X213.724 Y206.222 E4.38190
G1 X213.943 Y206.024 E4.41516
G1 X214.464 Y205.675 E4.48595
G1 X226.486 Y205.675 E5.84225
G1 X227.143 Y205.696 E5.91643
G1 X227.838 Y205.759 E5.99515
G1 X228.550 Y205.862 E6.07628
G1 X229.270 Y206.004 E6.15911
G1 X229.993 Y206.182 E6.24308
G1 X230.710 Y206.393 E6.32735
G1 X231.406 Y206.634 E6.41051
G1 X232.084 Y206.901 E6.49264
