; generated by Slic3r Prusa Edition 1.42.0-beta2 on 2020-11-04 at 18:02:00

; 

; external perimeters extrusion width = 1.40mm
; perimeters extrusion width = 1.40mm
; infill extrusion width = 1.40mm
; solid infill extrusion width = 1.40mm
; top infill extrusion width = 1.40mm
; first layer extrusion width = 1.40mm

M107
G28 Y0 X0 Z0  ;
M140 S80 ; set bed temp
M190 S80 ; wait for bed temp
M104 S265 ; set extruder temp
M109 S265 ; wait for extruder temp
M420 S Z5 ; call on the auto level gods
M300 S1000 P500 ; chirp
G1 Y25 X5.0 F4000.0 ; go outside print area
G92 E0.0
G1 Z0.5 F300.0; 
G1 X60.0 E9.0 F1000.0 ; intro line
G1 X100.0 E12.5 F1000.0 ; intro line
G92 E0.0
M900 K45 ; Filament gcode
G21 ; set units to millimeters
G90 ; use absolute coordinates
M82 ; use absolute distances for extrusion
G92 E0
G1 Z0.500 F6000.000
G1 X161.566 Y255.066
G1 F1500
G1 X162.158 Y254.790 E0.17567
G1 X162.789 Y254.621 E0.35133
G1 X163.417 Y254.566 E0.52067
G1 X164.084 Y254.619 E0.70038
G1 X164.723 Y254.790 E0.87828
G1 X165.316 Y255.066 E1.05395
G1 X165.851 Y255.441 E1.22962
G1 X166.314 Y255.903 E1.40529
G1 X166.689 Y256.439 E1.58096
G1 X166.965 Y257.031 E1.75662
G1 X167.134 Y257.663 E1.93230
G1 X167.191 Y258.314 E2.10797
G1 X167.134 Y258.965 E2.28363
G1 X166.965 Y259.597 E2.45930
G1 X166.689 Y260.189 E2.63497
G1 X166.314 Y260.725 E2.81064
G1 X165.851 Y261.187 E2.98631
G1 X165.335 Y261.548 E3.15565
G1 X164.731 Y261.836 E3.33536
G1 X164.092 Y262.007 E3.51326
G1 X163.441 Y262.064 E3.68893
G1 X162.789 Y262.007 E3.86460
G1 X162.158 Y261.838 E4.04026
G1 X161.566 Y261.562 E4.21594
G1 X161.030 Y261.187 E4.39160
G1 X160.568 Y260.725 E4.56727
G1 X160.193 Y260.189 E4.74294
G1 X159.917 Y259.597 E4.91861
G1 X159.747 Y258.965 E5.09428
G1 X159.690 Y258.314 E5.26995
G1 X159.747 Y257.663 E5.44562
G1 X159.917 Y257.031 E5.62129
G1 X160.193 Y256.439 E5.79696
G1 X160.568 Y255.903 E5.97262
G1 X161.030 Y255.441 E6.14829
G1 X161.443 Y255.152 E6.28366
G92 E0
G1 X162.184 Y256.211 F6000.000
G1 F1500
G1 X162.602 Y256.009 E0.12466
G1 X163.015 Y255.899 E0.23954
G1 X163.423 Y255.863 E0.34955
G1 X163.864 Y255.898 E0.46847
G1 X164.280 Y256.009 E0.58414
G1 X164.667 Y256.190 E0.69903
G1 X165.017 Y256.435 E0.81392
G1 X165.320 Y256.738 E0.92880
G1 X165.565 Y257.088 E1.04369
G1 X165.745 Y257.475 E1.15857
G1 X165.856 Y257.888 E1.27346
G1 X165.893 Y258.314 E1.38835
G1 X165.856 Y258.740 E1.50323
G1 X165.745 Y259.153 E1.61812
G1 X165.565 Y259.540 E1.73300
G1 X165.320 Y259.891 E1.84789
G1 X165.017 Y260.193 E1.96278
G1 X164.682 Y260.428 E2.07278
G1 X164.282 Y260.618 E2.19171
G1 X163.867 Y260.729 E2.30738
G1 X163.441 Y260.767 E2.42226
G1 X163.015 Y260.729 E2.53715
G1 X162.602 Y260.619 E2.65203
G1 X162.214 Y260.438 E2.76692
G1 X161.864 Y260.193 E2.88181
G1 X161.562 Y259.891 E2.99669
G1 X161.317 Y259.540 E3.11158
G1 X161.136 Y259.153 E3.22647
G1 X161.025 Y258.740 E3.34135
G1 X160.988 Y258.314 E3.45624
G1 X161.025 Y257.888 E3.57112
G1 X161.136 Y257.475 E3.68601
G1 X161.317 Y257.088 E3.80090
G1 X161.562 Y256.738 E3.91578
G1 X161.864 Y256.435 E4.03067
G1 X162.061 Y256.297 E4.09533
G1 X162.179 Y255.747 F6000.000
G92 E0
G1 X161.356 Y253.666
G1 F1500
G1 X161.239 Y253.698 E0.03257
G1 X164.101 Y248.742 E1.57034
G1 X274.186 Y185.184 E35.72896
G1 X279.908 Y185.184 E37.26673
G1 X278.939 Y186.154 E37.63532
G1 X278.434 Y186.875 E37.87175
G1 X278.062 Y187.672 E38.10818
G1 X277.834 Y188.522 E38.34463
G1 X277.758 Y189.399 E38.58110
G1 X277.834 Y190.275 E38.81756
G1 X278.062 Y191.125 E39.05400
G1 X278.434 Y191.923 E39.29043
G1 X278.939 Y192.643 E39.52689
G1 X279.561 Y193.266 E39.76337
G1 X280.282 Y193.770 E39.99981
G1 X281.079 Y194.142 E40.23626
G1 X281.929 Y194.370 E40.47269
G1 X282.806 Y194.447 E40.70916
G1 X283.682 Y194.370 E40.94562
G1 X284.532 Y194.142 E41.18206
G1 X285.330 Y193.770 E41.41851
G1 X286.050 Y193.266 E41.65495
G1 X286.673 Y192.643 E41.89141
G1 X287.177 Y191.923 E42.12787
G1 X287.549 Y191.125 E42.36432
G1 X287.777 Y190.275 E42.60077
G1 X287.854 Y189.399 E42.83722
G1 X287.777 Y188.522 E43.07367
G1 X287.546 Y187.659 E43.31381
G1 X287.161 Y186.851 E43.55431
G1 X286.673 Y186.154 E43.78297
G1 X285.703 Y185.184 E44.15154
G1 X290.020 Y185.184 E45.31173
G1 X290.020 Y195.002 E47.94998
G1 X164.686 Y267.364 E86.84024
G1 X156.183 Y262.455 E89.47848
G1 X158.342 Y258.716 E90.63869
G1 X158.697 Y260.041 E91.00726
G1 X159.069 Y260.838 E91.24372
G1 X159.574 Y261.559 E91.48017
G1 X160.196 Y262.181 E91.71662
G1 X160.917 Y262.686 E91.95306
G1 X161.714 Y263.058 E92.18953
G1 X162.564 Y263.285 E92.42597
G1 X163.441 Y263.362 E92.66242
G1 X164.317 Y263.285 E92.89887
G1 X165.180 Y263.054 E93.13900
G1 X165.988 Y262.669 E93.37951
G1 X166.685 Y262.181 E93.60817
G1 X167.308 Y261.559 E93.84462
G1 X167.812 Y260.838 E94.08108
G1 X168.184 Y260.041 E94.31753
G1 X168.412 Y259.191 E94.55398
G1 X168.489 Y258.314 E94.79043
G1 X168.412 Y257.437 E95.02688
G1 X168.184 Y256.588 E95.26334
G1 X167.812 Y255.790 E95.49979
G1 X167.308 Y255.069 E95.73623
G1 X166.685 Y254.447 E95.97269
G1 X165.965 Y253.942 E96.20915
G1 X165.167 Y253.571 E96.44560
G1 X164.304 Y253.339 E96.68573
G1 X163.412 Y253.269 E96.92622
G1 X162.564 Y253.343 E97.15489
G1 X161.501 Y253.628 E97.45059
G92 E0
G1 X279.558 Y191.274 F6000.000
G1 F1500
G1 X279.281 Y190.681 E0.17566
G1 X279.112 Y190.050 E0.35132
G1 X279.055 Y189.399 E0.52699
G1 X279.112 Y188.747 E0.70267
G1 X279.281 Y188.116 E0.87834
G1 X279.558 Y187.524 E1.05400
G1 X279.933 Y186.988 E1.22965
G1 X280.395 Y186.526 E1.40534
G1 X280.930 Y186.151 E1.58102
G1 X281.523 Y185.875 E1.75668
G1 X282.154 Y185.705 E1.93235
G1 X282.782 Y185.650 E2.10168
G1 X283.449 Y185.703 E2.28139
G1 X284.088 Y185.875 E2.45930
G1 X284.681 Y186.151 E2.63497
G1 X285.216 Y186.526 E2.81063
G1 X285.678 Y186.988 E2.98631
G1 X286.040 Y187.504 E3.15564
G1 X286.328 Y188.108 E3.33535
G1 X286.499 Y188.747 E3.51325
G1 X286.556 Y189.399 E3.68892
G1 X286.499 Y190.050 E3.86459
G1 X286.330 Y190.681 E4.04026
G1 X286.053 Y191.274 E4.21593
G1 X285.678 Y191.809 E4.39160
G1 X285.216 Y192.272 E4.56728
G1 X284.681 Y192.647 E4.74293
G1 X284.088 Y192.923 E4.91860
G1 X283.457 Y193.092 E5.09426
G1 X282.806 Y193.149 E5.26994
G1 X282.154 Y193.092 E5.44562
G1 X281.523 Y192.923 E5.62128
G1 X280.930 Y192.647 E5.79694
G1 X280.395 Y192.272 E5.97260
G1 X279.933 Y191.809 E6.14829
G1 X279.644 Y191.397 E6.28365
G92 E0
G1 X280.703 Y190.655 F6000.000
G1 F1500
G1 X280.501 Y190.238 E0.12467
G1 X280.390 Y189.825 E0.23955
G1 X280.353 Y189.399 E0.35444
G1 X280.390 Y188.973 E0.46933
G1 X280.501 Y188.560 E0.58421
G1 X280.682 Y188.172 E0.69909
G1 X280.927 Y187.822 E0.81397
G1 X281.229 Y187.520 E0.92887
G1 X281.579 Y187.275 E1.04376
G1 X281.967 Y187.094 E1.15864
G1 X282.380 Y186.983 E1.27353
G1 X282.787 Y186.948 E1.38353
G1 X283.229 Y186.983 E1.50245
G1 X283.644 Y187.094 E1.61813
G1 X284.032 Y187.275 E1.73301
G1 X284.382 Y187.520 E1.84790
G1 X284.684 Y187.822 E1.96279
G1 X284.919 Y188.157 E2.07279
G1 X285.110 Y188.557 E2.19171
G1 X285.221 Y188.973 E2.30738
G1 X285.258 Y189.399 E2.42227
G1 X285.221 Y189.825 E2.53716
G1 X285.110 Y190.238 E2.65204
G1 X284.930 Y190.625 E2.76693
G1 X284.684 Y190.975 E2.88182
G1 X284.382 Y191.278 E2.99670
G1 X284.032 Y191.523 E3.11159
G1 X283.644 Y191.703 E3.22647
G1 X283.231 Y191.814 E3.34135
G1 X282.806 Y191.851 E3.45624
G1 X282.380 Y191.814 E3.57113
G1 X281.967 Y191.703 E3.68601
G1 X281.579 Y191.523 E3.80090
G1 X281.229 Y191.278 E3.91578
G1 X280.927 Y190.975 E4.03068
G1 X280.789 Y190.778 E4.09533
G1 X280.239 Y190.660 F6000.000
G92 E0
G1 X280.421 Y190.776
G1 X271.880 Y194.758
G1 X272.955 Y191.790
G1 X273.842 Y189.942
G1 X274.965 Y188.093
G1 X277.754 Y186.154
G1 X280.516 Y185.057
G1 X282.969 Y184.775
G1 X284.615 Y184.951
G1 X285.960 Y185.312
G1 X288.607 Y186.597
G1 X292.306 Y182.899
G1 X291.313 Y183.891
G1 F1500
G1 X291.313 Y195.748 E3.18617
G1 X164.686 Y268.856 E42.47755
G1 X154.418 Y262.928 E45.66373
G1 X163.154 Y247.796 E50.35919
G1 X273.840 Y183.891 E84.70396
G1 X291.163 Y183.891 E89.35912
G92 E0
G1 X292.606 Y182.599 F6000.000
G1 F1500
G1 X292.606 Y196.495 E3.73411
G1 X164.686 Y270.349 E43.42660
G1 X152.652 Y263.401 E47.16071
G1 X162.208 Y246.849 E52.29662
G1 X273.493 Y182.599 E86.82755
G1 X292.456 Y182.599 E91.92316
G1 X292.243 Y183.531 F6000.000
G92 E0
G1 X289.696 Y184.926
G1 F1500
G1 X289.696 Y195.487 E2.84161
G92 E0
G1 X288.402 Y196.235 F6000.000
G1 F1500
G1 X288.402 Y192.823 E0.91779
G1 X288.010 Y192.995 E1.03293
G1 X287.525 Y191.941 E1.34505
G1 X287.458 Y192.085 E1.38787
G1 X287.108 Y192.585 E1.55224
G1 X287.108 Y196.310 E2.55440
G1 X285.813 Y197.057 E2.95648
G1 X285.813 Y193.826 E3.82589
G1 X285.492 Y194.051 E3.93156
G1 X284.643 Y194.447 E4.18350
G1 X284.519 Y194.480 E4.21798
G1 X284.519 Y197.805 E5.11241
G1 X283.225 Y198.552 E5.51449
G1 X283.225 Y194.734 E6.54158
G1 X282.806 Y194.771 E6.65486
G1 X281.931 Y194.694 E6.89112
G1 X281.931 Y199.299 E8.12997
G1 X280.637 Y200.046 E8.53205
G1 X280.637 Y194.292 E10.08012
G1 X280.119 Y194.051 E10.23361
G1 X279.342 Y193.504 E10.48933
G1 X279.342 Y200.794 E12.45052
G1 X278.048 Y201.541 E12.85259
G1 X278.048 Y191.860 E15.45723
G92 E0
G1 X278.048 Y186.938 F6000.000
G1 F1500
G1 X278.048 Y185.507 E0.38484
G1 X276.754 Y185.507 E0.73304
G1 X276.754 Y202.288 E5.24780
G1 X275.460 Y203.035 E5.64987
G1 X275.460 Y185.507 E10.36566
G1 X274.272 Y185.507 E10.68503
G1 X274.165 Y185.569 E10.71833
G1 X274.165 Y203.783 E15.61850
G1 X272.871 Y204.530 E16.02058
G1 X272.871 Y186.316 E20.92075
G1 X271.577 Y187.064 E21.32283
G1 X271.577 Y205.277 E26.22300
G1 X270.283 Y206.024 E26.62508
G1 X270.283 Y187.811 E31.52525
G1 X268.988 Y188.558 E31.92733
G1 X268.988 Y206.771 E36.82750
G1 X267.694 Y207.519 E37.22958
G1 X267.694 Y189.305 E42.12975
G1 X266.400 Y190.053 E42.53183
G1 X266.400 Y208.266 E47.43200
G1 X265.106 Y209.013 E47.83408
G1 X265.106 Y190.800 E52.73425
G1 X263.811 Y191.547 E53.13633
G1 X263.811 Y209.760 E58.03650
G1 X262.517 Y210.508 E58.43858
G1 X262.517 Y192.294 E63.33876
G1 X261.223 Y193.041 E63.74083
G1 X261.223 Y211.255 E68.64101
G1 X259.929 Y212.002 E69.04308
G1 X259.929 Y193.789 E73.94326
G1 X258.634 Y194.536 E74.34533
G1 X258.634 Y212.749 E79.24551
G1 X257.340 Y213.497 E79.64758
G1 X257.340 Y195.283 E84.54776
G1 X256.046 Y196.030 E84.94983
G1 X256.046 Y214.244 E89.85001
G1 X254.752 Y214.991 E90.25208
G1 X254.752 Y196.778 E95.15226
G1 X253.457 Y197.525 E95.55433
G1 X253.457 Y215.738 E100.45451
G1 X252.163 Y216.485 E100.85658
G1 X252.163 Y198.272 E105.75676
G1 X250.869 Y199.019 E106.15883
G1 X250.869 Y217.233 E111.05901
G1 X249.575 Y217.980 E111.46108
G1 X249.575 Y199.767 E116.36126
G1 X248.280 Y200.514 E116.76333
G1 X248.280 Y218.727 E121.66351
G1 X246.986 Y219.474 E122.06558
G1 X246.986 Y201.261 E126.96576
G1 X245.692 Y202.008 E127.36783
G1 X245.692 Y220.222 E132.26801
G1 X244.398 Y220.969 E132.67008
G1 X244.398 Y202.755 E137.57025
G1 X243.103 Y203.503 E137.97233
G1 X243.103 Y221.716 E142.87250
G1 X241.809 Y222.463 E143.27458
G1 X241.809 Y204.250 E148.17475
G1 X240.515 Y204.997 E148.57683
G1 X240.515 Y223.211 E153.47700
G1 X239.221 Y223.958 E153.87908
G1 X239.221 Y205.744 E158.77925
G1 X237.926 Y206.492 E159.18133
G1 X237.926 Y224.705 E164.08150
G1 X236.632 Y225.452 E164.48358
G1 X236.632 Y207.239 E169.38375
G1 X235.338 Y207.986 E169.78583
G1 X235.338 Y226.200 E174.68600
G1 X234.044 Y226.947 E175.08808
G1 X234.044 Y208.733 E179.98825
G1 X232.749 Y209.481 E180.39033
G1 X232.749 Y227.694 E185.29050
G1 X231.455 Y228.441 E185.69257
G1 X231.455 Y210.228 E190.59275
G1 X230.161 Y210.975 E190.99482
G1 X230.161 Y229.188 E195.89500
G1 X228.867 Y229.936 E196.29707
G1 X228.867 Y211.722 E201.19725
G1 X227.573 Y212.469 E201.59932
G1 X227.573 Y230.683 E206.49950
G1 X226.278 Y231.430 E206.90157
G1 X226.278 Y213.217 E211.80175
G1 X224.984 Y213.964 E212.20382
G1 X224.984 Y232.177 E217.10400
G1 X223.690 Y232.925 E217.50607
G1 X223.690 Y214.711 E222.40625
G1 X222.396 Y215.458 E222.80832
G1 X222.396 Y233.672 E227.70850
G1 X221.101 Y234.419 E228.11057
G1 X221.101 Y216.206 E233.01074
G1 X219.807 Y216.953 E233.41282
G1 X219.807 Y235.166 E238.31299
G1 X218.513 Y235.914 E238.71507
G1 X218.513 Y217.700 E243.61524
G1 X217.219 Y218.447 E244.01732
G1 X217.219 Y236.661 E248.91749
G1 X215.924 Y237.408 E249.31957
G1 X215.924 Y219.195 E254.21974
G1 X214.630 Y219.942 E254.62181
G1 X214.630 Y238.155 E259.52199
G1 X213.336 Y238.902 E259.92406
G1 X213.336 Y220.689 E264.82424
G1 X212.042 Y221.436 E265.22631
G1 X212.042 Y239.650 E270.12649
G1 X210.747 Y240.397 E270.52856
G1 X210.747 Y222.184 E275.42874
G1 X209.453 Y222.931 E275.83081
G1 X209.453 Y241.144 E280.73099
G1 X208.159 Y241.891 E281.13306
G1 X208.159 Y223.678 E286.03323
G1 X206.865 Y224.425 E286.43531
G1 X206.865 Y242.639 E291.33548
G1 X205.570 Y243.386 E291.73756
G1 X205.570 Y225.172 E296.63773
G1 X204.276 Y225.920 E297.03981
G1 X204.276 Y244.133 E301.93998
G1 X202.982 Y244.880 E302.34205
G1 X202.982 Y226.667 E307.24223
G1 X201.688 Y227.414 E307.64430
G1 X201.688 Y245.628 E312.54448
G1 X200.393 Y246.375 E312.94655
G1 X200.393 Y228.161 E317.84673
G1 X199.099 Y228.909 E318.24880
G1 X199.099 Y247.122 E323.14898
G1 X197.805 Y247.869 E323.55105
G1 X197.805 Y229.656 E328.45122
G1 X196.511 Y230.403 E328.85330
G1 X196.511 Y248.616 E333.75347
G1 X195.216 Y249.364 E334.15555
G1 X195.216 Y231.150 E339.05572
G1 X193.922 Y231.898 E339.45779
G1 X193.922 Y250.111 E344.35797
G1 X192.628 Y250.858 E344.76004
G1 X192.628 Y232.645 E349.66022
G1 X191.334 Y233.392 E350.06229
G1 X191.334 Y251.605 E354.96247
G1 X190.039 Y252.353 E355.36454
G1 X190.039 Y234.139 E360.26472
G1 X188.745 Y234.886 E360.66679
G1 X188.745 Y253.100 E365.56696
G1 X187.451 Y253.847 E365.96904
G1 X187.451 Y235.634 E370.86921
G1 X186.157 Y236.381 E371.27129
G1 X186.157 Y254.594 E376.17146
G1 X184.862 Y255.342 E376.57353
G1 X184.862 Y237.128 E381.47371
G1 X183.568 Y237.875 E381.87578
G1 X183.568 Y256.089 E386.77596
G1 X182.274 Y256.836 E387.17803
G1 X182.274 Y238.623 E392.07820
G1 X180.980 Y239.370 E392.48028
G1 X180.980 Y257.583 E397.38045
G1 X179.685 Y258.330 E397.78253
G1 X179.685 Y240.117 E402.68270
G1 X178.391 Y240.864 E403.08477
G1 X178.391 Y259.078 E407.98495
G1 X177.097 Y259.825 E408.38702
G1 X177.097 Y241.612 E413.28720
G1 X175.803 Y242.359 E413.68927
G1 X175.803 Y260.572 E418.58945
G1 X174.509 Y261.319 E418.99152
G1 X174.509 Y243.106 E423.89169
G1 X173.214 Y243.853 E424.29377
G1 X173.214 Y262.067 E429.19394
G1 X171.920 Y262.814 E429.59601
G1 X171.920 Y244.600 E434.49619
G1 X170.626 Y245.348 E434.89826
G1 X170.626 Y263.561 E439.79844
G1 X169.332 Y264.308 E440.20051
G1 X169.332 Y246.095 E445.10069
G1 X168.037 Y246.842 E445.50276
G1 X168.037 Y255.548 E447.84498
G1 X167.556 Y254.861 E448.07067
G1 X166.894 Y254.199 E448.32262
G1 X166.743 Y254.093 E448.37219
G1 X166.743 Y247.589 E450.12191
G1 X165.449 Y248.337 E450.52399
G1 X165.449 Y253.345 E451.87153
G1 X165.278 Y253.266 E451.92220
G1 X164.359 Y253.019 E452.17819
G1 X164.155 Y253.003 E452.23338
G1 X164.155 Y249.295 E453.23114
G1 X162.860 Y251.536 E453.92755
G1 X162.860 Y253.576 E454.47640
G92 E0
G1 X161.198 Y254.450 F6000.000
G1 F1500
G1 X161.057 Y254.515 E0.00695
G1 X160.917 Y254.581 E0.01544
G1 X160.777 Y254.646 E0.02548
G1 X160.636 Y254.712 E0.03706
G1 X160.496 Y254.777 E0.05019
G1 X159.600 Y255.244 E0.13918
G1 X159.854 Y255.334 F6000.000
G1 F1500
G1 X159.648 Y255.658 E0.18143
G1 X159.441 Y255.982 E0.22101
G1 X159.421 Y256.017 E0.22489
G1 X159.244 Y256.357 E0.26448
G1 X159.067 Y256.698 E0.30673
G1 X159.047 Y256.740 E0.31195
G1 X158.876 Y257.154 E0.36664
G1 X158.704 Y257.568 E0.42589
G1 X158.905 Y257.532 F6000.000
G1 F1500
G1 X158.919 Y257.687 E0.43901
G1 X158.932 Y257.841 E0.45059
G1 X158.946 Y257.995 E0.46062
G1 X158.959 Y258.149 E0.46912
G1 X158.973 Y258.304 E0.47607
G1 X158.905 Y257.532 F6000.000
G1 F1500
G1 X158.862 Y256.523 E0.56505
G92 E0
G1 X159.854 Y255.334 F6000.000
G1 F1500
G1 X159.881 Y255.296 E0.00522
G1 X160.154 Y254.940 E0.05991
G1 X160.427 Y254.585 E0.11916
G92 E0
G1 X157.504 Y261.460 F6000.000
G1 F1500
G1 X158.640 Y262.413 E0.39285
G1 X158.772 Y262.515 E0.43575
G1 X158.905 Y262.616 E0.47713
G1 X159.037 Y262.718 E0.51699
