; generated by Slic3r Prusa Edition 1.42.0-beta2 on 2020-09-29 at 16:16:32

; 

; external perimeters extrusion width = 0.88mm
; perimeters extrusion width = 0.88mm
; infill extrusion width = 0.88mm
; solid infill extrusion width = 0.88mm
; top infill extrusion width = 0.88mm
; first layer extrusion width = 0.88mm

M107
G28 Y0 X0 Z0  ;
M140 S85 ; set bed temp
M190 S85 ; wait for bed temp
M104 S245 ; set extruder temp
M109 S245 ; wait for extruder temp
M420 S Z5 ; call on the auto level gods
M300 S1000 P500 ; chirp
G1 Y25 X5.0 F4000.0 ; go outside print area
G92 E0.0
G1 Z0.5 F300.0; 
G1 X60.0 E9.0 F1000.0 ; intro line
G1 X100.0 E12.5 F1000.0 ; intro line
G92 E0.0
M900 K45 ; Filament gcode
G21 ; set units to millimeters
G90 ; use absolute coordinates
M82 ; use absolute distances for extrusion
G92 E0
G1 Z0.500 F6000.000
G1 E-4.00000 F2400.00000
G92 E0
G1 Z1.500 F6000.000
G1 X213.063 Y205.563
G1 Z0.500
G1 E4.00000 F2400.00000
G1 F1500
G1 X236.938 Y205.563 E7.81012
G1 X236.938 Y244.438 E14.01403
G1 X213.063 Y244.438 E17.82415
G1 X213.063 Y205.683 E24.00890
G1 X212.916 Y204.776 F6000.000
G1 E23.60890 F2400.00000
G1 F4800
G1 X220.262 Y205.646 E20.18890
G1 E20.00890 F2400.00000
G92 E0
G1 Z1.500 F6000.000
G1 X212.455 Y204.795
G1 Z0.500
G1 E4.00000 F2400.00000
G1 F1500
G1 X212.455 Y203.955 E4.13399
G1 X237.545 Y203.955 E8.13794
G1 X237.545 Y204.795 E8.27193
G1 X212.575 Y204.795 E12.25673
G1 E11.85673 F2400.00000
G1 F4800
G1 X212.455 Y203.955 E11.45387
G1 X218.807 Y203.955 E8.43673
G1 E8.25673 F2400.00000
G92 E0
G1 Z1.500 F6000.000
G1 X212.575 Y245.205
G1 Z0.500
G1 E4.00000 F2400.00000
G1 F1500
G1 X237.545 Y245.205 E7.98480
G1 X237.545 Y246.045 E8.11879
G1 X212.455 Y246.045 E12.12274
G1 X212.455 Y245.205 E12.25673
G1 E11.85673 F2400.00000
G1 F4800
G1 X219.655 Y245.205 E8.43673
G1 E8.25673 F2400.00000
G92 E0
G1 Z1.500 F6000.000
G1 X211.688 Y246.813
G1 Z0.500
G1 E4.00000 F2400.00000
G1 F1500
G1 X211.688 Y203.188 E10.96194
G1 X238.313 Y203.188 E15.21092
G1 X238.313 Y246.813 E22.17287
G1 X211.808 Y246.813 E26.40270
G1 X211.833 Y246.026 F6000.000
G1 E26.00270 F2400.00000
G1 F4800
G1 X211.788 Y239.613 E22.58270
G1 E22.40270 F2400.00000
G92 E0
G1 Z1.500 F6000.000
G1 X212.375 Y244.821
G1 Z0.500
G1 E4.00000 F2400.00000
G1 F1500
G1 X212.375 Y205.179 E9.00463
G1 E8.60463 F2400.00000
G1 F4800
G1 X212.375 Y212.379 E5.18463
G1 E5.00463 F2400.00000
G92 E0
G1 Z1.500 F6000.000
G1 X237.625 Y205.179
G1 Z0.500
G1 E4.00000 F2400.00000
G1 F1500
G1 X237.625 Y244.821 E9.00463
G1 Z1.000 F6000.000
G1 X236.938 Y244.438
G1 F1500
G1 X213.063 Y244.438 E12.81475
G1 X213.063 Y205.563 E19.01865
G1 X236.938 Y205.563 E22.82877
G1 X236.938 Y244.318 E29.01353
G1 X237.084 Y245.224 F6000.000
G1 X237.545 Y204.795
G1 F1500
G1 X212.455 Y204.795 E33.01748
G1 X212.455 Y203.455 E33.23127
G1 X237.545 Y203.455 E37.23522
G1 X237.545 Y204.675 E37.42985
G1 X237.545 Y245.205 F6000.000
G1 F1500
G1 X237.545 Y246.545 E37.64363
G1 X212.455 Y246.545 E41.64758
G1 X212.455 Y245.205 E41.86136
G1 X237.425 Y245.205 E45.84617
G1 X238.313 Y245.205 F6000.000
G1 F1500
G1 X238.313 Y247.313 E46.18246
G1 X211.688 Y247.313 E50.43144
G1 X211.688 Y202.688 E57.55297
G1 X238.313 Y202.688 E61.80195
G1 X238.313 Y245.085 E68.56803
G1 X237.706 Y245.727 F6000.000
G1 X237.625 Y244.821
G1 F1200
G1 X237.625 Y205.179 E73.57266
G1 X237.161 Y204.125 F6000.000
G1 F1200
G1 X212.839 Y204.125 E76.46417
G1 X212.375 Y205.179 F6000.000
G1 F1200
G1 X212.375 Y244.821 E81.46880
G1 X212.839 Y245.875 F6000.000
G1 F1200
G1 X237.161 Y245.875 E84.36031
G1 Z1.500 F6000.000
G1 X236.938 Y244.438
G1 F1500
G1 X213.063 Y244.438 E88.17043
G1 X213.063 Y205.563 E94.37434
G1 X236.938 Y205.563 E98.18445
G1 X236.938 Y244.318 E104.36921
G1 X237.084 Y245.224 F6000.000
G1 X237.545 Y204.795
G1 F1500
G1 X212.455 Y204.795 E108.37316
G1 X212.455 Y202.955 E108.66674
G1 X237.545 Y202.955 E112.67069
G1 X237.545 Y204.675 E112.94512
G1 X237.545 Y245.205 F6000.000
G1 F1500
G1 X237.545 Y247.045 E113.23869
G1 X212.455 Y247.045 E117.24264
G1 X212.455 Y245.205 E117.53622
G1 X237.425 Y245.205 E121.52102
G1 X238.313 Y245.205 F6000.000
G1 F1500
G1 X238.313 Y247.813 E121.93711
G1 X211.688 Y247.813 E126.18609
G1 X211.688 Y202.188 E133.46720
G1 X238.313 Y202.188 E137.71618
G1 X238.313 Y245.085 E144.56206
G1 X237.705 Y245.726 F6000.000
G1 X237.625 Y244.821
G1 F1200
G1 X237.625 Y205.179 E149.56669
G1 X237.161 Y203.875 F6000.000
G1 F1200
G1 X212.839 Y203.875 E154.98616
G1 X212.375 Y205.179 F6000.000
G1 F1200
G1 X212.375 Y244.821 E159.99079
G1 X212.839 Y246.125 F6000.000
G1 F1200
G1 X237.161 Y246.125 E165.41027
M106 S76.5
G1 Z2.000 F6000.000
G1 X236.938 Y244.438
G1 F1500
G1 X213.063 Y244.438 E169.22039
G1 X213.063 Y205.563 E175.42430
G1 X236.938 Y205.563 E179.23441
G1 X236.938 Y244.318 E185.41917
G1 X237.084 Y245.224 F6000.000
G1 X236.777 Y204.027
G1 F1500
G1 X213.223 Y204.027 E189.17810
G1 X213.223 Y203.223 E189.30644
G1 X236.777 Y203.223 E193.06536
G1 X236.777 Y203.907 E193.17455
G1 X237.545 Y204.795 F6000.000
G1 F1500
G1 X212.455 Y204.795 E197.17850
G1 X212.455 Y202.455 E197.55187
G1 X237.545 Y202.455 E201.55582
G1 X237.545 Y204.675 E201.91004
G1 X236.777 Y245.973 F6000.000
G1 F1500
G1 X236.777 Y246.777 E202.03838
G1 X213.223 Y246.777 E205.79730
G1 X213.223 Y245.973 E205.92564
G1 X236.657 Y245.973 E209.66541
G1 X237.545 Y245.205 F6000.000
G1 F1500
G1 X237.545 Y247.545 E210.03878
G1 X212.455 Y247.545 E214.04273
G1 X212.455 Y245.205 E214.41610
G1 X237.425 Y245.205 E218.40090
G1 X238.313 Y245.205 F6000.000
G1 F1500
G1 X238.313 Y248.313 E218.89679
G1 X211.688 Y248.313 E223.14576
G1 X211.688 Y201.688 E230.58647
G1 X238.313 Y201.688 E234.83545
G1 X238.313 Y245.085 E241.76112
G1 X237.704 Y245.725 F6000.000
G1 X237.625 Y244.821
G1 F1200
G1 X237.625 Y205.179 E246.76574
G1 X212.375 Y205.179 F6000.000
G1 F1200
G1 X212.375 Y244.821 E251.77037
G1 Z2.500 F6000.000
G1 X213.063 Y244.438
G1 F1500
G1 X213.063 Y205.563 E257.97428
G1 X236.938 Y205.563 E261.78440
G1 X236.938 Y244.438 E267.98831
G1 X213.183 Y244.438 E271.77928
G1 X212.308 Y244.704 F6000.000
G1 X213.223 Y204.027
G1 F1500
G1 X213.223 Y202.723 E271.98741
G1 X236.777 Y202.723 E275.74633
G1 X236.777 Y204.027 E275.95446
G1 X213.343 Y204.027 E279.69424
G1 X212.455 Y204.795 F6000.000
G1 F1500
G1 X212.455 Y201.955 E280.14740
G1 X237.545 Y201.955 E284.15135
G1 X237.545 Y204.795 E284.60451
G1 X212.575 Y204.795 E288.58931
G1 X213.223 Y245.973 F6000.000
G1 F1500
G1 X236.777 Y245.973 E292.34824
G1 X236.777 Y247.277 E292.55637
G1 X213.223 Y247.277 E296.31529
G1 X213.223 Y246.093 E296.50427
G1 X212.455 Y245.205 F6000.000
G1 F1500
G1 X237.545 Y245.205 E300.50823
G1 X237.545 Y248.045 E300.96139
G1 X212.455 Y248.045 E304.96534
G1 X212.455 Y245.325 E305.39935
G1 X211.688 Y245.325 F6000.000
G1 F1500
G1 X211.688 Y201.188 E312.44311
G1 X238.313 Y201.188 E316.69209
G1 X238.313 Y248.813 E324.29238
G1 X211.688 Y248.813 E328.54136
G1 X211.688 Y245.445 E329.07873
G1 X212.117 Y244.650 F6000.000
G1 X212.375 Y244.821
G1 F1200
G1 X212.375 Y205.179 E334.08336
G1 X213.607 Y203.375 F6000.000
G1 F1200
G1 X236.393 Y203.375 E336.62466
G1 X237.625 Y205.179 F6000.000
G1 F1200
G1 X237.625 Y244.821 E341.62929
G1 X236.393 Y246.625 F6000.000
G1 F1200
G1 X213.607 Y246.625 E344.17059
G1 Z3.000 F6000.000
G1 X214.125 Y246.875
G1 X212.375 Y245.000
G1 X212.375 Y205.000
G1 X213.063 Y205.563
G1 F1500
G1 X236.938 Y205.563 E347.98071
G1 X236.938 Y244.438 E354.18462
G1 X213.063 Y244.438 E357.99474
G1 X213.063 Y205.683 E364.17950
G1 X212.916 Y204.776 F6000.000
G1 X213.223 Y204.027
G1 F1500
G1 X213.223 Y202.223 E364.46742
G1 X236.777 Y202.223 E368.22635
G1 X236.777 Y204.027 E368.51427
G1 X213.343 Y204.027 E372.25405
G1 X212.455 Y204.795 F6000.000
G1 F1500
G1 X212.455 Y201.455 E372.78700
G1 X237.545 Y201.455 E376.79095
G1 X237.545 Y204.795 E377.32391
G1 X212.575 Y204.795 E381.30871
G1 X213.223 Y245.973 F6000.000
G1 F1500
G1 X236.777 Y245.973 E385.06763
G1 X236.777 Y247.777 E385.35556
G1 X213.223 Y247.777 E389.11448
G1 X213.223 Y246.093 E389.38326
G1 X212.455 Y245.205 F6000.000
G1 F1500
G1 X237.545 Y245.205 E393.38721
G1 X237.545 Y248.545 E393.92016
G1 X212.455 Y248.545 E397.92411
G1 X212.455 Y245.325 E398.43792
G1 X211.688 Y245.325 F6000.000
G1 F1500
G1 X211.688 Y200.688 E405.56147
G1 X238.313 Y200.688 E409.81045
G1 X238.313 Y249.313 E417.57033
G1 X211.688 Y249.313 E421.81931
G1 X211.688 Y245.445 E422.43647
G1 X212.121 Y244.653 F6000.000
G1 X212.375 Y244.821
G1 F1200
G1 X212.375 Y205.179 E427.44110
G1 X213.607 Y203.125 F6000.000
G1 F1200
G1 X236.393 Y203.125 E432.35079
G1 X237.625 Y205.179 F6000.000
G1 F1200
G1 X237.625 Y244.821 E437.35541
G1 X236.393 Y246.875 F6000.000
G1 F1200
G1 X213.607 Y246.875 E442.26510
G1 Z3.500 F6000.000
G1 X214.250 Y247.000
G1 X212.375 Y245.000
G1 X212.375 Y205.000
G1 X213.063 Y205.563
G1 F1500
G1 X236.938 Y205.563 E446.07521
G1 X236.938 Y244.438 E452.27912
G1 X213.063 Y244.438 E456.08924
G1 X213.063 Y205.683 E462.27400
G1 X212.916 Y204.776 F6000.000
G1 X213.991 Y203.259
G1 F1500
G1 X213.991 Y202.741 E462.35680
G1 X236.009 Y202.741 E465.87069
G1 X236.009 Y203.259 E465.95349
G1 X214.111 Y203.259 E469.44823
G1 X213.223 Y204.027 F6000.000
G1 F1500
G1 X213.223 Y201.973 E469.77605
G1 X236.777 Y201.973 E473.53498
G1 X236.777 Y204.027 E473.86280
G1 X213.343 Y204.027 E477.60257
G1 X212.455 Y204.795 F6000.000
G1 F1500
G1 X212.455 Y201.205 E478.17542
G1 X237.545 Y201.205 E482.17937
G1 X237.545 Y204.795 E482.75222
G1 X212.575 Y204.795 E486.73703
G1 X212.375 Y205.000 F6000.000
G1 X212.375 Y245.000
G1 X214.250 Y247.000
G1 X213.991 Y246.741
G1 F1500
G1 X236.009 Y246.741 E490.25092
G1 X236.009 Y247.259 E490.33371
G1 X213.991 Y247.259 E493.84761
G1 X213.991 Y246.861 E493.91125
G1 X213.223 Y245.973 F6000.000
G1 F1500
G1 X236.777 Y245.973 E497.67018
G1 X236.777 Y248.027 E497.99800
G1 X213.223 Y248.027 E501.75692
G1 X213.223 Y246.093 E502.06560
G1 X212.455 Y245.205 F6000.000
G1 F1500
G1 X237.545 Y245.205 E506.06955
G1 X237.545 Y248.795 E506.64240
G1 X212.455 Y248.795 E510.64635
G1 X212.455 Y245.325 E511.20005
G1 X211.688 Y249.563 F6000.000
G1 F1500
G1 X211.688 Y200.438 E519.03972
G1 X238.313 Y200.438 E523.28870
G1 X238.313 Y249.563 E531.12836
G1 X211.808 Y249.563 E535.35819
G1 X211.819 Y248.773 F6000.000
G1 X212.375 Y244.821
G1 F1200
G1 X212.375 Y205.179 E540.36282
G1 X237.625 Y205.179 F6000.000
G1 F1200
G1 X237.625 Y244.821 E545.36745
G1 Z4.000 F6000.000
G1 X236.938 Y244.438
G1 F1500
G1 X213.063 Y244.438 E549.17757
G1 X213.063 Y205.563 E555.38147
G1 X236.938 Y205.563 E559.19159
G1 X236.938 Y244.318 E565.37635
G1 X237.084 Y245.224 F6000.000
G1 X237.625 Y245.000
G1 X237.625 Y205.000
G1 X235.750 Y203.000
G1 X236.009 Y203.259
G1 F1500
G1 X213.991 Y203.259 E568.89025
G1 X213.991 Y202.741 E568.97304
G1 X236.009 Y202.741 E572.48694
G1 X236.009 Y203.139 E572.55058
G1 X236.777 Y204.027 F6000.000
G1 F1500
G1 X213.223 Y204.027 E576.30950
G1 X213.223 Y201.973 E576.63733
G1 X236.777 Y201.973 E580.39625
G1 X236.777 Y203.907 E580.70492
G1 X237.545 Y204.795 F6000.000
G1 F1500
G1 X212.455 Y204.795 E584.70887
G1 X212.455 Y201.205 E585.28172
G1 X237.545 Y201.205 E589.28568
G1 X237.545 Y204.675 E589.83938
G1 X237.625 Y245.000 F6000.000
G1 X235.750 Y247.000
G1 X236.009 Y246.741
G1 F1500
G1 X236.009 Y247.259 E589.92217
G1 X213.991 Y247.259 E593.43607
G1 X213.991 Y246.741 E593.51886
G1 X235.889 Y246.741 E597.01360
G1 X236.777 Y245.973 F6000.000
G1 F1500
G1 X236.777 Y248.027 E597.34143
G1 X213.223 Y248.027 E601.10035
G1 X213.223 Y245.973 E601.42817
G1 X236.657 Y245.973 E605.16795
G1 X237.545 Y245.205 F6000.000
G1 F1500
G1 X237.545 Y248.795 E605.74080
G1 X212.455 Y248.795 E609.74475
G1 X212.455 Y245.205 E610.31760
G1 X237.425 Y245.205 E614.30240
G1 X238.313 Y249.563 F6000.000
G1 F1500
G1 X211.688 Y249.563 E618.55138
G1 X211.688 Y200.438 E626.39105
G1 X238.313 Y200.438 E630.64003
G1 X238.313 Y249.443 E638.46054
G1 X237.563 Y249.282 F6000.000
G1 X237.625 Y244.821
G1 F1200
G1 X237.625 Y205.179 E643.46517
G1 X212.375 Y205.179 F6000.000
G1 F1200
G1 X212.375 Y244.821 E648.46980
G1 Z4.500 F6000.000
G1 X213.063 Y244.438
G1 F1500
G1 X213.063 Y205.563 E654.67371
G1 X236.938 Y205.563 E658.48382
G1 X236.938 Y244.438 E664.68773
G1 X213.183 Y244.438 E668.47870
G1 X212.308 Y244.704 F6000.000
G1 X212.375 Y245.000
G1 X212.375 Y205.000
G1 X214.250 Y203.000
G1 X213.991 Y203.259
G1 F1500
G1 X213.991 Y202.741 E668.56150
G1 X236.009 Y202.741 E672.07539
G1 X236.009 Y203.259 E672.15819
G1 X214.111 Y203.259 E675.65293
G1 X213.223 Y204.027 F6000.000
G1 F1500
G1 X213.223 Y201.973 E675.98075
G1 X236.777 Y201.973 E679.73968
G1 X236.777 Y204.027 E680.06750
G1 X213.343 Y204.027 E683.80727
G1 X212.455 Y204.795 F6000.000
G1 F1500
G1 X212.455 Y201.205 E684.38012
G1 X237.545 Y201.205 E688.38407
G1 X237.545 Y204.795 E688.95692
G1 X212.575 Y204.795 E692.94173
G1 X212.375 Y205.000 F6000.000
G1 X212.375 Y245.000
G1 X214.250 Y247.000
G1 X213.991 Y246.741
G1 F1500
G1 X236.009 Y246.741 E696.45562
G1 X236.009 Y247.259 E696.53842
G1 X213.991 Y247.259 E700.05231
G1 X213.991 Y246.861 E700.11595
G1 X213.223 Y245.973 F6000.000
G1 F1500
G1 X236.777 Y245.973 E703.87488
G1 X236.777 Y248.027 E704.20270
G1 X213.223 Y248.027 E707.96162
G1 X213.223 Y246.093 E708.27030
G1 X212.455 Y245.205 F6000.000
G1 F1500
G1 X237.545 Y245.205 E712.27425
G1 X237.545 Y248.795 E712.84710
G1 X212.455 Y248.795 E716.85105
G1 X212.455 Y245.325 E717.40475
G1 X211.688 Y249.563 F6000.000
G1 F1500
G1 X211.688 Y200.438 E725.24442
G1 X238.313 Y200.438 E729.49340
G1 X238.313 Y249.563 E737.33306
G1 X211.808 Y249.563 E741.56289
G1 X211.819 Y248.773 F6000.000
G1 X212.375 Y244.821
G1 F1200
G1 X212.375 Y205.179 E746.56752
G1 X237.625 Y205.179 F6000.000
G1 F1200
G1 X237.625 Y244.821 E751.57215
G1 Z5.000 F6000.000
G1 X236.938 Y244.438
G1 F1500
G1 X213.063 Y244.438 E755.38227
G1 X213.063 Y205.563 E761.58618
G1 X236.938 Y205.563 E765.39629
G1 X236.938 Y244.318 E771.58105
G1 X237.084 Y245.224 F6000.000
G1 E771.18105 F2400.00000
G1 F4800
G1 X229.738 Y244.354 E767.76105
G1 E767.58105 F2400.00000
G92 E0
G1 Z6.000 F6000.000
G1 X237.625 Y245.000
G1 X237.625 Y205.000
G1 X235.750 Y203.000
G1 X236.009 Y203.259
G1 Z5.000
G1 E4.00000 F2400.00000
G1 F1500
G1 X213.991 Y203.259 E7.51390
G1 X213.991 Y202.741 E7.59669
G1 X236.009 Y202.741 E11.11058
G1 X236.009 Y203.139 E11.17423
G1 X236.777 Y204.027 F6000.000
G1 F1500
G1 X213.223 Y204.027 E14.93315
G1 X213.223 Y201.973 E15.26097
G1 X236.777 Y201.973 E19.01990
G1 X236.777 Y203.907 E19.32857
G1 X237.545 Y204.795 F6000.000
G1 F1500
G1 X212.455 Y204.795 E23.33252
G1 X212.455 Y201.205 E23.90537
G1 X237.545 Y201.205 E27.90932
G1 X237.545 Y204.675 E28.46302
G1 E28.06302 F2400.00000
G1 F4800
G1 X230.345 Y204.709 E24.64302
G1 E24.46302 F2400.00000
G92 E0
G1 Z6.000 F6000.000
G1 X237.625 Y245.000
G1 X235.750 Y247.000
G1 X236.009 Y246.741
G1 Z5.000
G1 E4.00000 F2400.00000
G1 F1500
G1 X236.009 Y247.259 E4.08279
G1 X213.991 Y247.259 E7.59669
G1 X213.991 Y246.741 E7.67948
G1 X235.889 Y246.741 E11.17423
G1 X236.777 Y245.973 F6000.000
G1 F1500
G1 X236.777 Y248.027 E11.50205
G1 X213.223 Y248.027 E15.26097
G1 X213.223 Y245.973 E15.58880
G1 X236.657 Y245.973 E19.32857
G1 X237.545 Y245.205 F6000.000
G1 F1500
G1 X237.545 Y248.795 E19.90142
G1 X212.455 Y248.795 E23.90537
G1 X212.455 Y245.205 E24.47822
G1 X237.425 Y245.205 E28.46302
G1 X238.313 Y249.563 F6000.000
G1 F1500
G1 X211.688 Y249.563 E32.71200
G1 X211.688 Y200.438 E40.55167
G1 X238.313 Y200.438 E44.80065
G1 X238.313 Y249.443 E52.62117
G1 X237.563 Y249.282 F6000.000
G1 X237.625 Y244.821
G1 F1200
G1 X237.625 Y205.179 E57.62579
G1 X212.375 Y205.179 F6000.000
G1 F1200
G1 X212.375 Y244.821 E62.63042
G1 Z5.500 F6000.000
G1 X213.991 Y246.741
G1 F1500
G1 X236.009 Y246.741 E66.14432
G1 X236.009 Y247.259 E66.22711
G1 X213.991 Y247.259 E69.74101
G1 X213.991 Y246.861 E69.80465
G1 X213.223 Y245.973 F6000.000
G1 F1500
G1 X236.777 Y245.973 E73.56357
G1 X236.777 Y248.027 E73.89140
G1 X213.223 Y248.027 E77.65032
G1 X213.223 Y246.093 E77.95899
G1 X212.455 Y245.205 F6000.000
G1 F1500
G1 X237.545 Y245.205 E81.96294
G1 X237.545 Y248.795 E82.53579
G1 X212.455 Y248.795 E86.53975
