; generated by Slic3r Prusa Edition 1.42.0-beta2 on 2020-10-27 at 18:04:25

; 

; external perimeters extrusion width = 0.88mm
; perimeters extrusion width = 0.88mm
; infill extrusion width = 0.88mm
; solid infill extrusion width = 0.88mm
; top infill extrusion width = 0.88mm
; first layer extrusion width = 0.88mm

M107
G28 Y0 X0 Z0  ;
M140 S80 ; set bed temp
M190 S80 ; wait for bed temp
M104 S215 ; set extruder temp
M109 S215 ; wait for extruder temp
M420 S Z5 ; call on the auto level gods
M300 S1000 P500 ; chirp
G1 Y25 X5.0 F4000.0 ; go outside print area
G92 E0.0
G1 Z0.5 F300.0; 
G1 X60.0 E9.0 F1000.0 ; intro line
G1 X100.0 E12.5 F1000.0 ; intro line
G92 E0.0
M900 K30 ; Filament gcode
G21 ; set units to millimeters
G90 ; use absolute coordinates
M82 ; use absolute distances for extrusion
G92 E0
G1 Z0.500 F6000.000
G1 E-4.00000 F2400.00000
G92 E0
G1 Z1.500 F6000.000
G1 X218.441 Y221.045
G1 Z0.500
G1 E4.00000 F2400.00000
G1 F1500
G1 X223.659 Y221.044 E4.83285
G1 X223.659 Y221.240 E4.86422
G1 X231.559 Y221.240 E6.12495
G1 X231.559 Y228.759 E7.32485
G1 X223.659 Y228.759 E8.58558
G1 X223.659 Y228.956 E8.61695
G1 X218.441 Y228.954 E9.44980
G1 X218.441 Y221.165 E10.69285
G1 E10.29285 F2400.00000
G1 F4800
G1 X223.659 Y221.044 E7.81324
G1 X223.659 Y221.240 E7.71986
G1 X225.443 Y221.240 E6.87285
G1 E6.69285 F2400.00000
G92 E0
G1 Z1.500 F6000.000
G1 X217.673 Y220.278
G1 Z0.500
G1 E4.00000 F2400.00000
G1 F1500
G1 X224.427 Y220.276 E5.07788
G1 X224.427 Y220.473 E5.10928
G1 X232.327 Y220.473 E6.37001
G1 X232.327 Y229.527 E7.81494
G1 X224.427 Y229.527 E9.07567
G1 X224.427 Y229.724 E9.10707
G1 X217.673 Y229.722 E10.18495
G1 X217.673 Y220.398 E11.67296
G1 E11.27296 F2400.00000
G1 F4800
G1 X224.427 Y220.276 E8.06419
G1 X224.427 Y220.473 E7.97071
G1 X224.675 Y220.473 E7.85296
G1 E7.67296 F2400.00000
G92 E0
G1 Z1.500 F6000.000
G1 X216.905 Y219.510
G1 Z0.500
G1 E4.00000 F2400.00000
G1 F1500
G1 X225.195 Y219.508 E5.32291
G1 X225.195 Y219.705 E5.35434
G1 X233.095 Y219.705 E6.61507
G1 X233.095 Y230.295 E8.30503
G1 X225.195 Y230.295 E9.56576
G1 X225.195 Y230.492 E9.59720
G1 X216.905 Y230.489 E10.92010
G1 X216.905 Y219.630 E12.65307
G1 X217.262 Y218.743 F6000.000
G1 F1500
G1 X225.963 Y218.740 E14.04147
G1 X225.963 Y218.937 E14.07294
G1 X232.237 Y218.937 E15.07434
G1 X232.237 Y218.740 E15.10577
G1 X233.863 Y218.742 E15.36510
G1 X233.863 Y231.258 E17.36244
G1 X232.237 Y231.259 E17.62177
G1 X232.237 Y231.062 E17.65320
G1 X225.963 Y231.062 E18.65460
G1 X225.963 Y231.260 E18.68607
G1 X217.262 Y231.257 E20.07447
G1 X217.262 Y241.757 E21.75014
G1 X216.137 Y241.757 E21.92968
G1 X216.137 Y208.243 E27.27816
G1 X217.262 Y208.243 E27.45770
G1 X217.262 Y218.623 E29.11418
G1 X217.291 Y219.542 F6000.000
G1 X216.700 Y219.126
G1 F1500
G1 X216.700 Y208.626 E29.89406
G1 E29.49406 F2400.00000
G1 F4800
G1 X216.700 Y215.826 E26.07406
G1 E25.89406 F2400.00000
G92 E0
G1 Z1.500 F6000.000
G1 X216.700 Y219.305
G1 X218.646 Y220.892
G1 Z0.500
G1 E4.00000 F2400.00000
G1 F1500
G1 X218.646 Y228.763 E5.29958
G1 X219.440 Y228.763 E5.43072
G1 X219.440 Y221.237 E6.67333
G1 X220.234 Y221.237 E6.80447
G1 X220.234 Y228.763 E8.04715
G1 X221.029 Y228.763 E8.17830
G1 X221.029 Y221.236 E9.42105
G1 X221.823 Y221.236 E9.55219
G1 X221.823 Y228.763 E10.79501
G1 X222.617 Y228.764 E10.92615
G1 X222.617 Y221.236 E12.16904
G1 X223.411 Y221.236 E12.30019
G1 X223.411 Y228.764 E13.54315
G1 X223.468 Y228.764 E13.55241
G1 X223.468 Y228.567 E13.58486
G1 X224.206 Y228.567 E13.70674
G1 X224.206 Y221.432 E14.88481
G1 X225.000 Y221.432 E15.01595
G1 X225.000 Y228.567 E16.19402
G1 X225.794 Y228.567 E16.32516
G1 X225.794 Y221.432 E17.50322
G1 X226.589 Y221.432 E17.63437
G1 X226.589 Y228.567 E18.81243
G1 X227.383 Y228.567 E18.94358
G1 X227.383 Y221.432 E20.12164
G1 X228.177 Y221.432 E20.25278
G1 X228.177 Y228.567 E21.43085
G1 X228.971 Y228.567 E21.56199
G1 X228.971 Y221.432 E22.74006
G1 X229.766 Y221.432 E22.87120
G1 X229.766 Y228.567 E24.04926
G1 X230.560 Y228.567 E24.18041
G1 X230.560 Y221.432 E25.35847
G1 X231.354 Y221.432 E25.48962
G1 X231.354 Y228.913 E26.72472
G1 E26.32472 F2400.00000
G1 F4800
G1 X231.354 Y221.713 E22.90472
G1 E22.72472 F2400.00000
G92 E0
G1 Z1.500 F6000.000
G1 X232.621 Y230.777
G1 Z0.500
G1 E4.00000 F2400.00000
G1 F1500
G1 X233.479 Y230.776 E4.03501
G1 E3.63501 F2400.00000
G1 F4800
G1 X232.621 Y230.777 E3.22779
G1 E0.03501 F2400.00000
G92 E0
G1 Z1.500 F6000.000
G1 X233.479 Y219.223
G1 Z0.500
G1 E4.00000 F2400.00000
G1 F1500
G1 X232.621 Y219.223 E4.03501
G1 E3.63501 F2400.00000
G1 F4800
G1 X233.479 Y219.223 E3.22779
G1 E0.03501 F2400.00000
G92 E0
G1 Z1.500 F6000.000
G1 X216.700 Y230.873
G1 Z0.500
G1 E4.00000 F2400.00000
G1 F1500
G1 X216.700 Y241.374 E4.77990
M106 S255
G1 Z1.000 F6000.000
G1 X216.700 Y241.982
G1 X216.700 Y231.482
G1 X218.441 Y229.742
G1 F1289
G1 X218.441 Y220.258 E6.29331
G1 X223.659 Y220.257 E7.12616
G1 X223.659 Y221.240 E7.28310
G1 X231.559 Y221.240 E8.54383
G1 X231.559 Y228.759 E9.74373
G1 X223.659 Y228.759 E11.00446
G1 X223.659 Y229.743 E11.16139
G1 X218.561 Y229.742 E11.97509
G1 X224.427 Y220.473 F6000.000
G1 F1289
G1 X232.327 Y220.473 E13.23582
G1 X232.327 Y229.527 E14.68075
G1 X224.427 Y229.527 E15.94148
G1 X224.427 Y230.511 E16.09844
G1 X217.673 Y230.509 E17.17632
G1 X217.673 Y219.491 E18.93471
G1 X224.427 Y219.489 E20.01258
G1 X224.427 Y220.353 E20.15040
G1 X225.195 Y219.705 F6000.000
G1 F1289
G1 X233.095 Y219.705 E21.41113
G1 X233.095 Y230.295 E23.10108
G1 X225.195 Y230.295 E24.36181
G1 X225.195 Y231.278 E24.51880
G1 X216.905 Y231.277 E25.84171
G1 X216.905 Y218.723 E27.84507
G1 X225.195 Y218.721 E29.16798
G1 X225.195 Y219.585 E29.30582
G1 X225.963 Y218.937 F6000.000
G1 F1289
G1 X232.237 Y218.937 E30.30722
G1 X232.237 Y217.954 E30.46420
G1 X233.863 Y217.955 E30.72353
G1 X233.863 Y232.045 E32.97208
G1 X232.237 Y232.046 E33.23141
G1 X232.237 Y231.062 E33.38839
G1 X225.963 Y231.062 E34.38979
G1 X225.963 Y232.046 E34.54680
G1 X217.262 Y232.044 E35.93520
G1 X217.262 Y242.544 E37.61087
G1 X216.137 Y242.544 E37.79041
G1 X216.137 Y207.456 E43.39012
G1 X217.262 Y207.456 E43.56966
G1 X217.262 Y217.955 E45.24528
G1 X225.963 Y217.953 E46.63368
G1 X225.963 Y218.817 E46.77155
G1 X226.336 Y219.645 F6000.000
G1 X218.287 Y220.476
G1 F1289
G1 X223.468 Y220.476 E47.65726
G1 X223.468 Y221.299 E47.79788
G1 X218.633 Y221.299 E48.62452
G1 X218.633 Y222.121 E48.76514
G1 X231.367 Y222.121 E50.94245
G1 X231.367 Y222.944 E51.08306
G1 X218.633 Y222.944 E53.26037
G1 X218.633 Y223.766 E53.40099
G1 X231.367 Y223.766 E55.57830
G1 X231.367 Y224.589 E55.71892
G1 X218.633 Y224.589 E57.89623
G1 X218.633 Y225.411 E58.03685
G1 X231.367 Y225.411 E60.21416
G1 X231.367 Y226.234 E60.35478
G1 X218.633 Y226.234 E62.53209
G1 X218.633 Y227.056 E62.67270
G1 X231.367 Y227.056 E64.85001
G1 X231.367 Y227.878 E64.99063
G1 X218.633 Y227.878 E67.16794
G1 X218.633 Y228.701 E67.30856
G1 X223.468 Y228.701 E68.13520
G1 X223.468 Y229.523 E68.27582
G1 X218.287 Y229.523 E69.16153
G1 X216.700 Y231.660 F6000.000
G1 F1200
G1 X216.700 Y242.161 E69.94142
G1 X216.700 Y218.339 F6000.000
G1 F1200
G1 X216.700 Y207.839 E70.72130
G1 Z1.500 F6000.000
G1 X216.700 Y207.564
G1 X216.700 Y218.064
G1 X218.441 Y219.805
G1 F974
G1 X223.659 Y219.805 E71.55415
G1 X223.659 Y221.240 E71.78329
G1 X231.559 Y221.240 E73.04402
G1 X231.559 Y228.759 E74.24391
G1 X223.659 Y228.759 E75.50464
G1 X223.659 Y230.195 E75.73378
G1 X218.441 Y230.195 E76.56663
G1 X218.441 Y219.925 E78.20569
G1 X224.427 Y220.473 F6000.000
G1 F974
G1 X232.327 Y220.473 E79.46642
G1 X232.327 Y229.527 E80.91135
G1 X224.427 Y229.527 E82.17208
G1 X224.427 Y230.963 E82.40121
G1 X217.673 Y230.963 E83.47909
G1 X217.673 Y219.037 E85.38233
G1 X224.427 Y219.037 E86.46021
G1 X224.427 Y220.353 E86.67019
G1 X225.195 Y219.705 F6000.000
G1 F974
G1 X233.095 Y219.705 E87.93092
G1 X233.095 Y230.295 E89.62088
G1 X225.195 Y230.295 E90.88161
G1 X225.195 Y231.730 E91.11073
G1 X216.905 Y231.731 E92.43364
G1 X216.905 Y218.269 E94.58192
G1 X225.195 Y218.269 E95.90483
G1 X225.195 Y219.585 E96.11481
G1 X225.963 Y218.937 F6000.000
G1 F974
G1 X232.237 Y218.937 E97.11621
G1 X232.237 Y217.502 E97.34534
G1 X233.863 Y217.501 E97.60467
G1 X233.863 Y232.498 E99.99796
G1 X232.237 Y232.498 E100.25729
G1 X232.237 Y231.062 E100.48642
G1 X225.963 Y231.062 E101.48782
G1 X225.963 Y232.498 E101.71694
G1 X217.262 Y232.498 E103.10534
G1 X217.262 Y242.998 E104.78099
G1 X216.137 Y242.998 E104.96053
G1 X216.137 Y207.002 E110.70510
G1 X217.262 Y207.002 E110.88464
G1 X217.262 Y217.501 E112.56025
G1 X225.963 Y217.502 E113.94865
G1 X225.963 Y218.817 E114.15862
G1 X226.324 Y219.651 F6000.000
G1 X226.503 Y221.432
G1 F974
G1 X226.577 Y221.650 E114.19536
G1 X226.838 Y222.268 E114.30236
G1 X227.178 Y222.886 E114.41489
G1 X227.466 Y223.298 E114.49512
G1 X227.824 Y223.710 E114.58217
G1 X228.036 Y223.916 E114.62937
G1 X228.275 Y224.122 E114.67977
G1 X228.851 Y224.533 E114.79266
G1 X229.568 Y224.945 E114.92471
G1 X230.383 Y225.357 E115.07037
G1 X230.938 Y225.666 E115.17175
G1 X231.086 Y225.769 E115.20055
G1 X231.310 Y225.975 E115.24906
G1 X231.367 Y226.052 E115.26448
G1 X231.367 Y227.656 E115.52040
G1 X231.181 Y228.240 E115.61823
G1 X231.049 Y228.567 E115.67456
G1 X223.932 Y228.567 F6000.000
G1 F974
G1 X223.703 Y228.240 E115.73831
G1 X223.345 Y227.828 E115.82537
G1 X222.893 Y227.416 E115.92292
G1 X222.623 Y227.210 E115.97716
G1 X222.318 Y227.005 E116.03586
G1 X221.601 Y226.593 E116.16791
G1 X220.401 Y225.975 E116.38328
G1 X220.018 Y225.717 E116.45694
G1 X219.859 Y225.563 E116.49225
G1 X219.725 Y225.357 E116.53145
G1 X219.657 Y225.151 E116.56605
G1 X219.633 Y224.945 E116.59915
G1 X219.657 Y224.533 E116.66499
G1 X219.736 Y224.122 E116.73192
G1 X219.848 Y223.710 E116.80004
G1 X219.987 Y223.298 E116.86942
G1 X220.154 Y222.886 E116.94030
G1 X220.351 Y222.474 E117.01319
G1 X220.588 Y222.062 E117.08901
G1 X220.876 Y221.650 E117.16924
G1 X221.045 Y221.445 E117.21173
G1 X221.234 Y221.239 E117.25632
G1 X221.686 Y220.827 E117.35388
G1 X222.261 Y220.415 E117.46677
G1 X222.991 Y219.997 E117.60111
G1 X216.700 Y217.885 F6000.000
G1 F974
G1 X216.700 Y207.386 E118.38097
G1 X216.700 Y232.115 F6000.000
G1 F974
G1 X216.700 Y242.614 E119.16085
G1 Z2.000 F6000.000
G1 X216.700 Y242.725
G1 X216.700 Y232.225
G1 X218.441 Y230.484
G1 F1047
G1 X218.441 Y219.516 E120.91121
G1 X223.659 Y219.516 E121.74406
G1 X223.659 Y221.240 E122.01930
G1 X231.559 Y221.240 E123.28003
G1 X231.559 Y228.759 E124.47993
G1 X223.659 Y228.759 E125.74066
G1 X223.659 Y230.484 E126.01591
G1 X218.561 Y230.484 E126.82961
G1 X224.427 Y220.473 F6000.000
G1 F1047
G1 X232.327 Y220.473 E128.09034
G1 X232.327 Y229.527 E129.53526
G1 X224.427 Y229.527 E130.79599
G1 X224.427 Y231.252 E131.07124
G1 X217.673 Y231.252 E132.14912
G1 X217.673 Y218.748 E134.14450
G1 X224.427 Y218.748 E135.22238
G1 X224.427 Y220.353 E135.47848
G1 X225.195 Y219.705 F6000.000
G1 F1047
G1 X233.095 Y219.705 E136.73921
G1 X233.095 Y230.295 E138.42916
G1 X225.195 Y230.295 E139.68989
G1 X225.195 Y232.019 E139.96515
G1 X216.905 Y232.019 E141.28805
G1 X216.905 Y217.980 E143.52846
G1 X225.195 Y217.980 E144.85136
G1 X225.195 Y219.585 E145.10746
G1 X225.963 Y218.937 F6000.000
G1 F1047
G1 X232.237 Y218.937 E146.10887
G1 X232.237 Y217.213 E146.38412
G1 X233.863 Y217.213 E146.64345
G1 X233.863 Y232.787 E149.12889
G1 X232.237 Y232.787 E149.38822
G1 X232.237 Y231.062 E149.66347
G1 X225.963 Y231.062 E150.66488
G1 X225.963 Y232.787 E150.94013
G1 X217.262 Y232.787 E152.32853
G1 X217.262 Y243.287 E154.00419
G1 X216.137 Y243.287 E154.18372
G1 X216.137 Y206.713 E160.02043
G1 X217.262 Y206.713 E160.19996
G1 X217.262 Y217.213 E161.87558
G1 X225.963 Y217.213 E163.26398
G1 X225.963 Y218.817 E163.52008
G1 X226.316 Y219.655 F6000.000
G1 X226.012 Y221.432
G1 F1047
G1 X226.408 Y222.061 E163.63865
G1 X226.820 Y222.660 E163.75461
G1 X227.232 Y223.157 E163.85760
G1 X227.644 Y223.555 E163.94904
G1 X227.850 Y223.723 E163.99144
G1 X228.056 Y223.873 E164.03210
G1 X228.467 Y224.128 E164.10942
G1 X228.879 Y224.334 E164.18290
G1 X229.291 Y224.500 E164.25376
G1 X229.703 Y224.631 E164.32274
G1 X230.115 Y224.729 E164.39028
G1 X230.527 Y224.788 E164.45670
G1 X230.938 Y224.797 E164.52244
G1 X231.144 Y224.775 E164.55549
G1 X231.367 Y224.721 E164.59212
G1 X233.050 Y219.321 F6000.000
G1 F1047
G1 X233.050 Y217.596 E164.89949
G1 X232.945 Y217.920 F6000.000
G1 X233.050 Y219.500
G1 X232.800 Y220.000
G1 X227.800 Y225.000
G1 X225.400 Y225.000
G1 X225.400 Y219.500
G1 X223.675 Y219.500
G1 X223.467 Y220.233
G1 F1047
G1 X223.113 Y220.317 E164.95757
G1 X222.701 Y220.448 E165.02655
G1 X222.084 Y220.712 E165.13373
G1 X221.466 Y221.075 E165.24812
G1 X221.054 Y221.393 E165.33115
G1 X220.642 Y221.792 E165.42260
G1 X220.230 Y222.288 E165.52559
G1 X219.819 Y222.887 E165.64154
G1 X219.407 Y223.542 E165.76498
G1 X218.995 Y224.130 E165.87953
G1 X218.789 Y224.356 E165.92831
G1 X218.633 Y224.486 E165.96077
G1 X224.091 Y228.567 E167.04853
G1 X223.834 Y228.273 E167.11092
G1 X223.525 Y227.983 E167.17856
G1 X223.113 Y227.665 E167.26159
G1 X222.701 Y227.410 E167.33890
G1 X222.290 Y227.204 E167.41238
G1 X221.878 Y227.038 E167.48324
G1 X221.466 Y226.907 E167.55223
G1 X221.054 Y226.809 E167.61977
G1 X220.642 Y226.750 E167.68618
G1 X220.230 Y226.741 E167.75192
G1 X219.819 Y226.810 E167.81858
G1 X219.613 Y226.890 E167.85382
G1 X219.407 Y227.011 E167.89195
G1 X219.201 Y227.182 E167.93470
G1 X218.995 Y227.408 E167.98348
G1 X218.633 Y227.921 E168.08368
G1 X216.700 Y232.403 F6000.000
G1 F1047
G1 X216.700 Y242.903 E168.86356
G1 X216.700 Y232.225 F6000.000
G1 X221.647 Y227.278
G1 X222.789 Y225.000
G1 X227.800 Y225.000
G1 X232.800 Y230.000
G1 X233.050 Y230.500
G1 X232.945 Y232.080
G1 X233.050 Y232.403
G1 F1047
G1 X233.050 Y230.679 E169.17093
G1 X216.700 Y217.597 F6000.000
G1 F1047
G1 X216.700 Y207.097 E169.95080
G1 Z2.500 F6000.000
G1 X216.700 Y217.597
G1 X218.441 Y219.337
G1 F1051
G1 X223.659 Y219.338 E170.78365
G1 X223.659 Y221.240 E171.08733
G1 X231.559 Y221.240 E172.34806
G1 X231.559 Y228.759 E173.54795
G1 X223.659 Y228.759 E174.80868
G1 X223.659 Y230.662 E175.11237
G1 X218.441 Y230.662 E175.94522
G1 X218.441 Y219.457 E177.73337
G1 X224.427 Y220.473 F6000.000
G1 F1051
G1 X232.327 Y220.473 E178.99410
G1 X232.327 Y229.527 E180.43903
G1 X224.427 Y229.527 E181.69976
G1 X224.427 Y231.430 E182.00344
G1 X217.673 Y231.430 E183.08131
G1 X217.673 Y218.570 E185.13366
G1 X224.427 Y218.570 E186.21153
G1 X224.427 Y220.353 E186.49606
G1 X225.195 Y219.705 F6000.000
G1 F1051
G1 X233.095 Y219.705 E187.75679
G1 X233.095 Y230.295 E189.44675
G1 X225.195 Y230.295 E190.70748
G1 X225.195 Y232.198 E191.01115
G1 X216.905 Y232.198 E192.33406
G1 X216.905 Y217.802 E194.63143
G1 X225.195 Y217.802 E195.95434
G1 X225.195 Y219.585 E196.23887
G1 X225.963 Y218.937 F6000.000
G1 F1051
G1 X232.237 Y218.937 E197.24027
G1 X232.237 Y217.034 E197.54395
G1 X233.863 Y217.034 E197.80327
G1 X233.863 Y232.965 E200.34566
G1 X232.237 Y232.965 E200.60499
G1 X232.237 Y231.062 E200.90866
G1 X225.963 Y231.062 E201.91007
G1 X225.963 Y232.965 E202.21374
G1 X217.262 Y232.965 E203.60214
G1 X217.262 Y243.465 E205.27779
G1 X216.137 Y243.465 E205.45732
G1 X216.137 Y206.535 E211.35099
G1 X217.262 Y206.535 E211.53053
G1 X217.262 Y217.034 E213.20614
G1 X225.963 Y217.034 E214.59454
G1 X225.963 Y218.817 E214.87906
G1 X226.312 Y219.657 F6000.000
G1 X223.467 Y220.597
G1 F1051
G1 X223.113 Y220.606 E214.93560
G1 X222.701 Y220.658 E215.00185
G1 X222.290 Y220.750 E215.06919
G1 X221.878 Y220.882 E215.13823
G1 X221.466 Y221.060 E215.20981
G1 X221.054 Y221.290 E215.28513
G1 X220.642 Y221.584 E215.36582
G1 X220.230 Y221.948 E215.45359
G1 X219.819 Y222.383 E215.54913
G1 X218.995 Y223.333 E215.74986
G1 X218.633 Y223.686 E215.83056
G1 X218.633 Y228.617 F6000.000
G1 F1051
G1 X218.995 Y228.205 E215.91819
G1 X219.407 Y227.807 E216.00956
G1 X219.819 Y227.516 E216.09002
G1 X220.230 Y227.329 E216.16222
G1 X220.436 Y227.268 E216.19650
G1 X220.642 Y227.225 E216.23006
G1 X221.054 Y227.185 E216.29610
G1 X221.466 Y227.195 E216.36184
G1 X222.084 Y227.288 E216.46155
G1 X222.701 Y227.472 E216.56438
G1 X222.907 Y227.554 E216.59980
G1 X223.525 Y227.880 E216.71123
