; generated by Slic3r Prusa Edition 1.42.0-beta2 on 2020-10-31 at 18:21:43

; 

; external perimeters extrusion width = 0.65mm
; perimeters extrusion width = 0.65mm
; infill extrusion width = 0.65mm
; solid infill extrusion width = 0.65mm
; top infill extrusion width = 0.65mm
; first layer extrusion width = 0.65mm

M107
G28 Y0 X0 Z0  ;
M140 S80 ; set bed temp
M190 S80 ; wait for bed temp
M104 S215 ; set extruder temp
M109 S215 ; wait for extruder temp
M420 S Z5 ; call on the auto level gods
M300 S1000 P500 ; chirp
G1 Y25 X5.0 F4000.0 ; go outside print area
G92 E0.0
G1 Z0.5 F300.0; 
G1 X60.0 E9.0 F1000.0 ; intro line
G1 X100.0 E12.5 F1000.0 ; intro line
G92 E0.0
M900 K30 ; Filament gcode
G21 ; set units to millimeters
G90 ; use absolute coordinates
M82 ; use absolute distances for extrusion
G92 E0
G1 Z0.500 F6000.000
G1 E-4.00000 F2400.00000
G92 E0
G1 Z1.500 F6000.000
G1 X233.588 Y219.339
G1 Z0.500
G1 E4.00000 F2400.00000
G1 F900
G1 X234.134 Y218.841 E4.08342
G1 X234.724 Y218.396 E4.16683
G1 X235.353 Y218.006 E4.25025
G1 X236.015 Y217.677 E4.33366
G1 X236.704 Y217.410 E4.41708
G1 X237.416 Y217.207 E4.50050
G1 X238.120 Y217.076 E4.58136
G1 X238.531 Y217.028 E4.62807
G1 X239.223 Y216.995 E4.70623
G1 X239.985 Y217.029 E4.79217
G1 X240.719 Y217.131 E4.87586
G1 X241.439 Y217.300 E4.95928
G1 X242.140 Y217.535 E5.04270
G1 X242.796 Y217.825 E5.12356
G1 X243.162 Y218.018 E5.17027
G1 X243.752 Y218.382 E5.24843
G1 X244.361 Y218.840 E5.33437
G1 X244.909 Y219.339 E5.41807
G1 X245.407 Y219.886 E5.50148
G1 X245.853 Y220.476 E5.58490
G1 X246.230 Y221.085 E5.66577
G1 X246.423 Y221.452 E5.71247
G1 X246.703 Y222.085 E5.79063
G1 X246.947 Y222.807 E5.87657
G1 X247.117 Y223.529 E5.96027
G1 X247.219 Y224.261 E6.04368
G1 X247.254 Y225.000 E6.12710
G1 X247.219 Y225.739 E6.21051
G1 X247.117 Y226.471 E6.29393
G1 X246.948 Y227.191 E6.37735
G1 X246.713 Y227.892 E6.46076
G1 X246.423 Y228.548 E6.54163
G1 X246.230 Y228.914 E6.58833
G1 X245.866 Y229.503 E6.66649
G1 X245.409 Y230.112 E6.75243
G1 X244.909 Y230.661 E6.83613
G1 X244.362 Y231.159 E6.91955
G1 X243.772 Y231.604 E7.00296
G1 X243.144 Y231.994 E7.08638
G1 X242.482 Y232.323 E7.16979
G1 X241.792 Y232.590 E7.25321
G1 X241.081 Y232.793 E7.33663
G1 X240.354 Y232.928 E7.42004
G1 X239.641 Y232.995 E7.50091
G1 X239.226 Y233.004 E7.54772
G1 X238.510 Y232.971 E7.62858
G1 X237.777 Y232.869 E7.71200
G1 X237.058 Y232.700 E7.79542
G1 X236.357 Y232.465 E7.87883
G1 X235.680 Y232.166 E7.96225
G1 X235.034 Y231.806 E8.04566
G1 X234.443 Y231.401 E8.12653
G1 X234.118 Y231.143 E8.17334
G1 X233.588 Y230.661 E8.25420
G1 X233.090 Y230.114 E8.33762
G1 X232.644 Y229.524 E8.42104
G1 X232.267 Y228.915 E8.50190
G1 X232.074 Y228.548 E8.54861
G1 X231.793 Y227.915 E8.62677
G1 X231.549 Y227.193 E8.71271
G1 X231.380 Y226.471 E8.79640
G1 X231.277 Y225.739 E8.87982
G1 X231.243 Y225.000 E8.96324
G1 X231.277 Y224.261 E9.04665
G1 X231.380 Y223.529 E9.13007
G1 X231.544 Y222.831 E9.21094
G1 X231.666 Y222.436 E9.25764
G1 X231.916 Y221.790 E9.33580
G1 X232.254 Y221.107 E9.42174
G1 X232.644 Y220.476 E9.50544
G1 X233.090 Y219.886 E9.58885
G1 X233.507 Y219.428 E9.65873
G1 X233.908 Y219.794 F6000.000
G1 F900
G1 X234.481 Y219.259 E9.74715
G1 X235.031 Y218.844 E9.82491
G1 X235.617 Y218.481 E9.90266
G1 X236.234 Y218.174 E9.98042
G1 X236.877 Y217.925 E10.05817
G1 X237.540 Y217.736 E10.13593
G1 X238.201 Y217.613 E10.21184
G1 X238.576 Y217.569 E10.25433
G1 X239.224 Y217.539 E10.32762
G1 X239.935 Y217.570 E10.40786
G1 X240.619 Y217.665 E10.48582
G1 X241.290 Y217.823 E10.56358
G1 X241.944 Y218.042 E10.64133
G1 X242.560 Y218.314 E10.71725
G1 X242.893 Y218.489 E10.75974
G1 X243.445 Y218.831 E10.83302
G1 X244.014 Y219.258 E10.91327
G1 X244.525 Y219.724 E10.99123
G1 X244.989 Y220.233 E11.06898
G1 X245.404 Y220.783 E11.14674
G1 X245.759 Y221.355 E11.22265
G1 X245.934 Y221.688 E11.26514
G1 X246.197 Y222.282 E11.33843
G1 X246.425 Y222.956 E11.41868
G1 X246.583 Y223.629 E11.49664
G1 X246.678 Y224.312 E11.57439
G1 X246.710 Y225.000 E11.65215
G1 X246.678 Y225.688 E11.72990
G1 X246.583 Y226.371 E11.80766
G1 X246.425 Y227.042 E11.88541
G1 X246.206 Y227.696 E11.96317
G1 X245.935 Y228.311 E12.03908
G1 X245.759 Y228.644 E12.08157
G1 X245.418 Y229.197 E12.15485
G1 X244.990 Y229.766 E12.23510
G1 X244.525 Y230.276 E12.31306
G1 X244.015 Y230.741 E12.39082
G1 X243.465 Y231.156 E12.46857
G1 X242.879 Y231.519 E12.54633
G1 X242.262 Y231.826 E12.62408
G1 X241.620 Y232.075 E12.70184
G1 X240.957 Y232.264 E12.77959
G1 X240.279 Y232.390 E12.85735
G1 X239.609 Y232.452 E12.93326
G1 X239.232 Y232.461 E12.97582
G1 X238.560 Y232.430 E13.05174
G1 X237.877 Y232.335 E13.12949
G1 X237.206 Y232.177 E13.20725
G1 X236.553 Y231.958 E13.28500
G1 X235.922 Y231.680 E13.36276
G1 X235.320 Y231.344 E13.44051
G1 X234.765 Y230.964 E13.51643
G1 X234.469 Y230.730 E13.55899
G1 X233.972 Y230.276 E13.63490
G1 X233.508 Y229.767 E13.71266
G1 X233.092 Y229.217 E13.79041
G1 X232.738 Y228.645 E13.86633
G1 X232.562 Y228.312 E13.90881
G1 X232.300 Y227.718 E13.98210
G1 X232.072 Y227.044 E14.06235
G1 X231.914 Y226.371 E14.14031
G1 X231.818 Y225.688 E14.21806
G1 X231.786 Y225.000 E14.29582
G1 X231.818 Y224.312 E14.37357
G1 X231.914 Y223.629 E14.45133
G1 X232.068 Y222.974 E14.52724
G1 X232.179 Y222.614 E14.56973
G1 X232.413 Y222.008 E14.64301
G1 X232.729 Y221.371 E14.72326
G1 X233.092 Y220.783 E14.80122
G1 X233.508 Y220.233 E14.87898
G1 X233.827 Y219.882 E14.93249
G1 X234.228 Y220.248 F6000.000
G1 F900
G1 X234.356 Y220.108 E14.95390
G1 X234.828 Y219.677 E15.02600
G1 X235.338 Y219.292 E15.09809
G1 X235.882 Y218.956 E15.17018
G1 X236.454 Y218.671 E15.24228
G1 X237.050 Y218.440 E15.31437
G1 X237.664 Y218.265 E15.38647
G1 X238.283 Y218.150 E15.45743
G1 X238.620 Y218.110 E15.49570
G1 X239.225 Y218.082 E15.56411
G1 X239.886 Y218.111 E15.63867
G1 X240.520 Y218.199 E15.71089
G1 X241.142 Y218.345 E15.78298
G1 X241.748 Y218.549 E15.85508
G1 X242.323 Y218.803 E15.92604
G1 X242.623 Y218.961 E15.96431
G1 X243.139 Y219.280 E16.03272
G1 X243.667 Y219.677 E16.10728
G1 X244.141 Y220.108 E16.17950
G1 X244.571 Y220.580 E16.25159
G1 X244.956 Y221.090 E16.32369
G1 X245.287 Y221.625 E16.39465
G1 X245.446 Y221.925 E16.43292
G1 X245.691 Y222.479 E16.50133
G1 X245.903 Y223.106 E16.57589
G1 X246.049 Y223.729 E16.64811
G1 X246.137 Y224.362 E16.72020
G1 X246.167 Y225.000 E16.79230
G1 X246.137 Y225.638 E16.86439
G1 X246.049 Y226.271 E16.93649
G1 X245.903 Y226.893 E17.00858
G1 X245.700 Y227.499 E17.08067
G1 X245.446 Y228.075 E17.15164
G1 X245.288 Y228.375 E17.18991
G1 X244.969 Y228.891 E17.25832
G1 X244.572 Y229.419 E17.33288
G1 X244.141 Y229.892 E17.40510
G1 X243.668 Y230.323 E17.47719
G1 X243.158 Y230.708 E17.54928
G1 X242.615 Y231.044 E17.62138
G1 X242.043 Y231.329 E17.69347
G1 X241.447 Y231.560 E17.76557
G1 X240.832 Y231.735 E17.83766
G1 X240.204 Y231.852 E17.90975
G1 X239.578 Y231.910 E17.98072
G1 X239.238 Y231.918 E18.01903
G1 X238.610 Y231.889 E18.08999
G1 X237.977 Y231.801 E18.16209
G1 X237.355 Y231.655 E18.23418
G1 X236.749 Y231.451 E18.30628
G1 X236.164 Y231.193 E18.37837
G1 X235.606 Y230.882 E18.45046
G1 X235.087 Y230.527 E18.52143
G1 X234.821 Y230.316 E18.55974
G1 X234.356 Y229.892 E18.63070
G1 X233.926 Y229.420 E18.70280
G1 X233.541 Y228.910 E18.77489
G1 X233.209 Y228.375 E18.84585
G1 X233.051 Y228.075 E18.88412
G1 X232.806 Y227.521 E18.95253
G1 X232.594 Y226.894 E19.02709
G1 X232.448 Y226.271 E19.09931
G1 X232.359 Y225.638 E19.17141
G1 X232.330 Y225.000 E19.24350
G1 X232.359 Y224.362 E19.31560
G1 X232.448 Y223.729 E19.38769
G1 X232.592 Y223.116 E19.45865
G1 X232.692 Y222.792 E19.49692
G1 X232.910 Y222.227 E19.56533
G1 X233.204 Y221.634 E19.63989
G1 X233.541 Y221.090 E19.71211
G1 X233.926 Y220.580 E19.78421
G1 X234.147 Y220.337 E19.82135
G1 X234.549 Y220.702 F6000.000
G1 F900
G1 X234.740 Y220.492 E19.85347
G1 X235.176 Y220.095 E19.91990
G1 X235.645 Y219.740 E19.98634
G1 X236.146 Y219.430 E20.05277
G1 X236.673 Y219.168 E20.11920
G1 X237.222 Y218.955 E20.18563
G1 X237.789 Y218.794 E20.25207
G1 X238.364 Y218.686 E20.31808
G1 X238.664 Y218.652 E20.35213
G1 X239.226 Y218.625 E20.41567
G1 X239.836 Y218.652 E20.48454
G1 X240.420 Y218.733 E20.55102
G1 X240.993 Y218.868 E20.61745
G1 X241.551 Y219.055 E20.68388
G1 X242.087 Y219.292 E20.74989
G1 X242.354 Y219.432 E20.78395
G1 X242.833 Y219.728 E20.84748
G1 X243.321 Y220.095 E20.91635
G1 X243.756 Y220.492 E20.98283
G1 X244.153 Y220.927 E21.04927
G1 X244.508 Y221.397 E21.11570
G1 X244.816 Y221.895 E21.18171
G1 X244.957 Y222.162 E21.21576
G1 X245.185 Y222.677 E21.27930
G1 X245.380 Y223.255 E21.34817
G1 X245.515 Y223.829 E21.41465
G1 X245.597 Y224.412 E21.48108
G1 X245.624 Y225.000 E21.54751
G1 X245.597 Y225.588 E21.61395
G1 X245.515 Y226.171 E21.68038
G1 X245.380 Y226.745 E21.74681
G1 X245.193 Y227.303 E21.81325
G1 X244.957 Y227.838 E21.87926
G1 X244.816 Y228.105 E21.91331
G1 X244.520 Y228.584 E21.97685
G1 X244.153 Y229.073 E22.04572
G1 X243.756 Y229.508 E22.11220
G1 X243.321 Y229.905 E22.17863
G1 X242.851 Y230.260 E22.24506
G1 X242.351 Y230.570 E22.31150
G1 X241.824 Y230.832 E22.37793
G1 X241.274 Y231.045 E22.44436
G1 X240.708 Y231.206 E22.51079
G1 X240.129 Y231.314 E22.57723
G1 X239.547 Y231.368 E22.64324
G1 X239.245 Y231.375 E22.67731
G1 X238.660 Y231.348 E22.74332
G1 X238.077 Y231.267 E22.80975
G1 X237.504 Y231.132 E22.87618
G1 X236.945 Y230.945 E22.94261
G1 X236.407 Y230.707 E23.00905
G1 X235.892 Y230.420 E23.07548
G1 X235.409 Y230.090 E23.14149
G1 X235.173 Y229.902 E23.17556
G1 X234.740 Y229.508 E23.24157
G1 X234.344 Y229.073 E23.30800
G1 X233.989 Y228.603 E23.37444
G1 X233.681 Y228.105 E23.44044
G1 X233.540 Y227.838 E23.47450
G1 X233.312 Y227.323 E23.53804
G1 X233.117 Y226.745 E23.60691
G1 X232.982 Y226.171 E23.67339
G1 X232.900 Y225.588 E23.73982
G1 X232.873 Y225.000 E23.80625
G1 X232.900 Y224.412 E23.87268
G1 X232.982 Y223.829 E23.93912
G1 X233.116 Y223.259 E24.00513
G1 X233.205 Y222.971 E24.03918
G1 X233.408 Y222.445 E24.10272
G1 X233.679 Y221.898 E24.17159
G1 X233.989 Y221.397 E24.23807
G1 X234.344 Y220.927 E24.30450
G1 X234.468 Y220.791 E24.32527
G1 X234.457 Y220.433 F6000.000
G1 E23.92527 F2400.00000
G1 F4800
G1 X234.740 Y220.492 E23.73303
G1 X235.176 Y220.095 E23.45331
G1 X235.645 Y219.740 E23.17360
G1 X236.146 Y219.430 E22.89388
G1 X236.673 Y219.168 E22.61417
G1 X237.222 Y218.955 E22.33446
G1 X237.789 Y218.794 E22.05474
G1 X238.364 Y218.686 E21.77681
G1 X238.664 Y218.652 E21.63343
G1 X239.226 Y218.625 E21.36591
G1 X239.836 Y218.652 E21.07594
G1 X240.420 Y218.733 E20.79602
G1 X240.993 Y218.868 E20.51631
G1 X241.015 Y218.875 E20.50527
G1 E20.32527 F2400.00000
G92 E0
G1 Z1.500 F6000.000
G1 X232.291 Y218.843
G1 Z0.500
G1 E4.00000 F2400.00000
G1 F900
G1 X232.757 Y218.345 E4.07690
G1 X233.470 Y217.719 E4.18391
G1 X234.227 Y217.177 E4.28894
G1 X235.048 Y216.707 E4.39575
G1 X235.927 Y216.317 E4.50414
G1 X236.829 Y216.025 E4.61116
G1 X237.753 Y215.825 E4.71776
G1 X238.693 Y215.721 E4.82455
G1 X239.356 Y215.705 E4.89936
G1 X240.256 Y215.758 E5.00101
G1 X241.191 Y215.909 E5.10782
G1 X242.121 Y216.158 E5.21651
G1 X243.005 Y216.497 E5.32332
G1 X243.851 Y216.923 E5.43013
G1 X244.648 Y217.433 E5.53694
G1 X245.378 Y218.011 E5.64187
G1 X245.861 Y218.466 E5.71684
G1 X246.492 Y219.173 E5.82365
G1 X247.053 Y219.951 E5.93187
G1 X247.506 Y220.730 E6.03352
G1 X247.903 Y221.605 E6.14192
G1 X248.207 Y222.518 E6.25052
G1 X248.413 Y223.442 E6.35733
G1 X248.524 Y224.382 E6.46414
G1 X248.539 Y225.329 E6.57095
G1 X248.459 Y226.258 E6.67618
G1 X248.349 Y226.898 E6.74935
G1 X248.113 Y227.797 E6.85429
G1 X247.790 Y228.670 E6.95923
G1 X247.364 Y229.534 E7.06791
G1 X246.853 Y230.347 E7.17630
G1 X246.279 Y231.081 E7.28145
G1 X245.636 Y231.755 E7.38647
G1 X244.903 Y232.380 E7.49515
G1 X244.122 Y232.916 E7.60196
G1 X243.559 Y233.236 E7.67505
G1 X242.699 Y233.632 E7.78186
G1 X241.791 Y233.941 E7.89008
G1 X240.914 Y234.146 E7.99174
G1 X239.975 Y234.268 E8.09855
G1 X239.012 Y234.294 E8.20723
G1 X238.068 Y234.220 E8.31404
G1 X237.152 Y234.057 E8.41898
G1 X236.526 Y233.888 E8.49207
G1 X235.651 Y233.572 E8.59701
G1 X234.786 Y233.155 E8.70540
G1 X233.967 Y232.650 E8.81400
G1 X233.216 Y232.073 E8.92081
G1 X232.538 Y231.433 E9.02604
G1 X231.919 Y230.719 E9.13264
G1 X231.365 Y229.928 E9.24153
G1 X230.906 Y229.102 E9.34814
G1 X230.532 Y228.233 E9.45487
G1 X230.253 Y227.345 E9.55987
G1 X230.109 Y226.698 E9.63468
G1 X229.987 Y225.805 E9.73633
G1 X229.953 Y224.859 E9.84314
G1 X230.016 Y223.914 E9.94995
G1 X230.177 Y222.964 E10.05863
G1 X230.436 Y222.039 E10.16703
G1 X230.783 Y221.159 E10.27376
G1 X231.210 Y220.332 E10.37876
G1 X231.563 Y219.771 E10.45357
G1 X231.927 Y219.271 E10.52329
G1 X232.211 Y218.932 E10.57320
G1 X231.807 Y218.570 F6000.000
G1 F900
G1 X232.379 Y217.956 E10.66787
G1 X233.132 Y217.293 E10.78107
G1 X233.938 Y216.717 E10.89282
G1 X234.808 Y216.220 E11.00587
G1 X235.734 Y215.810 E11.12006
G1 X236.688 Y215.500 E11.23326
G1 X237.666 Y215.289 E11.34615
G1 X238.662 Y215.179 E11.45919
G1 X239.362 Y215.162 E11.53816
G1 X240.320 Y215.219 E11.64648
G1 X241.310 Y215.379 E11.75953
G1 X242.289 Y215.642 E11.87393
G1 X243.225 Y216.001 E11.98698
G1 X244.120 Y216.451 E12.10003
G1 X244.964 Y216.991 E12.21307
G1 X245.740 Y217.606 E12.32477
G1 X246.244 Y218.081 E12.40285
G1 X246.911 Y218.828 E12.51590
G1 X247.508 Y219.655 E12.63096
G1 X247.991 Y220.485 E12.73929
G1 X248.408 Y221.407 E12.85348
G1 X248.729 Y222.369 E12.96782
G1 X248.948 Y223.347 E13.08087
G1 X249.065 Y224.342 E13.19392
G1 X249.082 Y225.344 E13.30696
G1 X248.997 Y226.332 E13.41887
G1 X248.882 Y227.003 E13.49566
G1 X248.631 Y227.961 E13.60736
G1 X248.286 Y228.889 E13.71905
G1 X247.838 Y229.799 E13.83345
G1 X247.300 Y230.656 E13.94764
G1 X246.689 Y231.437 E14.05949
G1 X246.005 Y232.153 E14.17124
G1 X245.233 Y232.810 E14.28564
G1 X244.407 Y233.378 E14.39869
G1 X243.816 Y233.715 E14.47542
G1 X242.906 Y234.134 E14.58847
G1 X241.940 Y234.463 E14.70353
G1 X241.005 Y234.681 E14.81186
G1 X240.011 Y234.810 E14.92491
G1 X238.998 Y234.836 E15.03931
G1 X237.999 Y234.759 E15.15235
G1 X237.024 Y234.584 E15.26405
G1 X236.367 Y234.408 E15.34078
G1 X235.436 Y234.071 E15.45248
G1 X234.524 Y233.631 E15.56667
G1 X233.662 Y233.099 E15.68101
G1 X232.867 Y232.489 E15.79406
G1 X232.146 Y231.808 E15.90596
G1 X231.490 Y231.052 E16.01886
G1 X230.908 Y230.220 E16.13341
G1 X230.421 Y229.346 E16.24631
G1 X230.025 Y228.426 E16.35930
G1 X229.728 Y227.481 E16.47104
G1 X229.576 Y226.798 E16.55001
G1 X229.446 Y225.846 E16.65833
G1 X229.410 Y224.845 E16.77138
G1 X229.477 Y223.845 E16.88443
G1 X229.648 Y222.845 E16.99883
G1 X229.920 Y221.871 E17.11302
G1 X230.287 Y220.938 E17.22601
G1 X230.741 Y220.058 E17.33775
G1 X231.114 Y219.466 E17.41672
G1 X231.496 Y218.941 E17.49002
G1 X231.727 Y218.659 E17.53106
G1 X231.323 Y218.297 F6000.000
G1 F900
G1 X232.000 Y217.567 E17.64350
G1 X232.795 Y216.868 E17.76288
G1 X233.649 Y216.257 E17.88137
G1 X234.568 Y215.733 E18.00065
G1 X235.540 Y215.303 E18.12064
G1 X236.547 Y214.976 E18.24002
G1 X237.580 Y214.753 E18.35921
G1 X238.630 Y214.637 E18.47849
G1 X239.367 Y214.619 E18.56162
G1 X240.385 Y214.680 E18.67661
G1 X241.428 Y214.849 E18.79590
G1 X242.457 Y215.126 E18.91602
G1 X243.444 Y215.504 E19.03530
G1 X244.388 Y215.980 E19.15459
G1 X245.279 Y216.549 E19.27387
G1 X246.102 Y217.202 E19.39233
G1 X246.626 Y217.695 E19.47353
G1 X247.331 Y218.484 E19.59282
G1 X247.964 Y219.359 E19.71472
G1 X248.475 Y220.241 E19.82972
G1 X248.914 Y221.210 E19.94971
G1 X249.251 Y222.219 E20.06979
G1 X249.482 Y223.251 E20.18907
G1 X249.607 Y224.301 E20.30836
G1 X249.624 Y225.358 E20.42764
G1 X249.535 Y226.406 E20.54622
G1 X249.414 Y227.108 E20.62663
G1 X249.149 Y228.124 E20.74509
G1 X248.783 Y229.108 E20.86354
G1 X248.312 Y230.063 E20.98366
G1 X247.746 Y230.964 E21.10365
G1 X247.100 Y231.792 E21.22219
G1 X246.374 Y232.551 E21.34068
G1 X245.563 Y233.241 E21.46080
G1 X244.692 Y233.840 E21.58008
G1 X244.073 Y234.193 E21.66045
G1 X243.113 Y234.636 E21.77974
G1 X242.090 Y234.985 E21.90164
G1 X241.097 Y235.216 E22.01664
G1 X240.048 Y235.351 E22.13593
G1 X238.984 Y235.379 E22.25604
G1 X237.930 Y235.298 E22.37533
G1 X236.896 Y235.112 E22.49378
