; generated by Slic3r Prusa Edition 1.42.0-beta2 on 2020-10-31 at 16:56:01

; 

; external perimeters extrusion width = 0.65mm
; perimeters extrusion width = 0.65mm
; infill extrusion width = 0.65mm
; solid infill extrusion width = 0.65mm
; top infill extrusion width = 0.65mm
; first layer extrusion width = 0.65mm

M107
G28 Y0 X0 Z0  ;
M140 S80 ; set bed temp
M190 S80 ; wait for bed temp
M104 S215 ; set extruder temp
M109 S215 ; wait for extruder temp
M420 S Z5 ; call on the auto level gods
M300 S1000 P500 ; chirp
G1 Y25 X5.0 F4000.0 ; go outside print area
G92 E0.0
G1 Z0.5 F300.0; 
G1 X60.0 E9.0 F1000.0 ; intro line
G1 X100.0 E12.5 F1000.0 ; intro line
G92 E0.0
M900 K30 ; Filament gcode
G21 ; set units to millimeters
G90 ; use absolute coordinates
M82 ; use absolute distances for extrusion
G92 E0
G1 Z0.500 F6000.000
G1 E-4.00000 F2400.00000
G92 E0
G1 Z1.500 F6000.000
G1 X211.753 Y217.953
G1 Z0.500
G1 E4.00000 F2400.00000
G1 F900
G1 X235.031 Y217.953 E6.62605
G1 X235.766 Y217.892 E6.70932
G1 X236.560 Y217.691 E6.80173
G1 X237.273 Y217.378 E6.88956
G1 X237.695 Y217.127 E6.94489
G1 X238.247 Y216.698 E7.02383
G1 X238.247 Y232.106 E8.76209
G1 X211.753 Y232.106 E11.75096
G1 X211.753 Y218.073 E13.33403
G1 X211.210 Y217.410 F6000.000
G1 F900
G1 X235.008 Y217.410 E16.01877
G1 X235.677 Y217.355 E16.09443
G1 X236.384 Y217.176 E16.17669
G1 X237.025 Y216.895 E16.25565
G1 X237.388 Y216.678 E16.30338
G1 X237.920 Y216.265 E16.37938
G1 X238.228 Y215.954 E16.42876
G1 X238.570 Y215.514 E16.49162
G1 X238.790 Y215.589 E16.51787
G1 X238.790 Y232.648 E18.44242
G1 X211.210 Y232.648 E21.55374
G1 X211.210 Y217.530 E23.25925
G1 X210.668 Y216.868 F6000.000
G1 F900
G1 X234.986 Y216.868 E26.00268
G1 X235.587 Y216.818 E26.07074
G1 X236.207 Y216.661 E26.14286
G1 X236.776 Y216.411 E26.21295
G1 X237.081 Y216.229 E26.25307
G1 X237.559 Y215.858 E26.32134
G1 X237.819 Y215.595 E26.36307
G1 X238.191 Y215.117 E26.43139
G1 X238.486 Y214.571 E26.50142
G1 X238.615 Y214.239 E26.54154
G1 X238.768 Y213.637 E26.61163
G1 X238.818 Y213.036 E26.67969
G1 X238.818 Y206.868 E27.37554
G1 X239.332 Y206.868 E27.43360
G1 X239.332 Y233.191 E30.40325
G1 X210.668 Y233.191 E33.63702
G1 X210.668 Y216.988 E35.46498
G1 X210.125 Y216.325 F6000.000
G1 F900
G1 X234.963 Y216.325 E38.26711
G1 X235.497 Y216.281 E38.32756
G1 X236.030 Y216.146 E38.38953
G1 X236.527 Y215.928 E38.45074
G1 X236.775 Y215.780 E38.48327
G1 X237.198 Y215.451 E38.54379
G1 X237.411 Y215.236 E38.57789
G1 X237.735 Y214.819 E38.63747
G1 X237.993 Y214.342 E38.69866
G1 X238.098 Y214.073 E38.73118
G1 X238.231 Y213.547 E38.79239
G1 X238.275 Y213.013 E38.85284
G1 X238.275 Y206.325 E39.60739
G1 X239.875 Y206.325 E39.78790
G1 X239.875 Y233.734 E42.88000
G1 X210.125 Y233.734 E46.23622
G1 X210.125 Y216.445 E48.18662
G1 X210.913 Y216.465 F6000.000
G1 E47.78662 F2400.00000
G1 F4800
G1 X217.325 Y216.410 E44.36662
G1 E44.18662 F2400.00000
G92 E0
G1 Z1.500 F6000.000
G1 X211.890 Y217.845
G1 Z0.500
G1 E4.00000 F2400.00000
G1 F900
G1 X211.890 Y231.970 E5.60390
G1 X212.437 Y231.970 E5.66593
G1 X212.437 Y218.089 E7.24210
G1 X212.983 Y218.089 E7.30413
G1 X212.983 Y231.970 E8.88030
G1 X213.529 Y231.970 E8.94232
G1 X213.529 Y218.089 E10.51850
G1 X214.075 Y218.089 E10.58052
G1 X214.075 Y231.970 E12.15670
G1 X214.622 Y231.970 E12.21872
G1 X214.622 Y218.089 E13.79490
G1 X215.168 Y218.089 E13.85692
G1 X215.168 Y231.970 E15.43310
G1 X215.714 Y231.970 E15.49512
G1 X215.714 Y218.089 E17.07130
G1 X216.260 Y218.089 E17.13332
G1 X216.260 Y231.970 E18.70950
G1 X216.807 Y231.970 E18.77152
G1 X216.807 Y218.089 E20.34770
G1 X217.353 Y218.089 E20.40972
G1 X217.353 Y231.970 E21.98590
G1 X217.899 Y231.970 E22.04793
G1 X217.899 Y218.089 E23.62411
G1 X218.445 Y218.089 E23.68613
G1 X218.445 Y231.970 E25.26231
G1 X218.991 Y231.970 E25.32433
G1 X218.991 Y218.089 E26.90051
G1 X219.538 Y218.089 E26.96253
G1 X219.538 Y231.970 E28.53871
G1 X220.084 Y231.970 E28.60074
G1 X220.084 Y218.089 E30.17692
G1 X220.630 Y218.089 E30.23894
G1 X220.630 Y231.970 E31.81512
G1 X221.176 Y231.970 E31.87714
G1 X221.176 Y218.089 E33.45333
G1 X221.723 Y218.089 E33.51535
G1 X221.723 Y231.970 E35.09153
G1 X222.269 Y231.970 E35.15355
G1 X222.269 Y218.089 E36.72974
G1 X222.815 Y218.089 E36.79176
G1 X222.815 Y231.970 E38.36794
G1 X223.361 Y231.970 E38.42996
G1 X223.361 Y218.089 E40.00615
G1 X223.908 Y218.089 E40.06817
G1 X223.908 Y231.970 E41.64435
G1 X224.454 Y231.970 E41.70638
G1 X224.454 Y218.089 E43.28256
G1 X225.000 Y218.089 E43.34458
G1 X225.000 Y231.970 E44.92077
G1 X225.546 Y231.970 E44.98279
G1 X225.546 Y218.089 E46.55897
G1 X226.092 Y218.089 E46.62100
G1 X226.092 Y231.970 E48.19718
G1 X226.639 Y231.970 E48.25920
G1 X226.639 Y218.089 E49.83539
G1 X227.185 Y218.089 E49.89741
G1 X227.185 Y231.970 E51.47360
G1 X227.731 Y231.970 E51.53562
G1 X227.731 Y218.089 E53.11181
G1 X228.277 Y218.089 E53.17383
G1 X228.277 Y231.970 E54.75001
G1 X228.824 Y231.970 E54.81204
G1 X228.824 Y218.089 E56.38822
G1 X229.370 Y218.089 E56.45025
G1 X229.370 Y231.970 E58.02643
G1 X229.916 Y231.970 E58.08846
G1 X229.916 Y218.089 E59.66464
G1 X230.462 Y218.089 E59.72667
G1 X230.462 Y231.970 E61.30286
G1 X231.008 Y231.970 E61.36488
G1 X231.008 Y218.089 E62.94107
G1 X231.555 Y218.089 E63.00309
G1 X231.555 Y231.970 E64.57928
G1 X232.101 Y231.970 E64.64130
G1 X232.101 Y218.089 E66.21749
G1 X232.647 Y218.089 E66.27951
G1 X232.647 Y231.970 E67.85570
G1 X233.193 Y231.970 E67.91772
G1 X233.193 Y218.089 E69.49391
G1 X233.740 Y218.089 E69.55594
G1 X233.740 Y231.970 E71.13213
G1 X234.286 Y231.970 E71.19415
G1 X234.286 Y218.089 E72.77034
G1 X234.832 Y218.089 E72.83236
G1 X234.832 Y231.970 E74.40855
G1 X235.378 Y231.970 E74.47058
G1 X235.378 Y218.060 E76.04999
G1 X235.789 Y218.026 E76.09675
G1 X235.925 Y217.992 E76.11265
G1 X235.925 Y231.970 E77.69983
G1 X236.471 Y231.970 E77.76185
G1 X236.471 Y217.854 E79.36473
G1 X236.605 Y217.820 E79.38041
G1 X237.017 Y217.639 E79.43154
G1 X237.017 Y231.970 E81.05881
G1 X237.563 Y231.970 E81.12083
G1 X237.563 Y217.364 E82.77937
G1 X237.771 Y217.239 E82.80689
G1 X238.109 Y216.976 E82.85553
G1 X238.109 Y232.214 E84.58575
G1 E84.18575 F2400.00000
G1 F4800
G1 X238.109 Y225.014 E80.76575
G1 E80.58575 F2400.00000
G92 E0
G1 Z1.500 F6000.000
G1 X238.770 Y215.295
G1 Z0.500
G1 E4.00000 F2400.00000
G1 F900
G1 X238.891 Y214.747 E4.04079
G1 X238.915 Y214.617 E4.05012
G1 X238.940 Y214.487 E4.05811
G1 X238.964 Y214.357 E4.06475
G1 X238.966 Y214.346 E4.06524
G1 X238.986 Y214.183 E4.07167
G1 X239.007 Y214.021 E4.07685
G1 X239.027 Y213.859 E4.08076
M106 S255
G1 Z1.000 F6000.000
G1 X238.247 Y216.698
G1 F900
G1 X238.247 Y232.229 E5.83291
G1 X211.753 Y232.229 E8.82178
G1 X211.753 Y217.953 E10.43229
G1 X235.031 Y217.953 E13.05834
G1 X235.766 Y217.892 E13.14160
G1 X236.560 Y217.691 E13.23402
G1 X237.273 Y217.378 E13.32185
G1 X237.695 Y217.127 E13.37718
G1 X238.152 Y216.771 E13.44258
G1 X238.569 Y215.514 F6000.000
G1 F900
G1 X238.790 Y215.589 E13.46886
G1 X238.790 Y232.772 E15.40725
G1 X211.210 Y232.772 E18.51857
G1 X211.210 Y217.410 E20.25153
G1 X235.008 Y217.410 E22.93627
G1 X235.677 Y217.355 E23.01193
G1 X236.384 Y217.176 E23.09419
G1 X237.025 Y216.895 E23.17315
G1 X237.388 Y216.678 E23.22088
G1 X237.924 Y216.261 E23.29748
G1 X238.250 Y215.927 E23.35016
G1 X238.496 Y215.609 E23.39551
G1 X238.818 Y206.868 F6000.000
G1 F900
G1 X239.332 Y206.868 E23.45356
G1 X239.332 Y233.314 E26.43710
G1 X210.668 Y233.314 E29.67087
G1 X210.668 Y216.868 E31.52627
G1 X234.986 Y216.868 E34.26970
G1 X235.587 Y216.818 E34.33776
G1 X236.207 Y216.661 E34.40988
G1 X236.776 Y216.411 E34.47997
G1 X237.081 Y216.229 E34.52009
G1 X237.561 Y215.856 E34.58872
G1 X237.840 Y215.571 E34.63368
G1 X238.191 Y215.116 E34.69853
G1 X238.486 Y214.571 E34.76843
G1 X238.615 Y214.239 E34.80856
G1 X238.768 Y213.637 E34.87864
G1 X238.818 Y213.036 E34.94670
G1 X238.818 Y206.988 E35.62902
G1 X238.275 Y206.325 F6000.000
G1 F900
G1 X239.875 Y206.325 E35.80952
G1 X239.875 Y233.857 E38.91551
G1 X210.125 Y233.857 E42.27173
G1 X210.125 Y216.325 E44.24958
G1 X234.963 Y216.325 E47.05170
G1 X235.497 Y216.281 E47.11216
G1 X236.030 Y216.146 E47.17413
G1 X236.527 Y215.928 E47.23534
G1 X236.775 Y215.780 E47.26786
G1 X237.199 Y215.450 E47.32853
G1 X237.430 Y215.214 E47.36577
G1 X237.735 Y214.819 E47.42211
G1 X237.993 Y214.342 E47.48325
G1 X238.098 Y214.073 E47.51578
G1 X238.231 Y213.547 E47.57699
G1 X238.275 Y213.013 E47.63744
G1 X238.275 Y206.445 E48.37845
G1 X238.967 Y206.726 F6000.000
G1 X239.027 Y213.859
G1 F900
G1 X239.007 Y214.021 E48.38236
G1 X238.986 Y214.183 E48.38754
G1 X238.966 Y214.346 E48.39397
G1 X238.964 Y214.357 E48.39445
G1 X238.940 Y214.487 E48.40110
G1 X238.915 Y214.617 E48.40909
G1 X238.891 Y214.747 E48.41842
G1 X238.770 Y215.296 E48.45924
G1 X237.286 Y217.245 F6000.000
G1 F900
G1 X238.111 Y217.245 E48.55360
G1 X238.111 Y217.794 E48.61644
G1 X235.631 Y217.794 E48.89995
G1 X211.645 Y218.344 F6000.000
G1 F900
G1 X238.111 Y218.344 E51.92491
G1 X238.111 Y218.894 E51.98775
G1 X211.889 Y218.894 E54.98480
G1 X211.889 Y219.444 E55.04764
G1 X238.111 Y219.444 E58.04469
G1 X238.111 Y219.994 E58.10753
G1 X211.889 Y219.994 E61.10458
G1 X211.889 Y220.544 E61.16742
G1 X238.111 Y220.544 E64.16447
G1 X238.111 Y221.093 E64.22731
G1 X211.889 Y221.093 E67.22436
G1 X211.889 Y221.643 E67.28720
G1 X238.111 Y221.643 E70.28425
G1 X238.111 Y222.193 E70.34709
G1 X211.889 Y222.193 E73.34414
G1 X211.889 Y222.743 E73.40698
G1 X238.111 Y222.743 E76.40402
G1 X238.111 Y223.293 E76.46686
G1 X211.889 Y223.293 E79.46391
G1 X211.889 Y223.842 E79.52675
G1 X238.111 Y223.842 E82.52380
G1 X238.111 Y224.392 E82.58664
G1 X211.889 Y224.392 E85.58369
G1 X211.889 Y224.942 E85.64653
G1 X238.111 Y224.942 E88.64358
G1 X238.111 Y225.492 E88.70642
G1 X211.889 Y225.492 E91.70347
G1 X211.889 Y226.042 E91.76631
G1 X238.111 Y226.042 E94.76336
G1 X238.111 Y226.591 E94.82620
G1 X211.889 Y226.591 E97.82325
G1 X211.889 Y227.141 E97.88609
G1 X238.111 Y227.141 E100.88314
G1 X238.111 Y227.691 E100.94598
G1 X211.889 Y227.691 E103.94303
G1 X211.889 Y228.241 E104.00587
G1 X238.111 Y228.241 E107.00292
G1 X238.111 Y228.791 E107.06576
G1 X211.889 Y228.791 E110.06280
G1 X211.889 Y229.341 E110.12564
G1 X238.111 Y229.341 E113.12269
G1 X238.111 Y229.890 E113.18553
G1 X211.889 Y229.890 E116.18258
G1 X211.889 Y230.440 E116.24542
G1 X238.111 Y230.440 E119.24247
G1 X238.111 Y230.990 E119.30531
G1 X211.889 Y230.990 E122.30236
G1 X211.889 Y231.540 E122.36520
G1 X238.111 Y231.540 E125.36225
G1 X238.111 Y232.090 E125.42509
G1 X211.645 Y232.090 E128.45005
G1 Z1.500 F6000.000
G1 X211.753 Y232.090
G1 F900
G1 X211.753 Y217.953 E130.04485
G1 X235.031 Y217.953 E132.67090
G1 X235.766 Y217.892 E132.75417
G1 X236.538 Y217.697 E132.84399
G1 X237.061 Y217.482 E132.90781
G1 X237.648 Y217.159 E132.98330
G1 X238.247 Y216.715 E133.06744
G1 X238.247 Y232.367 E134.83316
G1 X211.753 Y232.367 E137.82204
G1 X211.753 Y232.210 E137.83981
G1 X211.210 Y232.910 F6000.000
G1 F900
G1 X211.210 Y217.410 E139.58837
G1 X235.008 Y217.410 E142.27311
G1 X235.677 Y217.355 E142.34877
G1 X236.368 Y217.180 E142.42917
G1 X236.827 Y216.991 E142.48518
G1 X237.354 Y216.701 E142.55307
G1 X237.749 Y216.408 E142.60855
G1 X238.189 Y215.998 E142.67644
G1 X238.790 Y215.263 E142.78354
G1 X238.790 Y232.909 E144.77433
G1 X211.330 Y232.910 E147.87212
G1 X210.668 Y233.453 F6000.000
G1 F900
G1 X210.668 Y216.868 E149.74313
G1 X234.986 Y216.868 E152.48656
G1 X235.587 Y216.818 E152.55461
G1 X236.197 Y216.663 E152.62558
G1 X236.592 Y216.501 E152.67379
G1 X237.060 Y216.244 E152.73408
G1 X237.401 Y215.991 E152.78195
G1 X237.792 Y215.626 E152.84224
G1 X238.060 Y215.297 E152.89012
G1 X238.355 Y214.840 E152.95156
G1 X238.611 Y214.257 E153.02335
G1 X238.768 Y213.637 E153.09547
G1 X238.818 Y213.036 E153.16353
G1 X238.818 Y206.868 E153.85938
G1 X239.332 Y206.868 E153.91744
G1 X239.332 Y233.452 E156.91652
G1 X210.788 Y233.453 E160.13675
G1 X210.125 Y216.325 F6000.000
G1 F900
G1 X234.963 Y216.325 E162.93888
G1 X235.497 Y216.281 E162.99933
G1 X236.026 Y216.147 E163.06087
G1 X236.357 Y216.011 E163.10127
G1 X236.767 Y215.786 E163.15396
G1 X237.053 Y215.573 E163.19423
G1 X237.395 Y215.254 E163.24692
G1 X237.621 Y214.978 E163.28719
G1 X237.876 Y214.582 E163.34031
G1 X238.096 Y214.080 E163.40216
G1 X238.231 Y213.547 E163.46413
G1 X238.275 Y213.013 E163.52458
G1 X238.275 Y206.325 E164.27913
G1 X239.875 Y206.325 E164.45964
G1 X239.875 Y233.995 E167.58117
G1 X210.125 Y233.995 E170.93738
G1 X210.125 Y216.445 E172.91730
G1 X210.912 Y216.467 F6000.000
G1 X211.890 Y217.845
G1 F900
G1 X211.890 Y232.231 E174.54035
G1 X212.437 Y232.231 E174.60198
G1 X212.437 Y218.089 E176.19747
G1 X212.983 Y218.089 E176.25910
G1 X212.983 Y232.231 E177.85459
G1 X213.529 Y232.231 E177.91622
G1 X213.529 Y218.089 E179.51171
G1 X214.075 Y218.089 E179.57333
G1 X214.075 Y232.231 E181.16883
G1 X214.622 Y232.231 E181.23045
G1 X214.622 Y218.089 E182.82594
G1 X215.168 Y218.089 E182.88756
G1 X215.168 Y232.231 E184.48306
G1 X215.714 Y232.231 E184.54468
G1 X215.714 Y218.089 E186.14017
G1 X216.260 Y218.089 E186.20179
G1 X216.260 Y232.231 E187.79728
G1 X216.807 Y232.231 E187.85890
G1 X216.807 Y218.089 E189.45439
G1 X217.353 Y218.089 E189.51601
G1 X217.353 Y232.231 E191.11150
G1 X217.899 Y232.231 E191.17312
G1 X217.899 Y218.089 E192.76861
G1 X218.445 Y218.089 E192.83023
G1 X218.445 Y232.231 E194.42571
G1 X218.991 Y232.231 E194.48734
G1 X218.991 Y218.089 E196.08282
G1 X219.538 Y218.089 E196.14444
G1 X219.538 Y232.231 E197.73992
G1 X220.084 Y232.231 E197.80155
G1 X220.084 Y218.089 E199.39703
G1 X220.630 Y218.089 E199.45865
G1 X220.630 Y232.231 E201.05413
G1 X221.176 Y232.231 E201.11575
G1 X221.176 Y218.089 E202.71123
G1 X221.723 Y218.089 E202.77285
G1 X221.723 Y232.231 E204.36833
G1 X222.269 Y232.231 E204.42995
G1 X222.269 Y218.089 E206.02543
G1 X222.815 Y218.089 E206.08705
G1 X222.815 Y232.231 E207.68252
G1 X223.361 Y232.231 E207.74415
G1 X223.361 Y218.089 E209.33962
G1 X223.907 Y218.089 E209.40124
G1 X223.907 Y232.231 E210.99671
G1 X224.454 Y232.231 E211.05834
G1 X224.454 Y218.089 E212.65381
G1 X225.000 Y218.089 E212.71543
G1 X225.000 Y232.231 E214.31090
G1 X225.546 Y232.231 E214.37252
G1 X225.546 Y218.089 E215.96799
G1 X226.092 Y218.089 E216.02961
G1 X226.092 Y232.231 E217.62508
G1 X226.639 Y232.231 E217.68670
G1 X226.639 Y218.089 E219.28217
G1 X227.185 Y218.089 E219.34379
G1 X227.185 Y232.231 E220.93925
G1 X227.731 Y232.231 E221.00088
G1 X227.731 Y218.089 E222.59634
G1 X228.277 Y218.089 E222.65796
G1 X228.277 Y232.231 E224.25342
G1 X228.824 Y232.231 E224.31505
G1 X228.824 Y218.089 E225.91051
G1 X229.370 Y218.089 E225.97213
G1 X229.370 Y232.231 E227.56759
G1 X229.916 Y232.231 E227.62921
G1 X229.916 Y218.089 E229.22467
G1 X230.462 Y218.089 E229.28629
G1 X230.462 Y232.231 E230.88175
G1 X231.008 Y232.231 E230.94337
G1 X231.008 Y218.089 E232.53883
G1 X231.555 Y218.089 E232.60045
G1 X231.555 Y232.231 E234.19590
G1 X232.101 Y232.231 E234.25753
G1 X232.101 Y218.089 E235.85298
G1 X232.647 Y218.089 E235.91460
G1 X232.647 Y232.231 E237.51006
G1 X233.193 Y232.231 E237.57168
G1 X233.193 Y218.089 E239.16713
G1 X233.740 Y218.089 E239.22875
G1 X233.740 Y232.231 E240.82420
G1 X234.286 Y232.231 E240.88582
G1 X234.286 Y218.089 E242.48127
G1 X234.832 Y218.089 E242.54289
G1 X234.832 Y232.231 E244.13834
G1 X235.378 Y232.231 E244.19996
G1 X235.378 Y218.060 E245.79861
G1 X235.789 Y218.026 E245.84507
G1 X235.925 Y217.992 E245.86087
G1 X235.925 Y232.231 E247.46723
G1 X236.471 Y232.231 E247.52885
G1 X236.471 Y217.854 E249.15081
G1 X236.581 Y217.826 E249.16362
G1 X237.017 Y217.647 E249.21682
G1 X237.017 Y232.231 E250.86215
G1 X237.563 Y232.231 E250.92377
G1 X237.563 Y217.361 E252.60136
G1 X237.721 Y217.274 E252.62171
G1 X238.109 Y216.986 E252.67623
G1 X238.109 Y232.475 E254.42365
G1 X238.627 Y214.979 F6000.000
G1 F900
G1 X238.707 Y214.849 E254.42733
G1 X238.786 Y214.719 E254.43224
G1 X238.865 Y214.590 E254.43836
G1 X238.945 Y214.460 E254.44570
G1 X238.960 Y214.386 E254.44936
G1 X238.963 Y214.369 E254.45006
G1 X238.984 Y214.199 E254.45702
G1 X239.006 Y214.029 E254.46258
G1 X239.027 Y213.859 E254.46675
G1 Z2.000 F6000.000
G1 X238.247 Y216.711
