; generated by Slic3r Prusa Edition 1.42.0-beta2 on 2020-10-27 at 10:15:14

; 

; external perimeters extrusion width = 0.88mm
; perimeters extrusion width = 0.88mm
; infill extrusion width = 0.88mm
; solid infill extrusion width = 0.88mm
; top infill extrusion width = 0.88mm
; first layer extrusion width = 0.88mm

M107
G28 Y0 X0 Z0  ;
M140 S80 ; set bed temp
M190 S80 ; wait for bed temp
M104 S215 ; set extruder temp
M109 S215 ; wait for extruder temp
M420 S Z5 ; call on the auto level gods
M300 S1000 P500 ; chirp
G1 Y25 X5.0 F4000.0 ; go outside print area
G92 E0.0
G1 Z0.5 F300.0; 
G1 X60.0 E9.0 F1000.0 ; intro line
G1 X100.0 E12.5 F1000.0 ; intro line
G92 E0.0
M900 K30 ; Filament gcode
G21 ; set units to millimeters
G90 ; use absolute coordinates
M82 ; use absolute distances for extrusion
G92 E0
G1 Z0.500 F6000.000
G1 E-4.00000 F2400.00000
G92 E0
G1 Z1.500 F6000.000
G1 X212.941 Y201.257
G1 Z0.500
G1 E4.00000 F2400.00000
G1 F1500
G1 X213.459 Y201.257 E4.08279
G1 X213.459 Y209.737 E5.43608
G1 X237.059 Y209.737 E9.20232
G1 X237.059 Y240.256 E14.07273
G1 X213.459 Y240.256 E17.83897
G1 X213.459 Y248.743 E19.19350
G1 X212.941 Y248.743 E19.27629
G1 X212.941 Y201.377 E26.83538
G1 E26.43538 F2400.00000
G1 F4800
G1 X213.459 Y201.257 E26.18244
G1 X213.459 Y207.924 E23.01538
G1 E22.83538 F2400.00000
G92 E0
G1 Z1.500 F6000.000
G1 X214.227 Y208.969
G1 Z0.500
G1 E4.00000 F2400.00000
G1 F1500
G1 X237.827 Y208.969 E7.76623
G1 X237.827 Y241.023 E12.88168
G1 X214.227 Y241.023 E16.64791
G1 X214.227 Y249.511 E18.00244
G1 X212.173 Y249.511 E18.33026
G1 X212.173 Y200.489 E26.15353
G1 X214.227 Y200.489 E26.48135
G1 X214.227 Y208.849 E27.81549
G1 E27.41549 F2400.00000
G1 F4800
G1 X221.427 Y208.885 E23.99549
G1 E23.81549 F2400.00000
G92 E0
G1 Z1.500 F6000.000
G1 X214.995 Y208.201
G1 Z0.500
G1 E4.00000 F2400.00000
G1 F1500
G1 X237.764 Y208.201 E7.63358
G1 X237.990 Y208.226 E7.66989
G1 X238.168 Y208.294 E7.70038
G1 X238.326 Y208.403 E7.73087
G1 X238.452 Y208.546 E7.76137
G1 X238.540 Y208.712 E7.79127
G1 X238.571 Y208.815 E7.80857
G1 X238.595 Y209.032 E7.84343
G1 X238.587 Y241.092 E12.95966
G1 X238.502 Y241.365 E13.00526
G1 X238.326 Y241.590 E13.05086
G1 X238.081 Y241.737 E13.09646
G1 X237.896 Y241.783 E13.12695
G1 X237.764 Y241.791 E13.14805
G1 X214.995 Y241.791 E16.78163
G1 X214.995 Y250.279 E18.13616
G1 X211.405 Y250.279 E18.70901
G1 X211.405 Y199.721 E26.77731
G1 X214.995 Y199.721 E27.35016
G1 X214.995 Y208.081 E28.68430
G1 E28.28430 F2400.00000
G1 F4800
G1 X222.195 Y208.119 E24.86430
G1 E24.68430 F2400.00000
G92 E0
G1 Z1.500 F6000.000
G1 X215.762 Y207.433
G1 Z0.500
G1 E4.00000 F2400.00000
G1 F1500
G1 X237.787 Y207.433 E7.51477
G1 X238.174 Y207.480 E7.57696
G1 X238.526 Y207.613 E7.63704
G1 X238.836 Y207.827 E7.69712
G1 X239.085 Y208.109 E7.75721
G1 X239.260 Y208.441 E7.81707
G1 X239.350 Y208.808 E7.87737
G1 X239.363 Y209.009 E7.90958
G1 X239.350 Y241.184 E13.04430
G1 X239.317 Y241.369 E13.07419
G1 X239.183 Y241.722 E13.13447
G1 X239.085 Y241.883 E13.16457
G1 X238.836 Y242.165 E13.22465
G1 X238.687 Y242.281 E13.25475
G1 X238.354 Y242.456 E13.31483
G1 X237.988 Y242.547 E13.37491
G1 X237.787 Y242.559 E13.40712
G1 X215.762 Y242.559 E16.92189
G1 X215.762 Y251.047 E18.27642
G1 X210.637 Y251.047 E19.09430
G1 X210.637 Y198.953 E27.40762
G1 X215.762 Y198.953 E28.22550
G1 X215.762 Y207.313 E29.55964
G1 X215.907 Y208.220 F6000.000
G1 E29.15964 F2400.00000
G1 F4800
G1 X222.962 Y207.353 E25.73964
G1 E25.55964 F2400.00000
G92 E0
G1 Z1.500 F6000.000
G1 X213.144 Y201.103
G1 Z0.500
G1 E4.00000 F2400.00000
G1 F1500
G1 X213.144 Y248.897 E11.85288
G1 E11.45288 F2400.00000
G1 F4800
G1 X213.144 Y241.697 E8.03288
G1 E7.85288 F2400.00000
G92 E0
G1 Z1.500 F6000.000
G1 X213.934 Y240.409
G1 Z0.500
G1 E4.00000 F2400.00000
G1 F1500
G1 X213.934 Y209.928 E9.00819
G1 X214.725 Y209.928 E9.13806
G1 X214.725 Y240.064 E14.08949
G1 X215.515 Y240.064 E14.21936
G1 X215.515 Y209.928 E19.17079
G1 X216.305 Y209.928 E19.30066
G1 X216.305 Y240.064 E24.25209
G1 X217.096 Y240.064 E24.38196
G1 X217.096 Y209.928 E29.33339
G1 X217.886 Y209.928 E29.46326
G1 X217.886 Y240.064 E34.41469
G1 X218.677 Y240.064 E34.54456
G1 X218.677 Y209.928 E39.49599
G1 X219.467 Y209.928 E39.62586
G1 X219.467 Y240.064 E44.57730
G1 X220.258 Y240.064 E44.70716
G1 X220.258 Y209.928 E49.65860
G1 X221.048 Y209.928 E49.78847
G1 X221.048 Y240.064 E54.73990
G1 X221.838 Y240.064 E54.86977
G1 X221.838 Y209.928 E59.82120
G1 X222.629 Y209.928 E59.95107
G1 X222.629 Y240.064 E64.90250
G1 X223.419 Y240.064 E65.03237
G1 X223.419 Y209.928 E69.98380
G1 X224.210 Y209.928 E70.11367
G1 X224.210 Y240.064 E75.06510
G1 X225.000 Y240.064 E75.19497
G1 X225.000 Y209.928 E80.14640
G1 X225.790 Y209.928 E80.27627
G1 X225.790 Y240.064 E85.22770
G1 X226.581 Y240.064 E85.35757
G1 X226.581 Y209.928 E90.30900
G1 X227.371 Y209.928 E90.43887
G1 X227.371 Y240.064 E95.39030
G1 X228.162 Y240.064 E95.52017
G1 X228.162 Y209.928 E100.47160
G1 X228.952 Y209.928 E100.60147
G1 X228.952 Y240.064 E105.55290
G1 X229.742 Y240.064 E105.68277
G1 X229.742 Y209.928 E110.63420
G1 X230.533 Y209.928 E110.76407
G1 X230.533 Y240.064 E115.71550
G1 X231.323 Y240.064 E115.84537
G1 X231.323 Y209.928 E120.79680
G1 X232.114 Y209.928 E120.92667
G1 X232.114 Y240.064 E125.87810
G1 X232.904 Y240.064 E126.00797
G1 X232.904 Y209.928 E130.95940
G1 X233.694 Y209.928 E131.08927
G1 X233.694 Y240.064 E136.04070
G1 X234.485 Y240.064 E136.17057
G1 X234.485 Y209.928 E141.12200
G1 X235.275 Y209.928 E141.25187
G1 X235.275 Y240.064 E146.20330
G1 X236.066 Y240.064 E146.33317
G1 X236.066 Y209.928 E151.28460
G1 X236.856 Y209.928 E151.41447
G1 X236.856 Y240.409 E156.42266
M106 S255
G1 Z1.000 F6000.000
G1 X236.856 Y240.256
G1 F1500
G1 X213.459 Y240.256 E160.15645
G1 X213.459 Y248.743 E161.51098
G1 X212.941 Y248.743 E161.59378
G1 X212.941 Y201.257 E169.17202
G1 X213.459 Y201.257 E169.25481
G1 X213.459 Y209.737 E170.60810
G1 X237.059 Y209.737 E174.37433
G1 X237.059 Y240.256 E179.24475
G1 X236.976 Y240.256 E179.25804
G1 X214.227 Y208.969 F6000.000
G1 F1500
G1 X237.827 Y208.969 E183.02428
G1 X237.827 Y241.023 E188.13972
G1 X214.227 Y241.023 E191.90595
G1 X214.227 Y249.511 E193.26049
G1 X212.173 Y249.511 E193.58831
G1 X212.173 Y200.489 E201.41158
G1 X214.227 Y200.489 E201.73940
G1 X214.227 Y208.849 E203.07354
G1 X214.995 Y208.201 F6000.000
G1 F1500
G1 X237.764 Y208.201 E206.70712
G1 X237.990 Y208.226 E206.74342
G1 X238.168 Y208.294 E206.77392
G1 X238.326 Y208.403 E206.80441
G1 X238.452 Y208.546 E206.83490
G1 X238.537 Y208.706 E206.86380
G1 X238.575 Y208.834 E206.88516
G1 X238.595 Y209.032 E206.91695
G1 X238.587 Y241.092 E212.03318
G1 X238.502 Y241.365 E212.07878
G1 X238.326 Y241.590 E212.12438
G1 X238.081 Y241.737 E212.16998
G1 X237.896 Y241.783 E212.20047
G1 X237.764 Y241.791 E212.22157
G1 X214.995 Y241.791 E215.85515
G1 X214.995 Y250.279 E217.20968
G1 X211.405 Y250.279 E217.78253
G1 X211.405 Y199.721 E225.85083
G1 X214.995 Y199.721 E226.42368
G1 X214.995 Y208.081 E227.75782
G1 X215.762 Y207.433 F6000.000
G1 F1500
G1 X237.787 Y207.433 E231.27259
G1 X238.174 Y207.480 E231.33478
G1 X238.526 Y207.613 E231.39486
G1 X238.836 Y207.827 E231.45494
G1 X239.085 Y208.109 E231.51503
G1 X239.259 Y208.439 E231.57453
G1 X239.350 Y208.808 E231.63518
G1 X239.363 Y209.009 E231.66739
G1 X239.350 Y241.184 E236.80211
G1 X239.317 Y241.366 E236.83163
G1 X239.183 Y241.722 E236.89228
G1 X239.085 Y241.883 E236.92238
G1 X238.836 Y242.165 E236.98246
G1 X238.687 Y242.281 E237.01256
G1 X238.354 Y242.456 E237.07264
G1 X237.988 Y242.547 E237.13272
G1 X237.787 Y242.559 E237.16493
G1 X215.762 Y242.559 E240.67970
G1 X215.762 Y251.047 E242.03423
G1 X210.637 Y251.047 E242.85211
G1 X210.637 Y198.953 E251.16543
G1 X215.762 Y198.953 E251.98331
G1 X215.762 Y207.313 E253.31745
G1 X215.907 Y208.220 F6000.000
G1 X213.613 Y201.451
G1 F1500
G1 X213.133 Y201.451 E253.39457
G1 X213.133 Y202.223 E253.51849
G1 X213.267 Y202.223 E253.54016
G1 X213.267 Y202.995 E253.66408
G1 X213.133 Y202.995 E253.68575
G1 X213.133 Y203.767 E253.80968
G1 X213.267 Y203.767 E253.83134
G1 X213.267 Y204.539 E253.95527
G1 X213.133 Y204.539 E253.97694
G1 X213.133 Y205.311 E254.10086
G1 X213.267 Y205.311 E254.12253
G1 X213.267 Y206.083 E254.24645
G1 X213.133 Y206.083 E254.26812
G1 X213.133 Y206.855 E254.39205
G1 X213.267 Y206.855 E254.41371
G1 X213.267 Y207.628 E254.53764
G1 X213.133 Y207.628 E254.55931
G1 X213.133 Y208.400 E254.68323
G1 X213.267 Y208.400 E254.70490
G1 X213.267 Y209.172 E254.82882
G1 X213.133 Y209.172 E254.85049
G1 X213.133 Y209.944 E254.97442
G1 X236.867 Y209.944 E258.78395
G1 X236.867 Y210.716 E258.90787
G1 X213.133 Y210.716 E262.71740
G1 X213.133 Y211.488 E262.84133
G1 X236.867 Y211.488 E266.65085
G1 X236.867 Y212.260 E266.77478
G1 X213.133 Y212.260 E270.58431
G1 X213.133 Y213.032 E270.70823
G1 X236.867 Y213.032 E274.51776
G1 X236.867 Y213.804 E274.64169
G1 X213.133 Y213.804 E278.45122
G1 X213.133 Y214.577 E278.57514
G1 X236.867 Y214.577 E282.38467
G1 X236.867 Y215.349 E282.50860
G1 X213.133 Y215.349 E286.31813
G1 X213.133 Y216.121 E286.44205
G1 X236.867 Y216.121 E290.25158
G1 X236.867 Y216.893 E290.37551
G1 X213.133 Y216.893 E294.18504
G1 X213.133 Y217.665 E294.30896
G1 X236.867 Y217.665 E298.11849
G1 X236.867 Y218.437 E298.24242
G1 X213.133 Y218.437 E302.05194
G1 X213.133 Y219.209 E302.17587
G1 X236.867 Y219.209 E305.98540
G1 X236.867 Y219.981 E306.10932
G1 X213.133 Y219.981 E309.91885
G1 X213.133 Y220.753 E310.04278
G1 X236.867 Y220.753 E313.85231
G1 X236.867 Y221.525 E313.97623
G1 X213.133 Y221.525 E317.78576
G1 X213.133 Y222.298 E317.90969
G1 X236.867 Y222.298 E321.71922
G1 X236.867 Y223.070 E321.84314
G1 X213.133 Y223.070 E325.65267
G1 X213.133 Y223.842 E325.77660
G1 X236.867 Y223.842 E329.58613
G1 X236.867 Y224.614 E329.71005
G1 X213.133 Y224.614 E333.51958
G1 X213.133 Y225.386 E333.64351
G1 X236.867 Y225.386 E337.45304
G1 X236.867 Y226.158 E337.57696
G1 X213.133 Y226.158 E341.38649
G1 X213.133 Y226.930 E341.51041
G1 X236.867 Y226.930 E345.31994
G1 X236.867 Y227.702 E345.44387
G1 X213.133 Y227.702 E349.25340
G1 X213.133 Y228.474 E349.37732
G1 X236.867 Y228.474 E353.18685
G1 X236.867 Y229.247 E353.31078
G1 X213.133 Y229.247 E357.12031
G1 X213.133 Y230.019 E357.24423
G1 X236.867 Y230.019 E361.05376
G1 X236.867 Y230.791 E361.17769
G1 X213.133 Y230.791 E364.98722
G1 X213.133 Y231.563 E365.11114
G1 X236.867 Y231.563 E368.92067
G1 X236.867 Y232.335 E369.04460
G1 X213.133 Y232.335 E372.85413
G1 X213.133 Y233.107 E372.97805
G1 X236.867 Y233.107 E376.78758
G1 X236.867 Y233.879 E376.91151
G1 X213.133 Y233.879 E380.72103
G1 X213.133 Y234.651 E380.84496
G1 X236.867 Y234.651 E384.65449
G1 X236.867 Y235.423 E384.77841
G1 X213.133 Y235.423 E388.58794
G1 X213.133 Y236.196 E388.71187
G1 X236.867 Y236.196 E392.52140
G1 X236.867 Y236.968 E392.64532
G1 X213.133 Y236.968 E396.45485
G1 X213.133 Y237.740 E396.57878
G1 X236.867 Y237.740 E400.38831
G1 X236.867 Y238.512 E400.51223
G1 X213.133 Y238.512 E404.32176
G1 X213.133 Y239.284 E404.44569
G1 X236.867 Y239.284 E408.25522
G1 X236.867 Y240.056 E408.37914
G1 X212.787 Y240.056 E412.24412
G1 X213.613 Y240.828 F6000.000
G1 F1500
G1 X213.133 Y240.828 E412.32123
G1 X213.133 Y241.600 E412.44516
G1 X213.267 Y241.600 E412.46683
G1 X213.267 Y242.372 E412.59075
G1 X213.133 Y242.372 E412.61242
G1 X213.133 Y243.145 E412.73634
G1 X213.267 Y243.145 E412.75801
G1 X213.267 Y243.917 E412.88194
G1 X213.133 Y243.917 E412.90360
G1 X213.133 Y244.689 E413.02753
G1 X213.267 Y244.689 E413.04920
G1 X213.267 Y245.461 E413.17312
G1 X213.133 Y245.461 E413.19479
G1 X213.133 Y246.233 E413.31871
G1 X213.267 Y246.233 E413.34038
G1 X213.267 Y247.005 E413.46431
G1 X213.133 Y247.005 E413.48597
G1 X213.133 Y247.777 E413.60990
G1 X213.267 Y247.777 E413.63157
G1 X213.267 Y248.549 E413.75549
G1 X212.787 Y248.549 E413.83261
G1 Z1.500 F6000.000
G1 X212.941 Y248.549
G1 F1500
G1 X212.941 Y201.257 E421.37986
G1 X213.459 Y201.257 E421.46265
G1 X213.459 Y209.737 E422.81595
G1 X237.059 Y209.737 E426.58218
G1 X237.059 Y240.256 E431.45259
G1 X213.459 Y240.256 E435.21883
G1 X213.459 Y248.743 E436.57336
G1 X212.941 Y248.743 E436.65615
G1 X212.941 Y248.669 E436.66799
G1 X214.227 Y208.969 F6000.000
G1 F1500
G1 X237.827 Y208.969 E440.43422
G1 X237.827 Y241.023 E445.54967
G1 X214.227 Y241.023 E449.31590
G1 X214.227 Y249.511 E450.67043
G1 X212.173 Y249.511 E450.99825
G1 X212.173 Y200.489 E458.82152
G1 X214.227 Y200.489 E459.14934
G1 X214.227 Y208.849 E460.48348
G1 X214.995 Y208.201 F6000.000
G1 F1500
G1 X237.764 Y208.201 E464.11706
G1 X237.990 Y208.226 E464.15337
G1 X238.168 Y208.294 E464.18386
G1 X238.326 Y208.403 E464.21435
G1 X238.452 Y208.546 E464.24485
G1 X238.570 Y208.806 E464.29044
G1 X238.595 Y209.032 E464.32675
G1 X238.587 Y241.092 E469.44298
G1 X238.535 Y241.282 E469.47444
G1 X238.433 Y241.471 E469.50867
G1 X238.326 Y241.590 E469.53423
G1 X238.081 Y241.737 E469.57983
G1 X237.896 Y241.783 E469.61032
G1 X237.764 Y241.791 E469.63142
G1 X214.995 Y241.791 E473.26500
G1 X214.995 Y250.279 E474.61953
G1 X211.405 Y250.279 E475.19238
G1 X211.405 Y199.721 E483.26068
G1 X214.995 Y199.721 E483.83353
G1 X214.995 Y208.081 E485.16767
G1 X215.762 Y207.433 F6000.000
G1 F1500
G1 X237.787 Y207.433 E488.68244
G1 X238.174 Y207.480 E488.74463
G1 X238.526 Y207.613 E488.80471
G1 X238.836 Y207.827 E488.86479
G1 X239.085 Y208.109 E488.92488
G1 X239.260 Y208.442 E488.98496
G1 X239.316 Y208.622 E489.01505
G1 X239.363 Y209.009 E489.07725
G1 X239.350 Y241.184 E494.21197
G1 X239.317 Y241.365 E494.24118
G1 X239.241 Y241.589 E494.27899
G1 X239.078 Y241.892 E494.33394
G1 X238.836 Y242.165 E494.39223
G1 X238.687 Y242.281 E494.42232
G1 X238.354 Y242.456 E494.48241
G1 X237.988 Y242.547 E494.54249
G1 X237.787 Y242.559 E494.57470
G1 X215.762 Y242.559 E498.08947
G1 X215.762 Y251.047 E499.44400
G1 X210.637 Y251.047 E500.26188
G1 X210.637 Y198.953 E508.57520
G1 X215.762 Y198.953 E509.39308
G1 X215.762 Y207.313 E510.72722
G1 X215.907 Y208.220 F6000.000
G1 X215.788 Y240.064
G1 F1500
G1 X216.186 Y239.701 E510.81312
G1 X216.761 Y239.289 E510.92601
G1 X217.479 Y238.877 E511.05806
G1 X218.293 Y238.465 E511.20372
G1 X218.996 Y238.054 E511.33379
G1 X219.220 Y237.848 E511.38230
G1 X219.354 Y237.642 E511.42150
G1 X219.422 Y237.436 E511.45610
G1 X219.447 Y237.230 E511.48920
G1 X219.422 Y236.818 E511.55504
G1 X219.343 Y236.406 E511.62196
G1 X219.231 Y235.994 E511.69009
G1 X219.092 Y235.583 E511.75947
G1 X218.925 Y235.171 E511.83034
G1 X218.728 Y234.759 E511.90324
G1 X218.491 Y234.347 E511.97906
G1 X218.203 Y233.935 E512.05928
G1 X218.034 Y233.729 E512.10178
G1 X217.845 Y233.523 E512.14637
G1 X217.393 Y233.111 E512.24392
G1 X216.818 Y232.700 E512.35682
G1 X216.101 Y232.288 E512.48887
G1 X214.901 Y231.670 E512.70424
G1 X214.583 Y231.464 E512.76470
G1 X214.359 Y231.258 E512.81321
G1 X214.225 Y231.052 E512.85240
G1 X214.157 Y230.846 E512.88700
G1 X214.133 Y230.640 E512.92010
G1 X214.157 Y230.228 E512.98595
G1 X214.236 Y229.817 E513.05287
G1 X214.348 Y229.405 E513.12099
G1 X214.487 Y228.993 E513.19037
G1 X214.654 Y228.581 E513.26125
G1 X214.851 Y228.169 E513.33415
G1 X215.088 Y227.757 E513.40996
G1 X215.376 Y227.346 E513.49019
G1 X215.545 Y227.140 E513.53268
G1 X215.734 Y226.934 E513.57728
G1 X216.186 Y226.522 E513.67483
G1 X216.761 Y226.110 E513.78772
G1 X217.479 Y225.698 E513.91977
G1 X218.293 Y225.286 E514.06543
G1 X218.996 Y224.874 E514.19550
G1 X219.220 Y224.669 E514.24401
G1 X219.354 Y224.463 E514.28321
G1 X219.422 Y224.257 E514.31781
G1 X219.447 Y224.051 E514.35091
G1 X219.444 Y223.845 E514.38377
G1 X219.343 Y223.227 E514.48366
G1 X219.231 Y222.815 E514.55178
G1 X219.092 Y222.403 E514.62116
G1 X218.925 Y221.991 E514.69204
G1 X218.728 Y221.580 E514.76493
G1 X218.491 Y221.168 E514.84075
G1 X218.203 Y220.756 E514.92098
G1 X217.845 Y220.344 E515.00803
G1 X217.393 Y219.932 E515.10558
G1 X217.123 Y219.726 E515.15982
G1 X216.818 Y219.520 E515.21852
G1 X216.101 Y219.109 E515.35057
G1 X214.901 Y218.491 E515.56594
G1 X214.583 Y218.285 E515.62640
G1 X214.459 Y218.182 E515.65213
G1 X214.359 Y218.079 E515.67498
G1 X214.225 Y217.873 E515.71418
G1 X214.157 Y217.667 E515.74878
G1 X214.133 Y217.461 E515.78188
