; generated by Slic3r Prusa Edition 1.42.0-beta2 on 2020-10-23 at 18:12:25

; 

; external perimeters extrusion width = 0.88mm
; perimeters extrusion width = 0.88mm
; infill extrusion width = 0.88mm
; solid infill extrusion width = 0.88mm
; top infill extrusion width = 0.88mm
; first layer extrusion width = 0.88mm

M107
G28 Y0 X0 Z0  ;
M140 S60 ; set bed temp
M190 S60 ; wait for bed temp
M104 S215 ; set extruder temp
M109 S215 ; wait for extruder temp
M420 S Z5 ; call on the auto level gods
M300 S1000 P500 ; chirp
G1 Y25 X5.0 F4000.0 ; go outside print area
G92 E0.0
G1 Z0.5 F300.0; 
G1 X60.0 E9.0 F1000.0 ; intro line
G1 X100.0 E12.5 F1000.0 ; intro line
G92 E0.0
M900 K30 ; Filament gcode
G21 ; set units to millimeters
G90 ; use absolute coordinates
M82 ; use absolute distances for extrusion
G92 E0
G1 Z0.500 F6000.000
G1 E-4.00000 F2400.00000
G92 E0
G1 Z1.500 F6000.000
G1 X213.567 Y230.235
G1 Z0.500
G1 E4.00000 F2400.00000
G1 F1500
G1 X218.289 Y230.227 E4.75365
G1 X218.882 Y230.136 E4.84944
G1 X219.398 Y230.002 E4.93442
G1 X219.959 Y229.794 E5.02998
G1 X220.746 Y229.359 E5.17343
G1 X221.584 Y228.716 E5.34200
G1 X221.584 Y248.747 E8.53873
G1 X216.065 Y248.747 E9.41945
G1 X216.065 Y234.937 E11.62342
G1 X216.043 Y234.470 E11.69797
G1 X215.969 Y233.938 E11.78366
G1 X215.827 Y233.345 E11.88109
G1 X215.496 Y232.494 E12.02676
G1 X215.208 Y231.976 E12.12128
G1 X214.908 Y231.539 E12.20594
G1 X214.569 Y231.131 E12.29060
G1 X214.194 Y230.755 E12.37526
G1 X213.659 Y230.311 E12.48619
G1 E12.08619 F2400.00000
G1 F4800
G1 X218.289 Y230.227 E9.88647
G1 X218.882 Y230.136 E9.60136
G1 X219.398 Y230.002 E9.34843
G1 X219.959 Y229.794 E9.06399
G1 X220.692 Y229.389 E8.66619
G1 E8.48619 F2400.00000
G92 E0
G1 Z1.500 F6000.000
G1 X210.257 Y230.022
G1 Z0.500
G1 E4.00000 F2400.00000
G1 F1500
G1 X210.801 Y229.471 E4.12349
G1 X218.230 Y229.460 E5.30902
G1 X218.727 Y229.383 E5.38932
G1 X219.167 Y229.269 E5.46184
G1 X219.638 Y229.094 E5.54198
G1 X220.324 Y228.715 E5.66708
G1 X220.741 Y228.395 E5.75101
G1 X221.074 Y228.077 E5.82445
G1 X221.369 Y227.732 E5.89697
G1 X221.628 Y227.358 E5.96950
G1 X221.870 Y226.919 E6.04950
G1 X221.972 Y226.644 E6.09628
G1 X222.351 Y226.712 E6.15777
G1 X222.351 Y249.515 E9.79676
G1 X215.297 Y249.515 E10.92252
G1 X215.297 Y234.954 E13.24616
G1 X215.278 Y234.541 E13.31222
G1 X215.214 Y234.081 E13.38629
G1 X215.092 Y233.574 E13.46948
G1 X214.799 Y232.821 E13.59843
G1 X214.554 Y232.381 E13.67886
G1 X214.294 Y232.002 E13.75219
G1 X214.001 Y231.648 E13.82553
G1 X213.676 Y231.323 E13.89886
G1 X213.322 Y231.030 E13.97220
G1 X212.943 Y230.770 E14.04553
G1 X212.542 Y230.547 E14.11886
G1 X212.121 Y230.361 E14.19220
G1 X211.686 Y230.215 E14.26553
G1 X211.238 Y230.110 E14.33886
G1 X210.783 Y230.046 E14.41220
G1 X210.377 Y230.027 E14.47707
G1 E14.07707 F2400.00000
G1 F4800
G1 X210.801 Y229.471 E13.74494
G1 X217.302 Y229.461 E10.65707
G1 E10.47707 F2400.00000
G92 E0
G1 Z1.500 F6000.000
G1 X210.923 Y229.768
G1 X211.727 Y229.844
G1 X214.299 Y230.503
G1 X216.308 Y231.456
G1 X218.712 Y233.064
G1 X220.717 Y230.379
G1 X221.921 Y227.693
G1 X222.323 Y225.144
G1 X222.245 Y223.804
G1 X221.934 Y222.352
G1 X220.717 Y219.621
G1 X218.712 Y216.936
G1 X216.042 Y218.693
G1 X213.390 Y219.802
G1 X213.574 Y219.759
G1 Z0.500
G1 E4.00000 F2400.00000
G1 F1500
G1 X214.194 Y219.245 E4.12862
G1 X214.569 Y218.869 E4.21329
G1 X214.908 Y218.461 E4.29795
G1 X215.208 Y218.024 E4.38261
G1 X215.466 Y217.560 E4.46727
G1 X215.680 Y217.075 E4.55193
G1 X215.849 Y216.572 E4.63660
G1 X215.970 Y216.055 E4.72126
G1 X216.043 Y215.530 E4.80592
G1 X216.065 Y215.063 E4.88047
G1 X216.065 Y201.253 E7.08443
G1 X221.584 Y201.253 E7.96516
G1 X221.584 Y221.348 E11.17199
G1 X221.173 Y220.960 E11.26214
G1 X220.434 Y220.447 E11.40563
G1 X219.897 Y220.183 E11.50116
G1 X219.398 Y219.998 E11.58615
G1 X218.882 Y219.864 E11.67112
G1 X218.356 Y219.783 E11.75611
G1 X217.894 Y219.759 E11.82996
G1 X213.694 Y219.759 E12.50027
G1 E12.10027 F2400.00000
G1 F4800
G1 X214.194 Y219.245 E11.75934
G1 X214.569 Y218.869 E11.50733
G1 X214.908 Y218.461 E11.25535
G1 X215.208 Y218.024 E11.00336
G1 X215.466 Y217.560 E10.75136
G1 X215.680 Y217.075 E10.49937
G1 X215.849 Y216.572 E10.24738
G1 X215.970 Y216.055 E9.99539
G1 X216.043 Y215.530 E9.74339
G1 X216.065 Y215.063 E9.52151
G1 X216.065 Y213.292 E8.68027
G1 E8.50027 F2400.00000
G92 E0
G1 Z1.500 F6000.000
G1 X210.800 Y220.527
G1 Z0.500
G1 E4.00000 F2400.00000
G1 F1500
G1 X210.300 Y220.021 E4.11349
G1 X211.238 Y219.890 E4.26471
G1 X211.686 Y219.785 E4.33804
G1 X212.121 Y219.639 E4.41138
G1 X212.542 Y219.453 E4.48471
G1 X212.943 Y219.230 E4.55805
G1 X213.322 Y218.970 E4.63138
G1 X213.676 Y218.677 E4.70471
G1 X214.001 Y218.352 E4.77805
G1 X214.294 Y217.998 E4.85138
G1 X214.554 Y217.619 E4.92472
G1 X214.778 Y217.218 E4.99805
G1 X214.963 Y216.797 E5.07138
G1 X215.109 Y216.361 E5.14472
G1 X215.215 Y215.914 E5.21805
G1 X215.278 Y215.459 E5.29139
G1 X215.297 Y215.046 E5.35744
G1 X215.297 Y200.485 E7.68109
G1 X222.351 Y200.485 E8.80684
G1 X222.351 Y223.283 E12.44499
G1 X221.983 Y223.358 E12.50501
G1 X221.848 Y223.040 E12.56014
G1 X221.628 Y222.642 E12.63266
G1 X221.369 Y222.268 E12.70518
G1 X221.070 Y221.919 E12.77858
G1 X220.688 Y221.558 E12.86253
G1 X220.044 Y221.111 E12.98766
G1 X219.593 Y220.889 E13.06779
G1 X219.167 Y220.731 E13.14031
G1 X218.727 Y220.617 E13.21283
G1 X218.278 Y220.548 E13.28536
G1 X217.874 Y220.527 E13.34987
G1 X210.920 Y220.527 E14.45973
G1 X210.458 Y221.295 F6000.000
G1 F1500
G1 X210.028 Y220.838 E14.55990
G1 X209.700 Y220.553 E14.62921
G1 X209.351 Y220.294 E14.69853
G1 X208.984 Y220.062 E14.76784
G1 X208.600 Y219.859 E14.83715
G1 X208.202 Y219.686 E14.90646
G1 X207.792 Y219.543 E14.97577
G1 X207.372 Y219.432 E15.04508
G1 X206.945 Y219.353 E15.11439
G1 X206.513 Y219.307 E15.18370
G1 X206.079 Y219.294 E15.25301
G1 X205.645 Y219.314 E15.32232
G1 X205.214 Y219.367 E15.39163
G1 X204.788 Y219.453 E15.46094
G1 X204.370 Y219.570 E15.53025
G1 X203.962 Y219.719 E15.59956
G1 X203.567 Y219.899 E15.66888
G1 X203.186 Y220.108 E15.73819
G1 X202.827 Y220.343 E15.80673
G1 X202.398 Y220.668 E15.89254
G1 X202.240 Y220.746 E15.92058
G1 X202.062 Y220.788 E15.94975
G1 X196.086 Y220.788 E16.90352
G1 X195.819 Y220.708 E16.94801
G1 X195.598 Y220.544 E16.99195
G1 X195.488 Y220.396 E17.02132
G1 X195.415 Y220.227 E17.05070
G1 X195.383 Y219.954 E17.09464
G1 X195.446 Y219.686 E17.13857
G1 X195.598 Y219.456 E17.18251
G1 X195.819 Y219.292 E17.22645
G1 X196.082 Y219.213 E17.27039
G1 X203.274 Y219.205 E18.41804
G1 X203.879 Y218.960 E18.52228
G1 X204.610 Y218.736 E18.64421
G1 X205.362 Y218.601 E18.76614
G1 X206.124 Y218.556 E18.88807
G1 X206.887 Y218.601 E19.01000
G1 X207.639 Y218.736 E19.13193
G1 X208.370 Y218.960 E19.25386
G1 X208.980 Y219.207 E19.35902
G1 X210.690 Y219.192 E19.63193
G1 X211.097 Y219.135 E19.69751
G1 X211.475 Y219.046 E19.75951
G1 X211.844 Y218.922 E19.82152
G1 X212.199 Y218.765 E19.88352
G1 X212.539 Y218.576 E19.94553
G1 X212.859 Y218.357 E20.00753
G1 X213.158 Y218.109 E20.06954
G1 X213.433 Y217.834 E20.13155
G1 X213.681 Y217.535 E20.19355
G1 X213.901 Y217.214 E20.25556
G1 X214.090 Y216.875 E20.31756
G1 X214.247 Y216.520 E20.37957
G1 X214.370 Y216.151 E20.44157
G1 X214.459 Y215.773 E20.50358
G1 X214.513 Y215.388 E20.56558
G1 X214.529 Y215.028 E20.62314
G1 X214.529 Y199.717 E23.06647
G1 X223.119 Y199.717 E24.43725
G1 X223.119 Y250.283 E32.50675
G1 X214.529 Y250.283 E33.87753
G1 X214.529 Y234.972 E36.32087
G1 X214.513 Y234.612 E36.37842
G1 X214.459 Y234.224 E36.44088
G1 X214.358 Y233.804 E36.50983
G1 X214.103 Y233.149 E36.62206
G1 X213.901 Y232.786 E36.68840
G1 X213.681 Y232.465 E36.75040
G1 X213.433 Y232.166 E36.81241
G1 X213.158 Y231.891 E36.87441
G1 X212.859 Y231.643 E36.93642
G1 X212.539 Y231.424 E36.99842
G1 X212.199 Y231.235 E37.06043
G1 X211.844 Y231.078 E37.12244
G1 X211.475 Y230.954 E37.18444
G1 X211.097 Y230.865 E37.24645
G1 X210.712 Y230.811 E37.30845
G1 X210.352 Y230.795 E37.36601
G1 X208.975 Y230.795 E37.58580
G1 X208.370 Y231.040 E37.69004
G1 X208.008 Y231.163 E37.75103
G1 X207.266 Y231.342 E37.87277
G1 X206.506 Y231.433 E37.99489
G1 X205.742 Y231.433 E38.11682
G1 X205.362 Y231.399 E38.17781
G1 X204.610 Y231.264 E38.29974
G1 X203.879 Y231.040 E38.42167
G1 X203.274 Y230.795 E38.52591
G1 X196.086 Y230.788 E39.67300
G1 X195.903 Y230.745 E39.70293
G1 X195.732 Y230.657 E39.73371
G1 X195.541 Y230.476 E39.77567
G1 X195.446 Y230.314 E39.80561
G1 X195.394 Y230.138 E39.83498
G1 X195.383 Y229.954 E39.86436
G1 X195.415 Y229.773 E39.89373
G1 X195.488 Y229.604 E39.92310
G1 X195.598 Y229.456 E39.95248
G1 X195.739 Y229.338 E39.98185
G1 X195.903 Y229.255 E40.01123
G1 X196.082 Y229.213 E40.04060
G1 X201.936 Y229.205 E40.97481
G1 X202.161 Y229.231 E41.01092
G1 X202.324 Y229.290 E41.03868
G1 X202.827 Y229.657 E41.13787
G1 X203.188 Y229.892 E41.20667
G1 X203.579 Y230.107 E41.27792
G1 X203.962 Y230.281 E41.34503
G1 X204.370 Y230.430 E41.41434
G1 X204.790 Y230.548 E41.48390
G1 X205.228 Y230.635 E41.55516
G1 X205.645 Y230.686 E41.62227
G1 X206.079 Y230.706 E41.69158
G1 X206.513 Y230.693 E41.76089
G1 X206.945 Y230.647 E41.83020
G1 X207.372 Y230.568 E41.89951
G1 X207.792 Y230.457 E41.96882
G1 X208.202 Y230.314 E42.03813
G1 X208.600 Y230.141 E42.10744
G1 X208.984 Y229.938 E42.17675
G1 X209.351 Y229.706 E42.24606
G1 X209.700 Y229.447 E42.31538
G1 X210.028 Y229.162 E42.38469
G1 X210.459 Y228.704 E42.48505
G1 X218.171 Y228.692 E43.71572
G1 X218.572 Y228.631 E43.78054
G1 X218.937 Y228.536 E43.84060
G1 X219.317 Y228.395 E43.90532
G1 X219.902 Y228.071 E44.01207
G1 X220.241 Y227.811 E44.08027
G1 X220.516 Y227.549 E44.14089
G1 X220.760 Y227.262 E44.20096
G1 X220.975 Y226.953 E44.26102
G1 X221.170 Y226.598 E44.32566
G1 X221.403 Y225.970 E44.43255
G1 X221.490 Y225.551 E44.50083
G1 X221.530 Y225.146 E44.56583
G1 X221.496 Y224.479 E44.67239
G1 X221.415 Y224.082 E44.73699
G1 X221.304 Y223.723 E44.79706
G1 X221.156 Y223.377 E44.85712
G1 X220.975 Y223.047 E44.91719
G1 X220.760 Y222.738 E44.97725
G1 X220.514 Y222.449 E45.03786
G1 X220.203 Y222.156 E45.10606
G1 X219.653 Y221.774 E45.21283
G1 X219.289 Y221.595 E45.27754
G1 X218.937 Y221.464 E45.33760
G1 X218.572 Y221.369 E45.39767
G1 X218.200 Y221.312 E45.45774
G1 X217.855 Y221.295 E45.51291
G1 X210.578 Y221.295 E46.67415
G1 X210.089 Y222.062 F6000.000
G1 F1500
G1 X209.766 Y221.666 E46.75577
G1 X209.502 Y221.398 E46.81575
G1 X209.219 Y221.152 E46.87573
G1 X208.917 Y220.928 E46.93571
G1 X208.599 Y220.727 E46.99569
G1 X208.267 Y220.551 E47.05567
G1 X207.922 Y220.401 E47.11564
G1 X207.567 Y220.278 E47.17562
G1 X207.204 Y220.182 E47.23560
G1 X206.834 Y220.114 E47.29558
G1 X206.461 Y220.074 E47.35556
G1 X206.085 Y220.062 E47.41554
G1 X205.710 Y220.080 E47.47552
G1 X205.336 Y220.125 E47.53550
G1 X204.968 Y220.199 E47.59548
G1 X204.606 Y220.301 E47.65545
G1 X204.253 Y220.430 E47.71543
G1 X203.911 Y220.586 E47.77541
G1 X203.582 Y220.767 E47.83539
G1 X203.269 Y220.972 E47.89509
G1 X202.822 Y221.310 E47.98453
G1 X202.667 Y221.398 E48.01290
G1 X202.329 Y221.520 E48.07036
G1 X202.151 Y221.551 E48.09913
G1 X195.994 Y221.551 E49.08166
G1 X195.803 Y221.516 E49.11262
G1 X195.473 Y221.396 E49.16871
G1 X195.170 Y221.196 E49.22658
G1 X194.922 Y220.933 E49.28445
G1 X194.822 Y220.781 E49.31343
G1 X194.678 Y220.448 E49.37130
G1 X194.615 Y220.091 E49.42917
G1 X194.636 Y219.729 E49.48704
G1 X194.678 Y219.552 E49.51602
G1 X194.822 Y219.219 E49.57389
G1 X195.038 Y218.928 E49.63176
G1 X195.316 Y218.695 E49.68963
G1 X195.473 Y218.604 E49.71861
G1 X195.640 Y218.532 E49.74760
G1 X195.993 Y218.449 E49.80547
G1 X203.124 Y218.437 E50.94345
G1 X203.611 Y218.240 E51.02741
G1 X204.017 Y218.103 E51.09567
G1 X204.429 Y217.990 E51.16394
G1 X204.848 Y217.902 E51.23220
G1 X205.271 Y217.838 E51.30046
G1 X205.697 Y217.800 E51.36872
G1 X206.124 Y217.788 E51.43698
G1 X206.552 Y217.800 E51.50524
G1 X206.978 Y217.838 E51.57350
G1 X207.401 Y217.902 E51.64176
G1 X207.819 Y217.990 E51.71002
G1 X208.232 Y218.103 E51.77828
G1 X208.637 Y218.240 E51.84655
G1 X209.127 Y218.438 E51.93084
G1 X210.633 Y218.424 E52.17131
G1 X210.956 Y218.379 E52.22328
G1 X211.265 Y218.307 E52.27396
G1 X211.566 Y218.206 E52.32464
G1 X211.857 Y218.078 E52.37532
G1 X212.134 Y217.923 E52.42599
G1 X212.396 Y217.744 E52.47667
G1 X212.640 Y217.541 E52.52735
G1 X212.865 Y217.316 E52.57803
G1 X213.068 Y217.072 E52.62870
G1 X213.247 Y216.810 E52.67938
G1 X213.402 Y216.532 E52.73006
G1 X213.530 Y216.242 E52.78073
G1 X213.631 Y215.941 E52.83141
G1 X213.704 Y215.632 E52.88209
G1 X213.748 Y215.317 E52.93277
G1 X213.762 Y215.010 E52.98183
G1 X213.762 Y198.950 E55.54484
G1 X223.887 Y198.950 E57.16065
G1 X223.887 Y251.050 E65.47518
G1 X213.762 Y251.050 E67.09099
G1 X213.762 Y234.990 E69.65401
G1 X213.748 Y234.683 E69.70307
G1 X213.704 Y234.367 E69.75391
G1 X213.624 Y234.034 E69.80861
G1 X213.407 Y233.476 E69.90412
G1 X213.247 Y233.190 E69.95637
G1 X213.068 Y232.928 E70.00705
G1 X212.865 Y232.684 E70.05772
G1 X212.640 Y232.459 E70.10840
G1 X212.396 Y232.256 E70.15908
G1 X212.134 Y232.077 E70.20976
G1 X211.857 Y231.922 E70.26043
G1 X211.566 Y231.794 E70.31111
G1 X211.265 Y231.693 E70.36179
G1 X210.956 Y231.621 E70.41246
G1 X210.642 Y231.577 E70.46314
G1 X210.334 Y231.563 E70.51221
G1 X209.125 Y231.563 E70.70525
G1 X208.637 Y231.760 E70.78921
G1 X208.232 Y231.897 E70.85747
G1 X207.819 Y232.010 E70.92573
G1 X207.401 Y232.098 E70.99392
G1 X206.962 Y232.163 E71.06476
G1 X206.124 Y232.212 E71.19871
G1 X205.697 Y232.200 E71.26697
G1 X205.271 Y232.162 E71.33523
G1 X204.848 Y232.098 E71.40349
G1 X204.429 Y232.010 E71.47176
G1 X204.017 Y231.897 E71.54002
G1 X203.611 Y231.760 E71.60828
G1 X203.124 Y231.563 E71.69224
G1 X195.994 Y231.551 E72.83002
G1 X195.640 Y231.468 E72.88809
G1 X195.307 Y231.298 E72.94772
G1 X195.038 Y231.072 E73.00381
G1 X194.922 Y230.934 E73.03258
G1 X194.740 Y230.619 E73.09065
G1 X194.636 Y230.271 E73.14852
G1 X194.615 Y229.909 E73.20639
G1 X194.678 Y229.552 E73.26426
G1 X194.822 Y229.219 E73.32213
G1 X195.038 Y228.928 E73.38000
G1 X195.316 Y228.695 E73.43787
G1 X195.640 Y228.532 E73.49574
G1 X195.993 Y228.449 E73.55361
G1 X202.150 Y228.449 E74.53613
G1 X202.339 Y228.483 E74.56687
G1 X202.667 Y228.602 E74.62257
G1 X202.822 Y228.690 E74.65093
G1 X203.269 Y229.028 E74.74037
G1 X203.582 Y229.233 E74.80017
G1 X203.923 Y229.419 E74.86209
G1 X204.253 Y229.570 E74.92003
G1 X204.606 Y229.699 E74.98001
G1 X204.969 Y229.801 E75.04008
G1 X205.349 Y229.876 E75.10200
G1 X205.710 Y229.920 E75.15994
G1 X206.085 Y229.938 E75.21992
G1 X206.461 Y229.926 E75.27989
G1 X206.834 Y229.886 E75.33987
G1 X207.204 Y229.818 E75.39985
G1 X207.567 Y229.722 E75.45983
G1 X207.922 Y229.599 E75.51981
G1 X208.267 Y229.449 E75.57979
G1 X208.599 Y229.273 E75.63977
G1 X208.917 Y229.072 E75.69975
G1 X209.219 Y228.848 E75.75973
G1 X209.502 Y228.602 E75.81970
G1 X209.766 Y228.334 E75.87968
G1 X210.089 Y227.937 E75.96138
G1 X218.112 Y227.925 E77.24159
G1 X218.417 Y227.878 E77.29093
G1 X218.706 Y227.803 E77.33854
G1 X218.995 Y227.695 E77.38784
G1 X219.480 Y227.427 E77.47623
G1 X219.741 Y227.227 E77.52869
G1 X219.958 Y227.020 E77.57650
G1 X220.152 Y226.793 E77.62411
G1 X220.321 Y226.548 E77.67172
G1 X220.470 Y226.278 E77.72098
G1 X220.663 Y225.758 E77.80943
G1 X220.730 Y225.436 E77.86192
G1 X220.760 Y225.128 E77.91132
G1 X220.732 Y224.575 E77.99965
G1 X220.671 Y224.273 E78.04890
G1 X220.582 Y223.988 E78.09651
G1 X220.465 Y223.713 E78.14412
G1 X220.321 Y223.452 E78.19173
G1 X220.152 Y223.207 E78.23933
G1 X219.957 Y222.979 E78.28714
G1 X219.718 Y222.753 E78.33960
G1 X219.263 Y222.438 E78.42800
G1 X218.986 Y222.301 E78.47730
G1 X218.706 Y222.197 E78.52491
G1 X218.417 Y222.122 E78.57251
G1 X218.122 Y222.077 E78.62013
G1 X217.835 Y222.062 E78.66596
G1 X210.209 Y222.062 E79.88299
G1 X210.124 Y221.552 F6000.000
G1 E79.48299 F2400.00000
G1 F4800
G1 X209.766 Y221.666 E79.20058
G1 X209.502 Y221.398 E79.02206
G1 X209.219 Y221.152 E78.84354
G1 X208.917 Y220.928 E78.66501
G1 X208.599 Y220.727 E78.48649
G1 X208.267 Y220.551 E78.30796
G1 X207.922 Y220.401 E78.12944
G1 X207.567 Y220.278 E77.95092
G1 X207.204 Y220.182 E77.77239
G1 X206.834 Y220.114 E77.59387
