; generated by Slic3r Prusa Edition 1.42.0-beta2 on 2020-10-27 at 14:34:57

; 

; external perimeters extrusion width = 0.88mm
; perimeters extrusion width = 0.88mm
; infill extrusion width = 0.88mm
; solid infill extrusion width = 0.88mm
; top infill extrusion width = 0.88mm
; first layer extrusion width = 0.88mm

M107
G28 Y0 X0 Z0  ;
M140 S80 ; set bed temp
M190 S80 ; wait for bed temp
M104 S215 ; set extruder temp
M109 S215 ; wait for extruder temp
M420 S Z5 ; call on the auto level gods
M300 S1000 P500 ; chirp
G1 Y25 X5.0 F4000.0 ; go outside print area
G92 E0.0
G1 Z0.5 F300.0; 
G1 X60.0 E9.0 F1000.0 ; intro line
G1 X100.0 E12.5 F1000.0 ; intro line
G92 E0.0
M900 K30 ; Filament gcode
G21 ; set units to millimeters
G90 ; use absolute coordinates
M82 ; use absolute distances for extrusion
G92 E0
G1 Z0.500 F6000.000
G1 E-4.00000 F2400.00000
G92 E0
G1 Z1.500 F6000.000
G1 X225.213 Y236.254
G1 Z0.500
G1 E4.00000 F2400.00000
G1 F1500
G1 X225.069 Y236.609 E4.06122
G1 X224.745 Y237.092 E4.15407
G1 X224.460 Y237.373 E4.21796
G1 X224.178 Y237.579 E4.27365
G1 X223.837 Y237.759 E4.33514
G1 X223.220 Y237.936 E4.43764
G1 X222.595 Y237.938 E4.53730
G1 X222.203 Y237.859 E4.60119
G1 X221.835 Y237.725 E4.66364
G1 X221.289 Y237.384 E4.76641
G1 X220.831 Y236.875 E4.87573
G1 X220.556 Y236.314 E4.97539
G1 X220.455 Y235.927 E5.03927
G1 X220.414 Y235.538 E5.10173
G1 X220.481 Y234.897 E5.20450
G1 X220.722 Y234.300 E5.30727
G1 X220.962 Y233.945 E5.37553
G1 X221.394 Y233.528 E5.47149
G1 X221.757 Y233.301 E5.53975
G1 X222.322 Y233.095 E5.63570
G1 X222.746 Y233.036 E5.70396
G1 X223.345 Y233.078 E5.79992
G1 X223.756 Y233.196 E5.86818
G1 X224.324 Y233.497 E5.97068
G1 X224.774 Y233.930 E6.07034
G1 X225.001 Y234.259 E6.13423
G1 X225.173 Y234.611 E6.19669
G1 X225.329 Y235.236 E6.29945
G1 X225.306 Y235.880 E6.40222
G1 X225.242 Y236.137 E6.44457
G1 X224.481 Y236.016 F6000.000
G1 F1500
G1 X224.387 Y236.248 E6.48452
G1 X224.151 Y236.600 E6.55224
G1 X223.962 Y236.786 E6.59451
G1 X223.770 Y236.926 E6.63245
G1 X223.548 Y237.044 E6.67250
G1 X223.111 Y237.169 E6.74508
G1 X222.671 Y237.170 E6.81527
G1 X222.412 Y237.118 E6.85754
G1 X222.174 Y237.031 E6.89794
G1 X221.788 Y236.790 E6.97061
G1 X221.473 Y236.440 E7.04566
G1 X221.279 Y236.046 E7.11585
G1 X221.212 Y235.789 E7.15812
G1 X221.186 Y235.538 E7.19852
G1 X221.233 Y235.085 E7.27119
G1 X221.404 Y234.662 E7.34387
G1 X221.553 Y234.442 E7.38638
G1 X221.869 Y234.136 E7.45658
G1 X222.095 Y233.995 E7.49909
G1 X222.509 Y233.844 E7.56929
G1 X222.772 Y233.807 E7.61180
G1 X223.211 Y233.838 E7.68200
G1 X223.467 Y233.911 E7.72451
G1 X223.869 Y234.125 E7.79708
G1 X224.186 Y234.430 E7.86727
G1 X224.336 Y234.648 E7.90954
G1 X224.447 Y234.875 E7.94994
G1 X224.558 Y235.317 E8.02261
G1 X224.542 Y235.772 E8.09529
G1 X224.510 Y235.899 E8.11619
G1 X224.652 Y236.198 F6000.000
G1 E7.71619 F2400.00000
G1 F4800
G1 X224.387 Y236.248 E7.54066
G1 X224.151 Y236.600 E7.33911
G1 X223.962 Y236.786 E7.21329
G1 X223.770 Y236.926 E7.10036
G1 X223.548 Y237.044 E6.98115
G1 X223.111 Y237.169 E6.76513
G1 X222.671 Y237.170 E6.55621
G1 X222.412 Y237.118 E6.43040
G1 X222.174 Y237.031 E6.31015
G1 X221.788 Y236.790 E6.09384
G1 X221.473 Y236.440 E5.87045
G1 X221.279 Y236.046 E5.66154
G1 X221.212 Y235.789 E5.53573
G1 X221.186 Y235.538 E5.41548
G1 X221.233 Y235.085 E5.19917
G1 X221.404 Y234.662 E4.98285
G1 X221.553 Y234.442 E4.85633
G1 X221.869 Y234.136 E4.64737
G1 X222.095 Y233.995 E4.52086
G1 X222.509 Y233.844 E4.31190
G1 X222.541 Y233.840 E4.29619
G1 E4.11619 F2400.00000
G92 E0
G1 Z1.500 F6000.000
G1 X223.916 Y230.404
G1 Z0.500
G1 E4.00000 F2400.00000
G1 F1500
G1 X222.875 Y230.503 E4.16696
G1 X221.834 Y230.404 E4.33392
G1 X220.830 Y230.109 E4.50087
G1 X219.900 Y229.629 E4.66783
G1 X219.077 Y228.983 E4.83479
G1 X218.392 Y228.192 E5.00175
G1 X217.869 Y227.286 E5.16871
G1 X217.527 Y226.297 E5.33567
G1 X217.378 Y225.262 E5.50263
G1 X217.428 Y224.217 E5.66959
G1 X217.675 Y223.200 E5.83655
G1 X218.109 Y222.248 E6.00351
G1 X218.716 Y221.396 E6.17046
G1 X219.473 Y220.674 E6.33742
G1 X220.353 Y220.109 E6.50438
G1 X221.264 Y219.744 E6.66086
G1 X221.896 Y219.591 E6.76473
G1 X222.775 Y219.505 E6.90563
G1 X223.387 Y219.530 E7.00344
G1 X223.979 Y219.615 E7.09892
G1 X224.920 Y219.891 E7.25539
G1 X225.850 Y220.371 E7.42235
G1 X226.673 Y221.017 E7.58931
G1 X227.358 Y221.808 E7.75627
G1 X227.881 Y222.714 E7.92323
G1 X228.223 Y223.703 E8.09019
G1 X228.372 Y224.738 E8.25715
G1 X228.322 Y225.783 E8.42410
G1 X228.091 Y226.736 E8.58058
G1 X227.849 Y227.340 E8.68445
G1 X227.409 Y228.106 E8.82536
G1 X227.034 Y228.590 E8.92315
G1 X226.621 Y229.023 E9.01863
G1 X225.850 Y229.629 E9.17511
G1 X224.920 Y230.109 E9.34207
G1 X224.032 Y230.370 E9.48988
G1 X223.815 Y229.633 F6000.000
G1 F1500
G1 X222.875 Y229.732 E9.64077
G1 X221.979 Y229.646 E9.78433
G1 X221.116 Y229.393 E9.92789
G1 X220.317 Y228.981 E10.07145
G1 X219.610 Y228.425 E10.21501
G1 X219.021 Y227.745 E10.35857
G1 X218.571 Y226.966 E10.50213
G1 X218.277 Y226.116 E10.64570
G1 X218.148 Y225.225 E10.78926
G1 X218.191 Y224.327 E10.93282
G1 X218.403 Y223.452 E11.07638
G1 X218.777 Y222.634 E11.21995
G1 X219.299 Y221.901 E11.36350
G1 X219.950 Y221.280 E11.50707
G1 X220.707 Y220.794 E11.65063
G1 X221.498 Y220.477 E11.78665
G1 X222.025 Y220.350 E11.87312
G1 X222.797 Y220.274 E11.99695
G1 X223.317 Y220.295 E12.08002
G1 X223.816 Y220.367 E12.16046
G1 X224.634 Y220.607 E12.29647
G1 X225.433 Y221.019 E12.44003
G1 X226.140 Y221.575 E12.58360
G1 X226.729 Y222.255 E12.72716
G1 X227.179 Y223.034 E12.87072
G1 X227.473 Y223.884 E13.01428
G1 X227.602 Y224.775 E13.15784
G1 X227.559 Y225.673 E13.30140
G1 X227.358 Y226.502 E13.43742
G1 X227.156 Y227.005 E13.52389
G1 X226.770 Y227.678 E13.64773
G1 X226.451 Y228.089 E13.73080
G1 X226.103 Y228.454 E13.81123
G1 X225.433 Y228.981 E13.94725
G1 X224.634 Y229.393 E14.09081
G1 X223.930 Y229.599 E14.20777
G1 X223.625 Y228.889 F6000.000
G1 F1500
G1 X222.875 Y228.961 E14.32793
G1 X222.125 Y228.889 E14.44810
G1 X221.403 Y228.677 E14.56826
G1 X220.734 Y228.332 E14.68842
G1 X220.142 Y227.866 E14.80859
G1 X219.649 Y227.297 E14.92875
G1 X219.272 Y226.645 E15.04891
G1 X219.026 Y225.934 E15.16908
G1 X218.919 Y225.188 E15.28924
G1 X218.955 Y224.436 E15.40941
G1 X219.132 Y223.705 E15.52957
G1 X219.445 Y223.020 E15.64974
G1 X219.882 Y222.406 E15.76990
G1 X220.427 Y221.887 E15.89006
G1 X221.060 Y221.480 E16.01023
G1 X221.732 Y221.210 E16.12578
G1 X222.153 Y221.108 E16.19486
G1 X222.819 Y221.043 E16.30162
G1 X223.247 Y221.061 E16.36997
G1 X223.652 Y221.119 E16.43535
G1 X224.347 Y221.323 E16.55091
G1 X225.016 Y221.668 E16.67107
G1 X225.608 Y222.134 E16.79124
G1 X226.101 Y222.703 E16.91140
G1 X226.478 Y223.355 E17.03156
G1 X226.724 Y224.066 E17.15173
G1 X226.831 Y224.812 E17.27189
G1 X226.795 Y225.564 E17.39206
G1 X226.625 Y226.267 E17.50761
G1 X226.464 Y226.669 E17.57669
G1 X226.130 Y227.249 E17.68345
G1 X225.868 Y227.588 E17.75179
G1 X225.585 Y227.884 E17.81718
G1 X225.016 Y228.332 E17.93273
G1 X224.347 Y228.677 E18.05290
G1 X223.740 Y228.855 E18.15391
G1 E17.75391 F2400.00000
G1 F4800
G1 X222.875 Y228.961 E17.34014
G1 X222.125 Y228.889 E16.98248
G1 X221.403 Y228.677 E16.62482
G1 X220.734 Y228.332 E16.26715
G1 X220.142 Y227.866 E15.90949
G1 X219.649 Y227.297 E15.55183
G1 X219.272 Y226.645 E15.19417
G1 X219.026 Y225.934 E14.83651
G1 X218.919 Y225.188 E14.47884
G1 X218.933 Y224.884 E14.33391
G1 E14.15391 F2400.00000
G92 E0
G1 Z1.500 F6000.000
G1 X225.285 Y227.087
G1 Z0.500
G1 E4.00000 F2400.00000
G1 F1500
G1 X225.068 Y227.315 E4.05034
G1 X224.599 Y227.683 E4.14543
G1 X224.060 Y227.961 E4.24220
G1 X223.479 Y228.132 E4.33897
G1 X222.875 Y228.189 E4.43573
G1 X222.271 Y228.132 E4.53250
G1 X221.690 Y227.961 E4.62927
G1 X221.151 Y227.683 E4.72603
G1 X220.674 Y227.308 E4.82280
G1 X220.277 Y226.850 E4.91957
G1 X219.974 Y226.325 E5.01633
G1 X219.775 Y225.752 E5.11310
G1 X219.689 Y225.152 E5.20987
G1 X219.718 Y224.546 E5.30663
G1 X219.861 Y223.957 E5.40340
G1 X220.113 Y223.405 E5.50017
G1 X220.465 Y222.911 E5.59693
G1 X220.903 Y222.493 E5.69370
G1 X221.413 Y222.165 E5.79047
G1 X221.967 Y221.944 E5.88556
G1 X222.281 Y221.867 E5.93724
G1 X222.841 Y221.813 E6.02693
G1 X223.176 Y221.826 E6.08055
G1 X223.489 Y221.871 E6.13089
G1 X224.060 Y222.039 E6.22598
G1 X224.599 Y222.317 E6.32275
G1 X225.076 Y222.692 E6.41951
G1 X225.473 Y223.150 E6.51628
G1 X225.776 Y223.675 E6.61305
G1 X225.975 Y224.248 E6.70981
G1 X226.061 Y224.848 E6.80658
G1 X226.032 Y225.454 E6.90335
G1 X225.892 Y226.033 E6.99844
G1 X225.771 Y226.334 E7.05012
G1 X225.491 Y226.821 E7.13981
G1 X225.359 Y226.992 E7.17428
G1 X225.393 Y227.383 F6000.000
G1 E6.77428 F2400.00000
G1 F4800
G1 X225.068 Y227.315 E6.56766
G1 X224.599 Y227.683 E6.28462
G1 X224.060 Y227.961 E5.99660
G1 X223.479 Y228.132 E5.70858
G1 X222.875 Y228.189 E5.42056
G1 X222.271 Y228.132 E5.13254
G1 X221.690 Y227.961 E4.84451
G1 X221.151 Y227.683 E4.55649
G1 X220.674 Y227.308 E4.26847
G1 X220.277 Y226.850 E3.98045
G1 X219.974 Y226.325 E3.69243
G1 X219.775 Y225.752 E3.40441
G1 X219.760 Y225.647 E3.35428
G1 E3.17428 F2400.00000
G92 E0
G1 Z1.500 F6000.000
G1 X220.444 Y232.311
G1 Z0.500
G1 E4.00000 F2400.00000
G1 F1500
G1 X220.166 Y232.580 E4.06169
G1 X219.964 Y231.869 E4.17956
G1 X219.533 Y230.890 E4.35035
G1 X218.971 Y229.979 E4.52114
G1 X218.288 Y229.154 E4.69193
G1 X217.499 Y228.432 E4.86273
G1 X216.618 Y227.825 E5.03352
G1 X215.666 Y227.347 E5.20345
G1 X215.666 Y222.653 E5.95270
G1 X216.618 Y222.175 E6.12264
G1 X217.499 Y221.568 E6.29343
G1 X218.288 Y220.846 E6.46422
G1 X218.971 Y220.021 E6.63501
G1 X219.533 Y219.110 E6.80580
G1 X219.945 Y218.174 E6.96901
G1 X220.181 Y217.439 E7.09225
G1 X220.672 Y217.851 E7.19442
G1 X221.334 Y218.203 E7.31419
G1 X222.316 Y218.485 E7.47715
G1 X223.434 Y218.485 E7.65561
G1 X224.416 Y218.203 E7.81857
G1 X225.078 Y217.851 E7.93833
G1 X225.786 Y217.257 E8.08579
G1 X226.248 Y216.665 E8.20556
G1 X226.653 Y215.835 E8.35303
G1 X226.835 Y215.107 E8.47279
G1 X226.871 Y214.086 E8.63575
G1 X226.623 Y213.095 E8.79871
G1 X226.331 Y212.495 E8.90528
G1 X225.950 Y211.942 E9.01239
G1 X225.232 Y211.253 E9.17129
G1 X229.291 Y211.253 E9.81905
G1 X230.241 Y211.102 E9.97267
G1 X231.196 Y210.616 E10.14363
G1 X231.809 Y210.093 E10.27221
G1 X232.374 Y209.315 E10.42567
G1 X232.682 Y208.570 E10.55424
G1 X232.816 Y207.728 E10.69036
G1 X232.816 Y201.253 E11.72369
G1 X234.334 Y201.253 E11.96607
G1 X234.334 Y248.747 E19.54551
G1 X232.816 Y248.747 E19.78789
G1 X232.816 Y242.272 E20.82123
G1 X232.665 Y241.321 E20.97485
G1 X232.129 Y240.269 E21.16332
G1 X231.371 Y239.511 E21.33429
G1 X230.684 Y239.091 E21.46286
G1 X229.770 Y238.793 E21.61633
G1 X229.183 Y238.747 E21.71032
G1 X225.253 Y238.747 E22.33740
G1 X225.934 Y238.077 E22.48982
G1 X226.433 Y237.332 E22.63295
G1 X226.677 Y236.729 E22.73671
G1 X226.835 Y236.094 E22.84110
G1 X226.871 Y235.074 E23.00406
G1 X226.623 Y234.083 E23.16701
G1 X226.331 Y233.483 E23.27358
G1 X225.950 Y232.930 E23.38070
G1 X225.233 Y232.242 E23.53932
G1 X224.335 Y231.764 E23.70165
G1 X223.613 Y231.557 E23.82142
G1 X222.692 Y231.493 E23.96888
G1 X221.948 Y231.597 E24.08865
G1 X221.080 Y231.913 E24.23611
G1 X220.545 Y232.247 E24.33673
G1 E23.93673 F2400.00000
G1 F4800
G1 X220.166 Y232.580 E23.69705
G1 X219.964 Y231.869 E23.34622
G1 X219.533 Y230.890 E22.83787
G1 X218.971 Y229.979 E22.32953
G1 X218.288 Y229.154 E21.82118
G1 X217.499 Y228.432 E21.31282
G1 X216.618 Y227.825 E20.80447
G1 X216.076 Y227.553 E20.51673
G1 E20.33673 F2400.00000
G92 E0
G1 Z1.500 F6000.000
G1 X219.936 Y234.093
G1 Z0.500
G1 E4.00000 F2400.00000
G1 F1500
G1 X219.619 Y234.007 E4.05245
G1 X219.588 Y233.566 E4.12301
G1 X219.494 Y233.024 E4.21083
G1 X219.240 Y232.130 E4.35920
G1 X218.852 Y231.248 E4.51302
G1 X218.345 Y230.427 E4.66685
G1 X217.731 Y229.685 E4.82067
G1 X217.020 Y229.034 E4.97450
G1 X216.226 Y228.487 E5.12832
G1 X215.390 Y228.068 E5.27753
G1 X214.898 Y227.885 E5.36133
G1 X214.898 Y222.103 E6.28414
G1 X215.364 Y221.945 E6.36271
G1 X216.226 Y221.513 E6.51654
G1 X217.020 Y220.966 E6.67036
G1 X217.731 Y220.315 E6.82419
G1 X218.345 Y219.573 E6.97801
G1 X218.852 Y218.752 E7.13184
G1 X219.226 Y217.902 E7.28020
G1 X219.386 Y217.405 E7.36341
G1 X219.514 Y216.874 E7.45060
G1 X219.642 Y215.946 E7.60006
G1 X219.978 Y215.892 E7.65445
G1 X220.158 Y216.259 E7.71963
G1 X220.519 Y216.721 E7.81320
G1 X221.103 Y217.211 E7.93491
G1 X221.623 Y217.487 E8.02892
G1 X222.424 Y217.717 E8.16179
G1 X223.326 Y217.717 E8.30581
G1 X224.127 Y217.487 E8.43868
G1 X224.647 Y217.211 E8.53269
G1 X225.231 Y216.721 E8.65440
G1 X225.594 Y216.256 E8.74841
G1 X225.928 Y215.571 E8.87012
G1 X226.070 Y214.999 E8.96414
G1 X226.100 Y214.167 E9.09700
G1 X225.898 Y213.359 E9.22986
G1 X225.666 Y212.883 E9.31438
G1 X225.362 Y212.442 E9.39988
G1 X224.829 Y211.930 E9.51787
G1 X224.382 Y211.651 E9.60193
G1 X223.890 Y211.438 E9.68743
G1 X223.167 Y211.286 E9.80542
G1 X222.580 Y211.286 E9.89899
G1 X221.834 Y211.445 E10.02070
G1 X221.360 Y211.656 E10.10364
G1 X220.919 Y211.932 E10.18657
G1 X220.370 Y212.461 E10.30829
G1 X219.974 Y213.049 E10.42144
G1 X219.648 Y212.950 E10.47583
G1 X219.648 Y210.485 E10.86912
G1 X229.230 Y210.485 E12.39833
G1 X230.001 Y210.363 E12.52291
G1 X230.767 Y209.973 E12.65997
G1 X231.241 Y209.568 E12.75954
G1 X231.699 Y208.937 E12.88400
G1 X231.938 Y208.361 E12.98357
G1 X232.048 Y207.667 E13.09554
G1 X232.048 Y200.485 E14.24175
G1 X235.102 Y200.485 E14.72916
G1 X235.102 Y249.515 E22.55363
G1 X232.048 Y249.515 E23.04104
G1 X232.048 Y242.333 E24.18724
G1 X231.926 Y241.562 E24.31182
G1 X231.500 Y240.726 E24.46149
G1 X230.893 Y240.119 E24.59855
G1 X230.361 Y239.793 E24.69812
G1 X229.619 Y239.552 E24.82258
G1 X229.152 Y239.515 E24.89726
G1 X219.648 Y239.515 E26.41406
G1 X219.648 Y237.016 E26.81285
G1 X220.004 Y236.933 E26.87124
G1 X220.189 Y237.309 E26.93807
G1 X220.791 Y237.978 E27.08164
G1 X221.497 Y238.419 E27.21451
G1 X221.995 Y238.600 E27.29902
G1 X222.520 Y238.706 E27.38451
G1 X223.329 Y238.704 E27.51366
G1 X224.127 Y238.475 E27.64608
G1 X224.585 Y238.231 E27.72901
G1 X224.958 Y237.961 E27.80245
G1 X225.339 Y237.585 E27.88795
G1 X225.751 Y236.971 E28.00594
G1 X225.945 Y236.491 E28.08843
G1 X226.070 Y235.987 E28.17137
G1 X226.100 Y235.155 E28.30424
G1 X225.898 Y234.347 E28.43710
G1 X225.666 Y233.871 E28.52161
G1 X225.362 Y233.430 E28.60711
G1 X224.778 Y232.869 E28.73626
G1 X224.046 Y232.480 E28.86867
G1 X223.479 Y232.318 E28.96269
G1 X222.719 Y232.264 E29.08439
G1 X222.135 Y232.346 E29.17841
G1 X221.419 Y232.607 E29.30012
G1 X220.919 Y232.919 E29.39413
G1 X220.370 Y233.449 E29.51584
G1 X220.003 Y233.993 E29.62053
G1 E29.22053 F2400.00000
G1 F4800
G1 X219.619 Y234.007 E29.03775
G1 X219.588 Y233.566 E28.82773
G1 X219.494 Y233.024 E28.56634
G1 X219.240 Y232.130 E28.12474
G1 X218.852 Y231.248 E27.66688
G1 X218.345 Y230.427 E27.20903
G1 X217.731 Y229.685 E26.75118
G1 X217.020 Y229.034 E26.29332
G1 X216.226 Y228.487 E25.83546
G1 X216.160 Y228.454 E25.80053
G1 E25.62053 F2400.00000
G92 E0
G1 Z1.500 F6000.000
G1 X219.824 Y233.958
G1 X219.882 Y233.665
G1 X220.670 Y231.060
G1 X218.768 Y229.163
G1 X216.644 Y226.730
G1 X216.567 Y223.966
G1 X216.644 Y223.270
G1 X216.830 Y223.039
G1 X220.671 Y218.939
G1 X219.735 Y215.560
G1 X219.757 Y213.328
G1 X220.451 Y211.289
G1 X220.956 Y211.138
G1 X221.818 Y212.517
G1 X221.721 Y212.336
G1 Z0.500
G1 E4.00000 F2400.00000
G1 F1500
G1 X222.073 Y212.179 E4.06149
G1 X222.661 Y212.054 E4.15745
G1 X223.087 Y212.054 E4.22544
G1 X223.657 Y212.173 E4.31829
G1 X224.024 Y212.333 E4.38217
G1 X224.354 Y212.539 E4.44436
G1 X224.774 Y212.942 E4.53721
G1 X225.001 Y213.272 E4.60110
G1 X225.173 Y213.623 E4.66355
G1 X225.329 Y214.248 E4.76632
G1 X225.306 Y214.892 E4.86909
G1 X225.203 Y215.307 E4.93735
G1 X224.939 Y215.847 E5.03331
G1 X224.676 Y216.184 E5.10157
G1 X224.215 Y216.571 E5.19752
G1 X223.837 Y216.772 E5.26578
G1 X223.218 Y216.949 E5.36856
G1 X222.532 Y216.949 E5.47814
G1 X221.913 Y216.772 E5.58091
G1 X221.535 Y216.571 E5.64917
G1 X221.074 Y216.184 E5.74513
G1 X220.812 Y215.849 E5.81312
G1 X220.556 Y215.326 E5.90597
G1 X220.455 Y214.939 E5.96985
G1 X220.414 Y214.550 E6.03231
G1 X220.481 Y213.909 E6.13508
