; generated by Slic3r Prusa Edition 1.42.0-beta2 on 2020-10-23 at 18:13:09

; 

; external perimeters extrusion width = 0.88mm
; perimeters extrusion width = 0.88mm
; infill extrusion width = 0.88mm
; solid infill extrusion width = 0.88mm
; top infill extrusion width = 0.88mm
; first layer extrusion width = 0.88mm

M107
G28 Y0 X0 Z0  ;
M140 S60 ; set bed temp
M190 S60 ; wait for bed temp
M104 S215 ; set extruder temp
M109 S215 ; wait for extruder temp
M420 S Z5 ; call on the auto level gods
M300 S1000 P500 ; chirp
G1 Y25 X5.0 F4000.0 ; go outside print area
G92 E0.0
G1 Z0.5 F300.0; 
G1 X60.0 E9.0 F1000.0 ; intro line
G1 X100.0 E12.5 F1000.0 ; intro line
G92 E0.0
M900 K30 ; Filament gcode
G21 ; set units to millimeters
G90 ; use absolute coordinates
M82 ; use absolute distances for extrusion
G92 E0
G1 Z0.500 F6000.000
G1 E-4.00000 F2400.00000
G92 E0
G1 Z1.500 F6000.000
G1 X209.558 Y233.878
G1 Z0.500
G1 E4.00000 F2400.00000
G1 F1500
G1 X209.833 Y234.164 E4.06328
G1 X210.156 Y234.724 E4.16653
G1 X210.295 Y235.406 E4.27768
G1 X210.211 Y236.098 E4.38883
G1 X209.934 Y236.682 E4.49208
G1 X209.652 Y237.028 E4.56319
G1 X209.135 Y237.416 E4.66644
G1 X208.521 Y237.621 E4.76968
G1 X208.077 Y237.657 E4.84079
G1 X207.488 Y237.561 E4.93614
G1 X207.079 Y237.387 E5.00693
G1 X206.616 Y237.041 E5.09928
G1 X206.353 Y236.726 E5.16473
G1 X206.151 Y236.377 E5.22912
G1 X205.985 Y235.803 E5.32446
G1 X205.967 Y235.360 E5.39525
G1 X206.081 Y234.793 E5.48761
G1 X206.252 Y234.420 E5.55305
G1 X206.482 Y234.088 E5.61743
G1 X206.966 Y233.659 E5.72069
G1 X207.561 Y233.405 E5.82394
G1 X208.001 Y233.334 E5.89504
G1 X208.646 Y233.386 E5.99829
G1 X209.241 Y233.640 E6.10154
G1 X209.462 Y233.806 E6.14567
G1 X209.047 Y234.454 F6000.000
G1 F1500
G1 X209.214 Y234.628 E6.18418
G1 X209.429 Y235.000 E6.25265
G1 X209.518 Y235.438 E6.32398
G1 X209.464 Y235.882 E6.39531
G1 X209.280 Y236.269 E6.46377
G1 X209.117 Y236.470 E6.50513
G1 X208.774 Y236.728 E6.57359
G1 X208.367 Y236.863 E6.64205
G1 X208.108 Y236.884 E6.68341
G1 X207.703 Y236.818 E6.74900
G1 X207.465 Y236.717 E6.79024
G1 X207.147 Y236.480 E6.85356
G1 X206.984 Y236.285 E6.89404
G1 X206.862 Y236.074 E6.93295
G1 X206.748 Y235.679 E6.99855
G1 X206.738 Y235.421 E7.03979
G1 X206.816 Y235.032 E7.10310
G1 X206.922 Y234.802 E7.14358
G1 X207.060 Y234.601 E7.18249
G1 X207.382 Y234.316 E7.25096
G1 X207.776 Y234.148 E7.31942
G1 X208.032 Y234.107 E7.36078
G1 X208.460 Y234.141 E7.42924
G1 X208.854 Y234.309 E7.49770
G1 X208.951 Y234.382 E7.51707
G1 X209.274 Y234.372 F6000.000
G1 E7.11707 F2400.00000
G1 F4800
G1 X209.214 Y234.628 E6.94593
G1 X209.429 Y235.000 E6.74215
G1 X209.518 Y235.438 E6.52984
G1 X209.464 Y235.882 E6.31752
G1 X209.280 Y236.269 E6.11374
G1 X209.117 Y236.470 E5.99065
G1 X208.774 Y236.728 E5.78688
G1 X208.367 Y236.863 E5.58310
G1 X208.108 Y236.884 E5.46001
G1 X207.703 Y236.818 E5.26478
G1 X207.465 Y236.717 E5.14203
G1 X207.147 Y236.480 E4.95357
G1 X206.984 Y236.285 E4.83309
G1 X206.862 Y236.074 E4.71725
G1 X206.748 Y235.679 E4.52202
G1 X206.738 Y235.421 E4.39927
G1 X206.816 Y235.032 E4.21081
G1 X206.922 Y234.802 E4.09033
G1 X207.060 Y234.601 E3.97450
G1 X207.382 Y234.316 E3.77072
G1 X207.524 Y234.256 E3.69707
G1 E3.51707 F2400.00000
G92 E0
G1 Z1.500 F6000.000
G1 X208.126 Y230.503
G1 Z0.500
G1 E4.00000 F2400.00000
G1 F1500
G1 X207.085 Y230.404 E4.16696
G1 X206.081 Y230.109 E4.33392
G1 X205.151 Y229.629 E4.50088
G1 X204.329 Y228.983 E4.66784
G1 X203.643 Y228.192 E4.83479
G1 X203.120 Y227.286 E5.00175
G1 X202.778 Y226.297 E5.16871
G1 X202.629 Y225.262 E5.33567
G1 X202.679 Y224.217 E5.50263
G1 X202.926 Y223.200 E5.66959
G1 X203.360 Y222.248 E5.83655
G1 X203.967 Y221.396 E6.00351
G1 X204.724 Y220.674 E6.17046
G1 X205.605 Y220.109 E6.33742
G1 X206.515 Y219.744 E6.49390
G1 X207.147 Y219.591 E6.59777
G1 X208.026 Y219.505 E6.73868
G1 X208.638 Y219.530 E6.83648
G1 X209.231 Y219.615 E6.93196
G1 X210.171 Y219.891 E7.08843
G1 X211.101 Y220.371 E7.25539
G1 X211.924 Y221.017 E7.42235
G1 X212.609 Y221.808 E7.58931
G1 X213.132 Y222.714 E7.75627
G1 X213.474 Y223.703 E7.92323
G1 X213.623 Y224.738 E8.09019
G1 X213.573 Y225.783 E8.25714
G1 X213.342 Y226.736 E8.41362
G1 X213.100 Y227.340 E8.51749
G1 X212.660 Y228.106 E8.65841
G1 X212.285 Y228.590 E8.75620
G1 X211.872 Y229.023 E8.85168
G1 X211.101 Y229.629 E9.00816
G1 X210.171 Y230.109 E9.17512
G1 X209.168 Y230.404 E9.34207
G1 X208.246 Y230.492 E9.48988
G1 X208.173 Y229.727 F6000.000
G1 F1500
G1 X207.231 Y229.646 E9.64077
G1 X206.367 Y229.393 E9.78433
G1 X205.568 Y228.981 E9.92789
G1 X204.861 Y228.425 E10.07145
G1 X204.272 Y227.745 E10.21501
G1 X203.822 Y226.966 E10.35857
G1 X203.528 Y226.116 E10.50213
G1 X203.400 Y225.225 E10.64570
G1 X203.442 Y224.327 E10.78926
G1 X203.655 Y223.452 E10.93282
G1 X204.028 Y222.634 E11.07638
G1 X204.550 Y221.901 E11.21994
G1 X205.201 Y221.280 E11.36350
G1 X205.958 Y220.794 E11.50706
G1 X206.749 Y220.477 E11.64308
G1 X207.276 Y220.350 E11.72956
G1 X208.048 Y220.274 E11.85339
G1 X208.568 Y220.295 E11.93646
G1 X209.067 Y220.367 E12.01690
G1 X209.885 Y220.607 E12.15291
G1 X210.684 Y221.019 E12.29647
G1 X211.392 Y221.575 E12.44003
G1 X211.981 Y222.255 E12.58359
G1 X212.430 Y223.034 E12.72715
G1 X212.725 Y223.884 E12.87072
G1 X212.853 Y224.775 E13.01428
G1 X212.810 Y225.673 E13.15784
G1 X212.609 Y226.502 E13.29386
G1 X212.408 Y227.005 E13.38033
G1 X212.021 Y227.678 E13.50417
G1 X211.702 Y228.089 E13.58723
G1 X211.354 Y228.454 E13.66767
G1 X210.684 Y228.981 E13.80368
G1 X209.885 Y229.393 E13.94725
G1 X209.022 Y229.646 E14.09081
G1 X208.292 Y229.716 E14.20777
G1 X208.126 Y228.961 F6000.000
G1 F1500
G1 X207.377 Y228.889 E14.32793
G1 X206.654 Y228.677 E14.44810
G1 X205.985 Y228.332 E14.56826
G1 X205.393 Y227.866 E14.68842
G1 X204.900 Y227.297 E14.80859
G1 X204.523 Y226.645 E14.92875
G1 X204.277 Y225.934 E15.04892
G1 X204.170 Y225.188 E15.16908
G1 X204.206 Y224.436 E15.28924
G1 X204.383 Y223.705 E15.40941
G1 X204.696 Y223.020 E15.52957
G1 X205.133 Y222.406 E15.64974
G1 X205.678 Y221.887 E15.76990
G1 X206.311 Y221.480 E15.89006
G1 X206.983 Y221.210 E16.00562
G1 X207.404 Y221.108 E16.07470
G1 X208.070 Y221.043 E16.18146
G1 X208.498 Y221.061 E16.24980
G1 X208.903 Y221.119 E16.31519
G1 X209.598 Y221.323 E16.43074
G1 X210.267 Y221.668 E16.55091
G1 X210.859 Y222.134 E16.67107
G1 X211.352 Y222.703 E16.79124
G1 X211.729 Y223.355 E16.91140
G1 X211.975 Y224.066 E17.03156
G1 X212.082 Y224.812 E17.15173
G1 X212.047 Y225.564 E17.27189
G1 X211.876 Y226.267 E17.38745
G1 X211.715 Y226.669 E17.45652
G1 X211.382 Y227.249 E17.56329
G1 X211.119 Y227.588 E17.63163
G1 X210.837 Y227.884 E17.69701
G1 X210.267 Y228.332 E17.81257
G1 X209.598 Y228.677 E17.93273
G1 X208.876 Y228.889 E18.05290
G1 X208.246 Y228.949 E18.15391
G1 X208.173 Y228.185 F6000.000
G1 F1500
G1 X207.523 Y228.132 E18.25800
G1 X206.941 Y227.961 E18.35477
G1 X206.402 Y227.683 E18.45154
G1 X205.925 Y227.308 E18.54831
G1 X205.528 Y226.850 E18.64507
G1 X205.225 Y226.325 E18.74184
G1 X205.027 Y225.752 E18.83860
G1 X204.940 Y225.152 E18.93537
G1 X204.969 Y224.546 E19.03214
G1 X205.112 Y223.957 E19.12891
G1 X205.364 Y223.405 E19.22567
G1 X205.716 Y222.911 E19.32244
G1 X206.155 Y222.493 E19.41921
G1 X206.665 Y222.165 E19.51597
G1 X207.218 Y221.944 E19.61107
G1 X207.533 Y221.867 E19.66274
G1 X208.092 Y221.813 E19.75243
G1 X208.428 Y221.826 E19.80605
G1 X208.740 Y221.871 E19.85639
G1 X209.312 Y222.039 E19.95148
G1 X209.851 Y222.317 E20.04825
G1 X210.327 Y222.692 E20.14502
G1 X210.724 Y223.150 E20.24178
G1 X211.027 Y223.675 E20.33855
G1 X211.226 Y224.248 E20.43532
G1 X211.312 Y224.848 E20.53208
G1 X211.283 Y225.454 E20.62885
G1 X211.143 Y226.033 E20.72394
G1 X211.022 Y226.334 E20.77562
G1 X210.742 Y226.821 E20.86531
G1 X210.537 Y227.087 E20.91893
G1 X210.319 Y227.315 E20.96927
G1 X209.851 Y227.683 E21.06436
G1 X209.312 Y227.961 E21.16113
G1 X208.730 Y228.132 E21.25790
G1 X208.292 Y228.174 E21.32806
G1 X207.852 Y228.753 F6000.000
G1 E20.92806 F2400.00000
G1 F4800
G1 X207.523 Y228.132 E20.56199
G1 X206.941 Y227.961 E20.27397
G1 X206.402 Y227.683 E19.98595
G1 X205.925 Y227.308 E19.69792
G1 X205.528 Y226.850 E19.40990
G1 X205.225 Y226.325 E19.12188
G1 X205.027 Y225.752 E18.83386
G1 X204.940 Y225.152 E18.54584
G1 X204.969 Y224.546 E18.25782
G1 X205.112 Y223.957 E17.96980
G1 X205.364 Y223.405 E17.68177
G1 X205.576 Y223.107 E17.50806
G1 E17.32806 F2400.00000
G92 E0
G1 Z1.500 F6000.000
G1 X205.508 Y232.900
G1 Z0.500
G1 E4.00000 F2400.00000
G1 F1500
G1 X205.215 Y231.869 E4.17095
G1 X204.784 Y230.890 E4.34174
G1 X204.222 Y229.979 E4.51253
G1 X203.540 Y229.154 E4.68332
G1 X202.750 Y228.432 E4.85411
G1 X201.869 Y227.825 E5.02490
G1 X200.917 Y227.347 E5.19484
G1 X200.917 Y222.653 E5.94409
G1 X201.869 Y222.175 E6.11403
G1 X202.750 Y221.568 E6.28482
G1 X203.540 Y220.846 E6.45561
G1 X204.222 Y220.021 E6.62640
G1 X204.784 Y219.110 E6.79719
G1 X205.196 Y218.174 E6.96040
G1 X205.377 Y217.613 E7.05452
G1 X205.504 Y217.086 E7.14107
G1 X205.820 Y217.416 E7.21405
G1 X206.531 Y217.853 E7.34724
G1 X207.533 Y218.184 E7.51564
G1 X208.724 Y218.184 E7.70571
G1 X209.858 Y217.806 E7.89651
G1 X210.724 Y217.155 E8.06933
G1 X211.241 Y216.521 E8.19994
G1 X211.657 Y215.645 E8.35478
G1 X211.821 Y214.843 E8.48539
G1 X211.782 Y213.873 E8.64024
G1 X211.554 Y213.087 E8.77085
G1 X211.013 Y212.149 E8.94368
G1 X210.001 Y211.253 E9.15942
G1 X214.542 Y211.253 E9.88409
G1 X215.493 Y211.102 E10.03771
G1 X216.447 Y210.616 E10.20868
G1 X217.060 Y210.093 E10.33725
G1 X217.625 Y209.315 E10.49071
G1 X217.933 Y208.570 E10.61928
G1 X218.067 Y207.728 E10.75540
G1 X218.067 Y201.253 E11.78874
G1 X219.586 Y201.253 E12.03112
G1 X219.586 Y248.747 E19.61056
G1 X218.067 Y248.747 E19.85294
G1 X218.067 Y242.272 E20.88627
G1 X217.916 Y241.321 E21.03990
G1 X217.380 Y240.269 E21.22837
G1 X216.622 Y239.511 E21.39934
G1 X215.936 Y239.091 E21.52791
G1 X215.021 Y238.793 E21.68137
G1 X214.434 Y238.747 E21.77537
G1 X210.444 Y238.747 E22.41213
G1 X210.339 Y238.432 E22.46509
G1 X210.724 Y238.143 E22.54197
G1 X211.241 Y237.509 E22.67258
G1 X211.706 Y236.531 E22.84541
G1 X211.850 Y235.344 E23.03619
G1 X211.611 Y234.172 E23.22699
G1 X211.069 Y233.235 E23.39982
G1 X210.579 Y232.725 E23.51262
G1 X210.014 Y232.300 E23.62543
G1 X209.018 Y231.876 E23.79827
G1 X207.939 Y231.788 E23.97108
G1 X207.131 Y231.920 E24.10168
G1 X206.134 Y232.344 E24.27451
G1 X205.597 Y232.820 E24.38901
G1 E23.98901 F2400.00000
G1 F4800
G1 X205.215 Y231.869 E23.50219
G1 X204.784 Y230.890 E22.99384
G1 X204.222 Y229.979 E22.48550
G1 X203.540 Y229.154 E21.97715
G1 X202.750 Y228.432 E21.46879
G1 X201.869 Y227.825 E20.96045
G1 X201.132 Y227.455 E20.56901
G1 E20.38901 F2400.00000
G92 E0
G1 Z1.500 F6000.000
G1 X205.261 Y234.737
G1 Z0.500
G1 E4.00000 F2400.00000
G1 F1500
G1 X204.899 Y234.658 E4.05914
G1 X204.899 Y234.426 E4.09623
G1 X204.840 Y233.566 E4.23368
G1 X204.745 Y233.024 E4.32150
G1 X204.491 Y232.130 E4.46987
G1 X204.103 Y231.248 E4.62369
G1 X203.596 Y230.427 E4.77752
G1 X202.982 Y229.685 E4.93134
G1 X202.271 Y229.034 E5.08517
G1 X201.477 Y228.487 E5.23900
G1 X200.641 Y228.068 E5.38820
G1 X200.149 Y227.885 E5.47200
G1 X200.149 Y222.103 E6.39481
G1 X200.615 Y221.945 E6.47338
G1 X201.477 Y221.513 E6.62721
G1 X202.271 Y220.966 E6.78103
G1 X202.982 Y220.315 E6.93486
G1 X203.596 Y219.573 E7.08868
G1 X204.103 Y218.752 E7.24251
G1 X204.477 Y217.902 E7.39088
G1 X204.637 Y217.405 E7.47408
G1 X204.765 Y216.874 E7.56128
G1 X204.882 Y216.021 E7.69875
G1 X204.899 Y215.337 E7.80784
G1 X205.258 Y215.256 E7.86653
G1 X205.702 Y216.184 E8.03066
G1 X206.306 Y216.813 E8.17000
G1 X206.857 Y217.153 E8.27323
G1 X207.656 Y217.417 E8.40756
G1 X208.599 Y217.417 E8.55801
G1 X209.497 Y217.117 E8.70899
G1 X210.188 Y216.597 E8.84703
G1 X210.588 Y216.108 E8.94788
G1 X210.924 Y215.400 E9.07298
G1 X211.050 Y214.781 E9.17383
G1 X211.019 Y213.997 E9.29893
G1 X210.843 Y213.390 E9.39979
G1 X210.410 Y212.641 E9.53783
G1 X209.702 Y212.014 E9.68880
G1 X208.832 Y211.643 E9.83978
G1 X207.889 Y211.567 E9.99075
G1 X207.049 Y211.774 E10.12879
G1 X206.489 Y212.068 E10.22964
G1 X205.903 Y212.587 E10.35475
G1 X205.583 Y213.051 E10.44461
G1 X205.261 Y213.750 E10.56736
G1 X204.899 Y213.670 E10.62650
G1 X204.899 Y210.485 E11.13479
G1 X214.481 Y210.485 E12.66400
G1 X215.252 Y210.363 E12.78858
G1 X216.018 Y209.973 E12.92564
G1 X216.492 Y209.568 E13.02521
G1 X216.951 Y208.937 E13.14967
G1 X217.189 Y208.361 E13.24924
G1 X217.299 Y207.667 E13.36122
G1 X217.299 Y200.485 E14.50742
G1 X220.353 Y200.485 E14.99483
G1 X220.353 Y249.515 E22.81930
G1 X217.299 Y249.515 E23.30671
G1 X217.299 Y242.333 E24.45292
G1 X217.177 Y241.562 E24.57749
G1 X216.751 Y240.726 E24.72716
G1 X216.144 Y240.119 E24.86422
G1 X215.612 Y239.793 E24.96379
G1 X214.870 Y239.552 E25.08825
G1 X214.404 Y239.515 E25.16293
G1 X204.899 Y239.515 E26.67973
G1 X204.899 Y236.237 E27.20280
G1 X205.295 Y236.181 E27.26661
G1 X205.440 Y236.680 E27.34953
G1 X205.721 Y237.168 E27.43940
G1 X206.084 Y237.602 E27.52980
G1 X206.694 Y238.057 E27.65120
G1 X207.272 Y238.304 E27.75154
G1 X208.046 Y238.430 E27.87664
G1 X208.676 Y238.379 E27.97750
G1 X209.497 Y238.105 E28.11553
G1 X210.188 Y237.585 E28.25356
G1 X210.588 Y237.096 E28.35442
G1 X210.959 Y236.314 E28.49246
G1 X211.073 Y235.375 E28.64343
G1 X210.883 Y234.448 E28.79440
G1 X210.451 Y233.699 E28.93245
G1 X210.069 Y233.301 E29.02048
G1 X209.628 Y232.970 E29.10853
G1 X208.832 Y232.631 E29.24657
G1 X207.970 Y232.561 E29.38460
G1 X207.346 Y232.663 E29.48545
G1 X206.550 Y233.002 E29.62350
G1 X205.903 Y233.575 E29.76154
G1 X205.583 Y234.039 E29.85140
G1 X205.311 Y234.628 E29.95500
G1 E29.55500 F2400.00000
G1 F4800
G1 X204.899 Y234.658 E29.35871
G1 X204.899 Y234.426 E29.24831
G1 X204.840 Y233.566 E28.83919
G1 X204.745 Y233.024 E28.57780
G1 X204.491 Y232.130 E28.13620
G1 X204.103 Y231.248 E27.67834
G1 X203.596 Y230.427 E27.22049
G1 X202.982 Y229.685 E26.76263
G1 X202.271 Y229.034 E26.30478
G1 X201.977 Y228.831 E26.13500
G1 E25.95500 F2400.00000
G92 E0
G1 Z1.500 F6000.000
G1 X205.135 Y234.476
G1 X205.283 Y233.722
G1 X206.082 Y231.213
G1 X204.019 Y229.163
G1 X201.895 Y226.730
G1 X201.778 Y225.178
G1 X201.883 Y223.353
G1 X203.640 Y221.245
G1 X206.081 Y218.787
G1 X207.220 Y218.841
G1 X207.813 Y216.434
G1 X207.780 Y216.649
G1 Z0.500
G1 E4.00000 F2400.00000
G1 F1500
G1 X207.183 Y216.452 E4.10026
G1 X206.792 Y216.211 E4.17353
G1 X206.341 Y215.741 E4.27758
G1 X206.070 Y215.174 E4.37784
G1 X205.983 Y214.773 E4.44328
G1 X205.967 Y214.372 E4.50736
G1 X206.081 Y213.805 E4.59971
G1 X206.252 Y213.432 E4.66515
G1 X206.482 Y213.100 E4.72954
G1 X206.929 Y212.704 E4.82489
G1 X207.323 Y212.497 E4.89599
G1 X207.951 Y212.342 E4.99924
G1 X208.646 Y212.398 E5.11039
G1 X209.286 Y212.671 E5.22155
G1 X209.808 Y213.133 E5.33270
G1 X210.131 Y213.693 E5.43595
G1 X210.255 Y214.121 E5.50706
G1 X210.279 Y214.718 E5.60240
G1 X210.190 Y215.155 E5.67351
G1 X209.934 Y215.695 E5.76885
G1 X209.652 Y216.040 E5.83996
G1 X209.135 Y216.428 E5.94321
G1 X208.474 Y216.649 E6.05436
G1 X207.900 Y216.649 E6.14605
G1 X207.510 Y215.751 F6000.000
G1 F1500
G1 X207.278 Y215.609 E6.18937
G1 X206.980 Y215.298 E6.25812
G1 X206.801 Y214.924 E6.32431
G1 X206.747 Y214.676 E6.36479
G1 X206.738 Y214.433 E6.40359
G1 X206.816 Y214.044 E6.46690
G1 X206.922 Y213.814 E6.50738
G1 X207.060 Y213.613 E6.54630
G1 X207.368 Y213.340 E6.61189
G1 X207.598 Y213.220 E6.65325
G1 X208.014 Y213.117 E6.72171
G1 X208.460 Y213.153 E6.79304
G1 X208.871 Y213.329 E6.86437
G1 X209.205 Y213.625 E6.93571
G1 X209.420 Y213.996 E7.00417
G1 X209.492 Y214.245 E7.04552
G1 X209.509 Y214.656 E7.11112
G1 X209.457 Y214.910 E7.15247
G1 X209.280 Y215.281 E7.21806
G1 X209.117 Y215.482 E7.25942
G1 X208.774 Y215.740 E7.32788
G1 X208.350 Y215.881 E7.39921
G1 X207.903 Y215.881 E7.47043
G1 X207.624 Y215.789 E7.51747
G1 X207.290 Y215.911 F6000.000
G1 E7.11747 F2400.00000
G1 F4800
G1 X207.278 Y215.609 E6.93260
G1 X206.980 Y215.298 E6.72795
G1 X206.801 Y214.924 E6.53096
G1 X206.747 Y214.676 E6.41047
G1 X206.738 Y214.433 E6.29498
G1 X206.816 Y214.044 E6.10652
G1 X206.922 Y213.814 E5.98604
G1 X207.060 Y213.613 E5.87022
G1 X207.368 Y213.340 E5.67497
G1 X207.598 Y213.220 E5.55189
