; generated by Slic3r Prusa Edition 1.42.0-beta2 on 2020-10-27 at 17:10:56

; 

; external perimeters extrusion width = 0.88mm
; perimeters extrusion width = 0.88mm
; infill extrusion width = 0.88mm
; solid infill extrusion width = 0.88mm
; top infill extrusion width = 0.88mm
; first layer extrusion width = 0.88mm

M107
G28 Y0 X0 Z0  ;
M140 S80 ; set bed temp
M190 S80 ; wait for bed temp
M104 S215 ; set extruder temp
M109 S215 ; wait for extruder temp
M420 S Z5 ; call on the auto level gods
M300 S1000 P500 ; chirp
G1 Y25 X5.0 F4000.0 ; go outside print area
G92 E0.0
G1 Z0.5 F300.0; 
G1 X60.0 E9.0 F1000.0 ; intro line
G1 X100.0 E12.5 F1000.0 ; intro line
G92 E0.0
M900 K30 ; Filament gcode
G21 ; set units to millimeters
G90 ; use absolute coordinates
M82 ; use absolute distances for extrusion
G92 E0
G1 Z0.500 F6000.000
G1 E-4.00000 F2400.00000
G92 E0
G1 Z1.500 F6000.000
G1 X222.861 Y233.634
G1 Z0.500
G1 E4.00000 F2400.00000
G1 F1500
G1 X223.283 Y233.235 E4.09265
G1 X223.809 Y232.919 E4.19056
G1 X224.389 Y232.723 E4.28822
G1 X224.944 Y232.662 E4.37735
G1 X225.333 Y232.679 E4.43962
G1 X225.906 Y232.805 E4.53318
G1 X226.463 Y233.063 E4.63109
G1 X226.951 Y233.434 E4.72900
G1 X227.348 Y233.902 E4.82691
G1 X227.635 Y234.442 E4.92456
G1 X227.786 Y234.980 E5.01369
G1 X227.832 Y235.368 E5.07597
G1 X227.800 Y235.953 E5.16952
G1 X227.636 Y236.544 E5.26743
G1 X227.348 Y237.086 E5.36535
G1 X226.951 Y237.554 E5.46326
G1 X226.463 Y237.925 E5.56117
G1 X225.936 Y238.169 E5.65382
G1 X225.577 Y238.268 E5.71322
G1 X225.000 Y238.331 E5.80588
G1 X224.423 Y238.268 E5.89854
G1 X224.064 Y238.169 E5.95794
G1 X223.537 Y237.925 E6.05059
G1 X223.049 Y237.554 E6.14850
G1 X222.652 Y237.086 E6.24641
G1 X222.365 Y236.546 E6.34407
G1 X222.214 Y236.008 E6.43319
G1 X222.168 Y235.620 E6.49547
G1 X222.200 Y235.035 E6.58903
G1 X222.364 Y234.444 E6.68694
G1 X222.636 Y233.931 E6.77960
G1 X222.789 Y233.730 E6.81985
G1 X223.400 Y234.195 F6000.000
G1 F1500
G1 X223.750 Y233.850 E6.89827
G1 X224.133 Y233.620 E6.96953
G1 X224.556 Y233.477 E7.04070
G1 X224.969 Y233.431 E7.10710
G1 X225.233 Y233.443 E7.14926
G1 X225.659 Y233.537 E7.21894
G1 X226.065 Y233.724 E7.29021
G1 X226.420 Y233.995 E7.36147
G1 X226.709 Y234.335 E7.43273
G1 X226.918 Y234.729 E7.50390
G1 X227.031 Y235.130 E7.57030
G1 X227.062 Y235.392 E7.61246
G1 X227.038 Y235.828 E7.68215
G1 X226.918 Y236.258 E7.75341
G1 X226.709 Y236.653 E7.82467
G1 X226.420 Y236.993 E7.89593
G1 X226.065 Y237.263 E7.96720
G1 X225.670 Y237.446 E8.03655
G1 X225.432 Y237.512 E8.07600
G1 X225.000 Y237.559 E8.14536
G1 X224.568 Y237.512 E8.21471
G1 X224.330 Y237.446 E8.25416
G1 X223.935 Y237.263 E8.32352
G1 X223.580 Y236.993 E8.39478
G1 X223.291 Y236.653 E8.46604
G1 X223.082 Y236.259 E8.53721
G1 X222.969 Y235.858 E8.60361
G1 X222.938 Y235.596 E8.64577
G1 X222.962 Y235.160 E8.71545
G1 X223.082 Y234.730 E8.78672
G1 X223.327 Y234.290 E8.86707
G1 X223.219 Y233.737 F6000.000
G1 E8.46707 F2400.00000
G1 F4800
G1 X223.750 Y233.850 E8.17712
G1 X224.133 Y233.620 E7.96501
G1 X224.556 Y233.477 E7.75318
G1 X224.969 Y233.431 E7.55554
G1 X225.233 Y233.443 E7.43005
G1 X225.659 Y233.537 E7.22265
G1 X226.065 Y233.724 E7.01054
G1 X226.420 Y233.995 E6.79843
G1 X226.709 Y234.335 E6.58632
G1 X226.918 Y234.729 E6.37448
G1 X227.031 Y235.130 E6.17685
G1 X227.062 Y235.392 E6.05135
G1 X227.038 Y235.828 E5.84395
G1 X226.918 Y236.258 E5.63184
G1 X226.709 Y236.653 E5.41973
G1 X226.420 Y236.993 E5.20762
G1 X226.151 Y237.198 E5.04707
G1 E4.86707 F2400.00000
G92 E0
G1 Z1.500 F6000.000
G1 X222.543 Y231.889
G1 Z0.500
G1 E4.00000 F2400.00000
G1 F1500
G1 X222.540 Y229.167 E4.43428
G1 X223.196 Y229.505 E4.55206
G1 X224.082 Y229.765 E4.69930
G1 X225.000 Y229.853 E4.84654
G1 X225.918 Y229.765 E4.99378
G1 X226.804 Y229.505 E5.14102
G1 X227.460 Y229.167 E5.25880
G1 X227.457 Y231.831 E5.68391
G1 X226.399 Y231.342 E5.86996
G1 X225.534 Y231.151 E6.01126
G1 X224.893 Y231.122 E6.11377
G1 X224.055 Y231.216 E6.24835
G1 X223.160 Y231.517 E6.39897
G1 X222.646 Y231.827 E6.49479
G1 E6.09479 F2400.00000
G1 F4800
G1 X222.540 Y229.167 E4.83057
G1 X223.196 Y229.505 E4.48000
G1 X224.082 Y229.765 E4.04174
G1 X225.000 Y229.853 E3.60350
G1 X225.918 Y229.765 E3.16526
G1 X226.804 Y229.505 E2.72700
G1 X226.901 Y229.455 E2.67479
G1 E2.49479 F2400.00000
G92 E0
G1 Z1.500 F6000.000
G1 X222.090 Y233.381
G1 Z0.500
G1 E4.00000 F2400.00000
G1 F1500
G1 X221.776 Y233.275 E4.05277
G1 X221.771 Y227.478 E4.97787
G1 X222.183 Y227.954 E5.07832
G1 X222.793 Y228.434 E5.20216
G1 X223.483 Y228.789 E5.32600
G1 X224.228 Y229.008 E5.44984
G1 X225.000 Y229.082 E5.57368
G1 X225.772 Y229.008 E5.69752
G1 X226.517 Y228.789 E5.82136
G1 X227.165 Y228.456 E5.93766
G1 X227.557 Y228.176 E6.01459
G1 X228.229 Y227.536 E6.16265
G1 X228.223 Y233.746 E7.15366
G1 X227.482 Y232.873 E7.33628
G1 X226.861 Y232.401 E7.46084
G1 X226.153 Y232.073 E7.58540
G1 X225.434 Y231.915 E7.70282
G1 X224.918 Y231.892 E7.78522
G1 X224.222 Y231.970 E7.89707
G1 X223.484 Y232.218 E8.02121
G1 X222.816 Y232.620 E8.14577
G1 X222.288 Y233.120 E8.26172
G1 X222.163 Y233.285 E8.29484
G1 E7.89484 F2400.00000
G1 F4800
G1 X221.776 Y233.275 E7.71140
G1 X221.771 Y227.478 E4.95791
G1 X222.183 Y227.954 E4.65893
G1 X222.488 Y228.194 E4.47484
G1 E4.29484 F2400.00000
G92 E0
G1 Z1.500 F6000.000
G1 X220.497 Y226.759
G1 Z0.500
G1 E4.00000 F2400.00000
G1 F1500
G1 X215.791 Y226.759 E4.75102
G1 X215.791 Y223.241 E5.31258
G1 X220.456 Y223.241 E6.05705
G1 X220.196 Y224.309 E6.23255
G1 X220.152 Y225.231 E6.37979
G1 X220.284 Y226.144 E6.52703
G1 X220.457 Y226.646 E6.61178
G1 E6.21178 F2400.00000
G1 F4800
G1 X215.791 Y226.759 E3.99438
G1 X215.791 Y224.228 E2.79178
G1 E2.61178 F2400.00000
G92 E0
G1 Z1.500 F6000.000
G1 X221.767 Y227.527
G1 Z0.500
G1 E4.00000 F2400.00000
G1 F1500
G1 X215.023 Y227.527 E5.07627
G1 X215.023 Y222.473 E5.88285
G1 X221.811 Y222.473 E6.96617
G1 X221.465 Y222.959 E7.06141
G1 X221.143 Y223.665 E7.18525
G1 X220.960 Y224.419 E7.30910
G1 X220.923 Y225.194 E7.43294
G1 X221.033 Y225.962 E7.55678
G1 X221.287 Y226.696 E7.68062
G1 X221.707 Y227.423 E7.81468
G1 X222.303 Y226.920 F6000.000
G1 F1500
G1 X221.988 Y226.375 E7.91512
G1 X221.783 Y225.781 E8.01556
G1 X221.693 Y225.158 E8.11601
G1 X221.723 Y224.529 E8.21645
G1 X221.871 Y223.917 E8.31690
G1 X222.133 Y223.345 E8.41734
G1 X222.498 Y222.832 E8.51778
G1 X222.953 Y222.398 E8.61823
G1 X223.483 Y222.057 E8.71867
G1 X224.040 Y221.834 E8.81450
G1 X224.401 Y221.747 E8.87376
G1 X224.984 Y221.690 E8.96718
G1 X225.624 Y221.748 E9.06975
G1 X226.230 Y221.926 E9.17061
G1 X226.790 Y222.215 E9.27106
G1 X227.285 Y222.604 E9.37150
G1 X227.697 Y223.080 E9.47194
G1 X228.011 Y223.625 E9.57239
G1 X228.217 Y224.219 E9.67283
G1 X228.307 Y224.842 E9.77327
G1 X228.277 Y225.471 E9.87372
G1 X228.129 Y226.083 E9.97416
G1 X227.867 Y226.655 E10.07461
G1 X227.502 Y227.168 E10.17505
G1 X227.067 Y227.582 E10.27088
G1 X226.764 Y227.798 E10.33029
G1 X226.230 Y228.074 E10.42612
G1 X225.627 Y228.251 E10.52656
G1 X225.000 Y228.311 E10.62701
G1 X224.373 Y228.251 E10.72745
G1 X223.770 Y228.074 E10.82790
G1 X223.210 Y227.785 E10.92834
G1 X222.715 Y227.396 E11.02878
G1 X222.382 Y227.011 E11.11008
G1 X222.962 Y226.508 F6000.000
G1 F1500
G1 X222.690 Y226.055 E11.19445
G1 X222.532 Y225.599 E11.27150
G1 X222.463 Y225.121 E11.34854
G1 X222.486 Y224.639 E11.42559
G1 X222.600 Y224.169 E11.50263
G1 X222.801 Y223.730 E11.57968
G1 X223.081 Y223.337 E11.65673
G1 X223.430 Y223.004 E11.73377
G1 X223.836 Y222.743 E11.81082
G1 X224.275 Y222.567 E11.88619
G1 X224.530 Y222.505 E11.92802
G1 X224.986 Y222.461 E12.00125
G1 X225.480 Y222.506 E12.08032
G1 X225.944 Y222.642 E12.15752
G1 X226.373 Y222.864 E12.23457
G1 X226.752 Y223.162 E12.31161
G1 X227.069 Y223.527 E12.38866
G1 X227.310 Y223.945 E12.46570
G1 X227.468 Y224.401 E12.54275
G1 X227.537 Y224.879 E12.61980
G1 X227.514 Y225.361 E12.69684
G1 X227.400 Y225.831 E12.77389
G1 X227.199 Y226.270 E12.85094
G1 X226.919 Y226.663 E12.92798
G1 X226.577 Y226.989 E13.00335
G1 X226.364 Y227.141 E13.04523
G1 X225.944 Y227.358 E13.12061
G1 X225.481 Y227.494 E13.19765
G1 X225.000 Y227.539 E13.27470
G1 X224.519 Y227.494 E13.35175
G1 X224.056 Y227.358 E13.42879
G1 X223.627 Y227.136 E13.50584
G1 X223.248 Y226.838 E13.58288
G1 X223.041 Y226.599 E13.63333
G1 X222.436 Y226.565 F6000.000
G1 E13.23333 F2400.00000
G1 F4800
G1 X222.690 Y226.055 E12.92589
G1 X222.532 Y225.599 E12.69657
G1 X222.463 Y225.121 E12.46725
G1 X222.486 Y224.639 E12.23792
G1 X222.600 Y224.169 E12.00860
G1 X222.801 Y223.730 E11.77927
G1 X223.081 Y223.337 E11.54995
G1 X223.430 Y223.004 E11.32062
G1 X223.836 Y222.743 E11.09130
G1 X224.275 Y222.567 E10.86696
G1 X224.530 Y222.505 E10.74247
G1 X224.986 Y222.461 E10.52450
G1 X225.480 Y222.506 E10.28914
G1 X225.944 Y222.642 E10.05936
G1 X226.373 Y222.864 E9.83004
G1 X226.401 Y222.885 E9.81333
G1 E9.63333 F2400.00000
G92 E0
G1 Z1.500 F6000.000
G1 X221.726 Y227.763
G1 X218.402 Y225.000
G1 X221.528 Y222.458
G1 X222.540 Y220.781
G1 Z0.500
G1 E4.00000 F2400.00000
G1 F1500
G1 X222.543 Y218.111 E4.42600
G1 X223.160 Y218.483 E4.54096
G1 X224.058 Y218.785 E4.69217
G1 X225.000 Y218.888 E4.84338
G1 X225.942 Y218.785 E4.99459
G1 X226.840 Y218.483 E5.14580
G1 X227.459 Y218.110 E5.26119
G1 X227.459 Y220.833 E5.69566
G1 X226.804 Y220.495 E5.81339
G1 X225.913 Y220.233 E5.96158
G1 X224.979 Y220.148 E6.11113
G1 X224.145 Y220.229 E6.24495
G1 X223.572 Y220.368 E6.33906
G1 X222.652 Y220.736 E6.49721
G1 E6.09721 F2400.00000
G1 F4800
G1 X222.543 Y218.111 E4.84937
G1 X223.160 Y218.483 E4.50718
G1 X224.058 Y218.785 E4.05711
G1 X225.000 Y218.888 E3.60705
G1 X225.942 Y218.785 E3.15699
G1 X226.840 Y218.483 E2.70692
G1 X226.893 Y218.451 E2.67721
G1 E2.49721 F2400.00000
G92 E0
G1 Z1.500 F6000.000
G1 X221.771 Y222.464
G1 Z0.500
G1 E4.00000 F2400.00000
G1 F1500
G1 X221.777 Y216.254 E4.99101
G1 X222.483 Y217.086 E5.16502
G1 X222.862 Y217.407 E5.24437
G1 X223.484 Y217.782 E5.36033
G1 X224.224 Y218.031 E5.48489
G1 X225.000 Y218.116 E5.60945
G1 X225.776 Y218.031 E5.73401
G1 X226.516 Y217.782 E5.85857
G1 X227.184 Y217.380 E5.98313
G1 X227.712 Y216.880 E6.09908
G1 X227.914 Y216.615 E6.15226
G1 X228.227 Y216.720 E6.20506
G1 X228.227 Y222.519 E7.13050
G1 X227.817 Y222.046 E7.23049
G1 X227.207 Y221.566 E7.35432
G1 X226.517 Y221.211 E7.47817
G1 X225.768 Y220.991 E7.60269
G1 X224.982 Y220.919 E7.72875
G1 X224.273 Y220.988 E7.84237
G1 X223.806 Y221.101 E7.91906
G1 X223.130 Y221.372 E8.03535
G1 X222.477 Y221.791 E8.15919
G1 X221.858 Y222.382 E8.29565
G1 E7.89565 F2400.00000
G1 F4800
G1 X221.777 Y216.254 E4.98505
G1 X222.471 Y217.072 E4.47566
G1 E4.29565 F2400.00000
G92 E0
G1 Z1.500 F6000.000
G1 X223.311 Y216.782
G1 Z0.500
G1 E4.00000 F2400.00000
G1 F1500
G1 X223.027 Y216.541 E4.05940
G1 X222.652 Y216.098 E4.15205
G1 X222.364 Y215.556 E4.24997
G1 X222.209 Y214.997 E4.34262
G1 X222.169 Y214.627 E4.40202
G1 X222.200 Y214.047 E4.49468
G1 X222.364 Y213.456 E4.59259
G1 X222.636 Y212.943 E4.68525
G1 X222.861 Y212.647 E4.74465
G1 X223.283 Y212.247 E4.83730
G1 X223.809 Y211.931 E4.93521
G1 X224.389 Y211.736 E5.03287
G1 X224.944 Y211.674 E5.12199
G1 X225.333 Y211.691 E5.18427
G1 X225.906 Y211.817 E5.27782
G1 X226.463 Y212.075 E5.37574
G1 X226.951 Y212.446 E5.47365
G1 X227.348 Y212.914 E5.57156
G1 X227.635 Y213.454 E5.66921
G1 X227.786 Y213.992 E5.75834
G1 X227.832 Y214.380 E5.82062
G1 X227.800 Y214.965 E5.91417
G1 X227.636 Y215.556 E6.01208
G1 X227.364 Y216.069 E6.10474
G1 X227.139 Y216.366 E6.16414
G1 X226.717 Y216.765 E6.25679
G1 X226.191 Y217.081 E6.35471
G1 X225.610 Y217.277 E6.45262
G1 X225.000 Y217.343 E6.55053
G1 X224.390 Y217.277 E6.64844
G1 X223.809 Y217.081 E6.74635
G1 X223.414 Y216.844 E6.81986
G1 X223.810 Y216.186 F6000.000
G1 F1500
G1 X223.572 Y215.996 E6.86838
G1 X223.291 Y215.665 E6.93774
G1 X223.082 Y215.270 E7.00900
G1 X222.965 Y214.852 E7.07836
G1 X222.939 Y214.606 E7.11781
G1 X222.962 Y214.172 E7.18716
G1 X223.082 Y213.742 E7.25842
G1 X223.285 Y213.358 E7.32778
G1 X223.435 Y213.161 E7.36723
G1 X223.750 Y212.862 E7.43658
G1 X224.133 Y212.632 E7.50785
G1 X224.556 Y212.489 E7.57902
G1 X224.969 Y212.443 E7.64542
G1 X225.233 Y212.455 E7.68758
G1 X225.659 Y212.549 E7.75726
G1 X226.065 Y212.737 E7.82852
G1 X226.420 Y213.007 E7.89978
G1 X226.709 Y213.347 E7.97105
G1 X226.918 Y213.741 E8.04222
G1 X227.031 Y214.142 E8.10862
G1 X227.062 Y214.404 E8.15078
G1 X227.038 Y214.840 E8.22046
G1 X226.918 Y215.270 E8.29172
G1 X226.715 Y215.654 E8.36108
G1 X226.565 Y215.851 E8.40053
G1 X226.250 Y216.150 E8.46988
G1 X225.867 Y216.380 E8.54114
G1 X225.444 Y216.523 E8.61241
G1 X225.000 Y216.571 E8.68367
G1 X224.556 Y216.523 E8.75493
G1 X224.133 Y216.380 E8.82620
G1 X223.913 Y216.248 E8.86723
G1 X223.537 Y216.320 F6000.000
G1 E8.46723 F2400.00000
G1 F4800
G1 X223.572 Y215.996 E8.26615
G1 X223.291 Y215.665 E8.05972
G1 X223.082 Y215.270 E7.84761
G1 X222.965 Y214.852 E7.64118
G1 X222.939 Y214.606 E7.52376
G1 X222.962 Y214.172 E7.31732
G1 X223.082 Y213.742 E7.10521
G1 X223.285 Y213.358 E6.89878
G1 X223.435 Y213.161 E6.78136
G1 X223.750 Y212.862 E6.57493
G1 X224.133 Y212.632 E6.36282
G1 X224.556 Y212.489 E6.15099
G1 X224.969 Y212.443 E5.95335
G1 X225.233 Y212.455 E5.82786
G1 X225.659 Y212.549 E5.62046
G1 X226.065 Y212.737 E5.40835
G1 X226.420 Y213.007 E5.19624
G1 X226.623 Y213.246 E5.04723
G1 E4.86723 F2400.00000
G92 E0
G1 Z1.500 F6000.000
G1 X222.094 Y212.387
G1 Z0.500
G1 E4.00000 F2400.00000
G1 F1500
G1 X221.781 Y212.281 E4.05283
G1 X221.782 Y210.495 E4.33798
G1 X224.699 Y210.491 E4.80344
G1 X224.724 Y210.926 E4.87303
G1 X224.222 Y210.982 E4.95364
G1 X223.484 Y211.230 E5.07777
G1 X222.816 Y211.633 E5.20233
G1 X222.288 Y212.132 E5.31829
G1 X222.167 Y212.292 E5.35024
G1 E4.95024 F2400.00000
G1 F4800
G1 X221.781 Y212.281 E4.76670
G1 X221.782 Y210.495 E3.91795
G1 X224.699 Y210.491 E2.53252
G1 X224.724 Y210.926 E2.32540
G1 X224.222 Y210.982 E2.08548
G1 X223.484 Y211.230 E1.71600
G1 X223.149 Y211.432 E1.53024
G1 E1.35024 F2400.00000
G92 E0
G1 Z1.500 F6000.000
G1 X225.311 Y210.900
G1 Z0.500
G1 E4.00000 F2400.00000
G1 F1500
G1 X225.355 Y210.490 E4.06590
G1 X228.227 Y210.486 E4.52427
G1 X228.227 Y212.762 E4.88761
G1 X227.482 Y211.886 E5.07122
G1 X226.861 Y211.413 E5.19578
G1 X226.153 Y211.086 E5.32034
G1 X225.428 Y210.926 E5.43878
G1 E5.03878 F2400.00000
G1 F4800
G1 X225.355 Y210.490 E4.82864
G1 X228.227 Y210.486 E3.46433
G1 X228.227 Y212.762 E2.38286
G1 X227.482 Y211.886 E1.83636
G1 X227.118 Y211.608 E1.61878
G1 E1.43878 F2400.00000
G92 E0
G1 Z1.500 F6000.000
G1 X225.478 Y210.712
G1 X225.762 Y210.735
G1 X227.580 Y211.133
G1 X228.072 Y212.349
G1 X228.394 Y213.994
G1 X228.277 Y215.866
G1 X227.615 Y217.805
G1 X226.582 Y219.505
G1 X228.204 Y222.149
G1 X229.613 Y223.312
G1 X229.503 Y223.241
G1 Z0.500
G1 E4.00000 F2400.00000
G1 F1500
G1 X234.209 Y223.241 E4.75103
G1 X234.209 Y226.759 E5.31258
G1 X229.544 Y226.759 E6.05705
G1 X229.804 Y225.691 E6.23256
G1 X229.848 Y224.769 E6.37979
G1 X229.716 Y223.856 E6.52703
G1 X229.543 Y223.354 E6.61178
G1 E6.21178 F2400.00000
G1 F4800
G1 X234.209 Y223.241 E3.99438
G1 X234.209 Y225.772 E2.79178
G1 E2.61178 F2400.00000
G92 E0
G1 Z1.500 F6000.000
G1 X228.233 Y222.473
G1 Z0.500
G1 E4.00000 F2400.00000
G1 F1500
G1 X234.977 Y222.473 E5.07627
G1 X234.977 Y227.527 E5.88285
G1 X228.189 Y227.527 E6.96617
G1 X228.535 Y227.041 E7.06141
G1 X228.857 Y226.335 E7.18525
G1 X229.040 Y225.581 E7.30910
G1 X229.077 Y224.806 E7.43294
G1 X228.967 Y224.038 E7.55678
G1 X228.713 Y223.304 E7.68062
G1 X228.293 Y222.577 E7.81468
G1 E7.41468 F2400.00000
G1 F4800
G1 X234.977 Y222.473 E4.23933
G1 X234.977 Y222.988 E3.99468
G1 E3.81468 F2400.00000
G92 E0
G1 Z1.500 F6000.000
G1 X228.220 Y237.246
G1 Z0.500
G1 E4.00000 F2400.00000
G1 F1500
G1 X228.218 Y239.506 E4.36056
G1 X225.296 Y239.510 E4.82676
G1 X225.272 Y239.074 E4.89644
G1 X225.722 Y239.025 E4.96867
G1 X226.201 Y238.892 E5.04803
G1 X226.861 Y238.587 E5.16398
G1 X227.482 Y238.114 E5.28854
G1 X228.142 Y237.338 E5.45119
G1 E5.05119 F2400.00000
G1 F4800
G1 X228.218 Y239.506 E4.02081
G1 X225.296 Y239.510 E2.63320
G1 X225.272 Y239.074 E2.42579
G1 X225.722 Y239.025 E2.21081
G1 X226.201 Y238.892 E1.97461
