; generated by Slic3r Prusa Edition 1.42.0-beta2 on 2020-11-02 at 10:58:06

; 

; external perimeters extrusion width = 0.65mm
; perimeters extrusion width = 0.65mm
; infill extrusion width = 0.65mm
; solid infill extrusion width = 0.65mm
; top infill extrusion width = 0.65mm
; first layer extrusion width = 0.65mm

M107
G28 Y0 X0 Z0  ;
M140 S80 ; set bed temp
M190 S80 ; wait for bed temp
M104 S215 ; set extruder temp
M109 S215 ; wait for extruder temp
M420 S Z5 ; call on the auto level gods
M300 S1000 P500 ; chirp
G1 Y25 X5.0 F4000.0 ; go outside print area
G92 E0.0
G1 Z0.5 F300.0; 
G1 X60.0 E9.0 F1000.0 ; intro line
G1 X100.0 E12.5 F1000.0 ; intro line
G92 E0.0
M900 K30 ; Filament gcode
G21 ; set units to millimeters
G90 ; use absolute coordinates
M82 ; use absolute distances for extrusion
G92 E0
G1 Z0.500 F6000.000
G1 E-4.00000 F2400.00000
G92 E0
G1 Z1.500 F6000.000
G1 X221.439 Y207.278
G1 Z0.500
G1 E4.00000 F2400.00000
G1 F900
G1 X228.561 Y207.278 E4.80352
G1 X229.544 Y208.227 E4.95764
G1 X230.035 Y208.826 E5.04499
G1 X230.407 Y209.406 E5.12281
G1 X230.723 Y210.051 E5.20382
G1 X230.962 Y210.728 E5.28475
G1 X231.112 Y211.385 E5.36080
G1 X231.198 Y212.171 E5.45001
G1 X231.193 Y212.861 E5.52782
G1 X231.104 Y213.573 E5.60884
G1 X230.941 Y214.243 E5.68665
G1 X230.808 Y214.637 E5.73354
G1 X230.531 Y215.269 E5.81136
G1 X230.168 Y215.889 E5.89237
G1 X229.752 Y216.442 E5.97051
G1 X229.464 Y216.761 E6.01894
G1 X228.972 Y217.221 E6.09498
G1 X228.418 Y217.631 E6.17271
G1 X228.064 Y217.848 E6.21960
G1 X227.447 Y218.156 E6.29742
G1 X226.772 Y218.401 E6.37835
G1 X226.116 Y218.556 E6.45439
G1 X225.691 Y218.619 E6.50282
G1 X225.000 Y218.659 E6.58096
G1 X224.283 Y218.617 E6.66197
G1 X223.604 Y218.498 E6.73978
G1 X223.202 Y218.391 E6.78668
G1 X222.554 Y218.157 E6.86441
G1 X221.951 Y217.856 E6.94045
G1 X221.584 Y217.633 E6.98888
G1 X221.050 Y217.238 E7.06382
G1 X220.739 Y216.963 E7.11071
G1 X220.264 Y216.463 E7.18844
G1 X219.858 Y215.925 E7.26449
G1 X219.458 Y215.243 E7.35370
G1 X219.181 Y214.611 E7.43151
G1 X218.971 Y213.925 E7.51244
G1 X218.849 Y213.262 E7.58848
G1 X218.807 Y212.835 E7.63692
G1 X218.801 Y212.143 E7.71505
G1 X218.879 Y211.429 E7.79598
G1 X219.028 Y210.772 E7.87202
G1 X219.158 Y210.363 E7.92045
G1 X219.425 Y209.725 E7.99850
G1 X219.756 Y209.137 E8.07454
G1 X219.997 Y208.782 E8.12297
G1 X220.436 Y208.247 E8.20111
G1 X221.352 Y207.361 E8.34488
G1 X221.658 Y207.820 F6000.000
G1 F900
G1 X228.342 Y207.820 E9.09891
G1 X229.150 Y208.601 E9.22561
G1 X229.378 Y208.864 E9.26487
G1 X229.591 Y209.139 E9.30414
G1 X229.934 Y209.673 E9.37575
G1 X230.222 Y210.262 E9.44967
G1 X230.440 Y210.879 E9.52352
G1 X230.578 Y211.483 E9.59345
G1 X230.628 Y211.841 E9.63423
G1 X230.656 Y212.190 E9.67372
G1 X230.651 Y212.825 E9.74533
G1 X230.570 Y213.475 E9.81925
G1 X230.419 Y214.092 E9.89086
G1 X230.301 Y214.441 E9.93243
G1 X230.046 Y215.022 E10.00404
G1 X229.716 Y215.588 E10.07796
G1 X229.333 Y216.097 E10.14979
G1 X229.077 Y216.380 E10.19288
G1 X228.624 Y216.804 E10.26281
G1 X228.114 Y217.181 E10.33435
G1 X227.800 Y217.373 E10.37593
G1 X227.232 Y217.657 E10.44754
G1 X226.617 Y217.880 E10.52139
G1 X226.013 Y218.022 E10.59132
G1 X225.636 Y218.079 E10.63440
G1 X225.000 Y218.115 E10.70624
G1 X224.346 Y218.077 E10.78016
G1 X223.721 Y217.968 E10.85177
G1 X223.365 Y217.873 E10.89334
G1 X222.768 Y217.657 E10.96488
G1 X222.214 Y217.381 E11.03481
G1 X221.887 Y217.182 E11.07790
G1 X221.392 Y216.815 E11.14743
G1 X221.116 Y216.571 E11.18900
G1 X220.678 Y216.112 E11.26055
G1 X220.306 Y215.617 E11.33047
G1 X219.946 Y215.003 E11.41071
G1 X219.691 Y214.422 E11.48232
G1 X219.499 Y213.796 E11.55618
G1 X219.387 Y213.187 E11.62610
G1 X219.349 Y212.806 E11.66919
G1 X219.344 Y212.170 E11.74103
G1 X219.415 Y211.519 E11.81488
G1 X219.552 Y210.914 E11.88481
G1 X219.667 Y210.550 E11.92789
G1 X219.914 Y209.964 E11.99967
G1 X220.217 Y209.423 E12.06959
G1 X220.432 Y209.108 E12.11268
G1 X220.836 Y208.615 E12.18452
G1 X221.572 Y207.904 E12.30000
G1 X221.878 Y208.363 F6000.000
G1 F900
G1 X228.123 Y208.363 E13.00452
G1 X228.755 Y208.975 E13.10382
G1 X228.958 Y209.208 E13.13865
G1 X229.147 Y209.452 E13.17348
G1 X229.460 Y209.940 E13.23889
G1 X229.720 Y210.472 E13.30571
G1 X229.918 Y211.030 E13.37249
G1 X230.043 Y211.582 E13.43630
G1 X230.088 Y211.900 E13.47262
G1 X230.113 Y212.209 E13.50760
G1 X230.108 Y212.789 E13.57300
G1 X230.035 Y213.377 E13.63982
G1 X229.898 Y213.940 E13.70522
G1 X229.795 Y214.245 E13.74147
G1 X229.562 Y214.775 E13.80687
G1 X229.263 Y215.287 E13.87370
G1 X228.914 Y215.751 E13.93924
G1 X228.690 Y216.000 E13.97698
G1 X228.276 Y216.386 E14.04079
G1 X227.811 Y216.730 E14.10615
G1 X227.537 Y216.898 E14.14240
G1 X227.018 Y217.157 E14.20781
G1 X226.461 Y217.359 E14.27459
G1 X225.911 Y217.489 E14.33840
G1 X225.580 Y217.538 E14.37614
G1 X225.000 Y217.572 E14.44168
G1 X224.409 Y217.537 E14.50850
G1 X223.838 Y217.437 E14.57390
G1 X223.527 Y217.355 E14.61016
G1 X222.982 Y217.157 E14.67552
G1 X222.476 Y216.905 E14.73933
G1 X222.190 Y216.731 E14.77707
G1 X221.733 Y216.393 E14.84119
G1 X221.493 Y216.180 E14.87744
G1 X221.093 Y215.761 E14.94281
G1 X220.753 Y215.309 E15.00661
G1 X220.582 Y215.036 E15.04294
G1 X220.433 Y214.764 E15.07792
G1 X220.200 Y214.233 E15.14332
G1 X220.027 Y213.667 E15.21010
G1 X219.924 Y213.111 E15.27391
G1 X219.892 Y212.778 E15.31165
G1 X219.887 Y212.197 E15.37719
G1 X219.951 Y211.608 E15.44397
G1 X220.076 Y211.057 E15.50778
G1 X220.177 Y210.738 E15.54553
G1 X220.402 Y210.202 E15.61103
G1 X220.679 Y209.709 E15.67483
G1 X220.867 Y209.433 E15.71258
G1 X221.236 Y208.983 E15.77812
G1 X221.791 Y208.446 E15.86530
G1 X222.097 Y208.906 F6000.000
G1 F900
G1 X227.903 Y208.906 E16.52032
G1 X228.361 Y209.349 E16.59221
G1 X228.538 Y209.552 E16.62261
G1 X228.703 Y209.765 E16.65302
G1 X228.986 Y210.207 E16.71221
G1 X229.219 Y210.682 E16.77193
G1 X229.395 Y211.181 E16.83164
G1 X229.509 Y211.680 E16.88933
G1 X229.549 Y211.960 E16.92120
G1 X229.570 Y212.229 E16.95166
G1 X229.566 Y212.753 E17.01085
G1 X229.500 Y213.279 E17.07058
G1 X229.376 Y213.789 E17.12977
G1 X229.288 Y214.048 E17.16070
G1 X229.077 Y214.529 E17.21990
G1 X228.810 Y214.986 E17.27962
G1 X228.495 Y215.406 E17.33887
G1 X228.302 Y215.619 E17.37127
G1 X227.929 Y215.968 E17.42896
G1 X227.507 Y216.280 E17.48813
G1 X227.273 Y216.423 E17.51907
G1 X226.804 Y216.658 E17.57826
G1 X226.306 Y216.838 E17.63797
G1 X225.808 Y216.956 E17.69566
G1 X225.524 Y216.998 E17.72806
G1 X225.000 Y217.028 E17.78731
G1 X224.471 Y216.998 E17.84703
G1 X223.955 Y216.907 E17.90623
G1 X223.690 Y216.836 E17.93716
G1 X223.196 Y216.658 E17.99634
G1 X222.739 Y216.430 E18.05403
G1 X222.493 Y216.280 E18.08643
G1 X222.075 Y215.971 E18.14514
G1 X221.870 Y215.789 E18.17608
G1 X221.508 Y215.409 E18.23526
G1 X221.200 Y215.001 E18.29294
G1 X221.050 Y214.761 E18.32481
G1 X220.921 Y214.524 E18.35527
G1 X220.710 Y214.044 E18.41446
G1 X220.555 Y213.538 E18.47417
G1 X220.462 Y213.035 E18.53186
G1 X220.434 Y212.749 E18.56426
G1 X220.430 Y212.224 E18.62351
G1 X220.487 Y211.698 E18.68322
G1 X220.600 Y211.199 E18.74091
G1 X220.687 Y210.925 E18.77331
G1 X220.890 Y210.441 E18.83254
G1 X221.141 Y209.996 E18.89023
G1 X221.302 Y209.758 E18.92263
G1 X221.635 Y209.352 E18.98187
G1 X222.011 Y208.989 E19.04076
G1 X222.295 Y208.131 F6000.000
G1 E18.64076 F2400.00000
G1 F4800
G1 X227.903 Y208.906 E15.84155
G1 X228.361 Y209.349 E15.53887
G1 X228.538 Y209.552 E15.41086
G1 X228.703 Y209.765 E15.28285
G1 X228.774 Y209.875 E15.22076
G1 E15.04076 F2400.00000
G92 E0
G1 Z1.500 F6000.000
G1 X220.028 Y206.718
G1 Z0.500
G1 E4.00000 F2400.00000
G1 F900
G1 X220.231 Y206.541 E4.03041
G1 X220.703 Y206.189 E4.09676
G1 X221.211 Y205.870 E4.16448
G1 X221.991 Y205.478 E4.26288
G1 X222.814 Y205.179 E4.36170
G1 X223.405 Y205.027 E4.43051
G1 X224.264 Y204.892 E4.52860
G1 X225.144 Y204.859 E4.62802
G1 X225.746 Y204.894 E4.69598
G1 X226.610 Y205.029 E4.79463
G1 X227.451 Y205.263 E4.89316
G1 X228.027 Y205.485 E4.96278
G1 X228.798 Y205.875 E5.06023
G1 X229.295 Y206.188 E5.12658
G1 X229.776 Y206.547 E5.19430
G1 X230.410 Y207.120 E5.29065
G1 X230.830 Y207.584 E5.36125
G1 X231.345 Y208.278 E5.45876
G1 X231.655 Y208.792 E5.52651
G1 X232.032 Y209.580 E5.62499
G1 X232.317 Y210.416 E5.72465
G1 X232.453 Y210.989 E5.79110
G1 X232.572 Y211.845 E5.88861
G1 X232.595 Y212.453 E5.95720
G1 X232.572 Y213.060 E6.02579
G1 X232.508 Y213.608 E6.08798
G1 X232.323 Y214.471 E6.18764
G1 X232.137 Y215.050 E6.25623
G1 X231.915 Y215.596 E6.32268
G1 X231.513 Y216.361 E6.42019
G1 X231.169 Y216.884 E6.49079
G1 X230.625 Y217.557 E6.58840
G1 X230.213 Y217.977 E6.65479
G1 X229.760 Y218.371 E6.72251
G1 X229.051 Y218.879 E6.82099
G1 X228.277 Y219.305 E6.92064
G1 X227.736 Y219.538 E6.98709
G1 X227.178 Y219.729 E7.05355
G1 X226.338 Y219.930 E7.15106
G1 X225.717 Y220.015 E7.22179
G1 X224.853 Y220.047 E7.31931
G1 X224.265 Y220.012 E7.38576
G1 X223.410 Y219.881 E7.48328
G1 X222.559 Y219.646 E7.58293
G1 X221.974 Y219.420 E7.65366
G1 X221.202 Y219.030 E7.75118
G1 X220.705 Y218.717 E7.81753
G1 X220.224 Y218.358 E7.88525
G1 X219.591 Y217.786 E7.98150
G1 X219.175 Y217.327 E8.05135
G1 X218.653 Y216.627 E8.14984
G1 X218.212 Y215.861 E8.24949
G1 X217.969 Y215.326 E8.31584
G1 X217.764 Y214.762 E8.38356
G1 X217.550 Y213.935 E8.47991
G1 X217.453 Y213.316 E8.55063
G1 X217.405 Y212.453 E8.64815
G1 X217.428 Y211.845 E8.71674
G1 X217.547 Y210.990 E8.81416
G1 X217.686 Y210.406 E8.88188
G1 X217.961 Y209.598 E8.97812
G1 X218.217 Y209.035 E9.04798
G1 X218.506 Y208.512 E9.11537
G1 X218.809 Y208.051 E9.17759
G1 X219.182 Y207.570 E9.24618
G1 X219.590 Y207.120 E9.31477
G1 X219.938 Y206.797 E9.36835
G1 X219.405 Y206.542 F6000.000
G1 F900
G1 X219.891 Y206.118 E9.44110
G1 X220.396 Y205.741 E9.51223
G1 X220.940 Y205.399 E9.58471
G1 X221.501 Y205.104 E9.65623
G1 X222.064 Y204.862 E9.72535
G1 X222.658 Y204.658 E9.79622
G1 X223.290 Y204.496 E9.86978
G1 X224.211 Y204.352 E9.97499
G1 X225.155 Y204.316 E10.08155
G1 X225.798 Y204.353 E10.15425
G1 X226.725 Y204.498 E10.26003
G1 X227.626 Y204.750 E10.36564
G1 X228.237 Y204.985 E10.43942
G1 X229.069 Y205.404 E10.54460
G1 X229.603 Y205.741 E10.61574
G1 X230.118 Y206.125 E10.68822
G1 X230.801 Y206.744 E10.79224
G1 X231.243 Y207.231 E10.86644
G1 X231.799 Y207.980 E10.97167
G1 X232.131 Y208.530 E11.04417
G1 X232.535 Y209.374 E11.14974
G1 X232.840 Y210.270 E11.25652
G1 X232.986 Y210.884 E11.32772
G1 X233.086 Y211.521 E11.40047
G1 X233.139 Y212.453 E11.50570
G1 X233.084 Y213.397 E11.61248
G1 X232.917 Y214.343 E11.72080
G1 X232.648 Y215.236 E11.82603
G1 X232.409 Y215.820 E11.89723
G1 X231.975 Y216.646 E12.00247
G1 X231.614 Y217.196 E12.07666
G1 X231.027 Y217.922 E12.18197
G1 X230.585 Y218.372 E12.25312
G1 X230.101 Y218.794 E12.32560
G1 X229.340 Y219.338 E12.43117
G1 X228.511 Y219.795 E12.53795
G1 X227.931 Y220.045 E12.60915
G1 X227.334 Y220.249 E12.68035
G1 X226.427 Y220.466 E12.78558
G1 X225.774 Y220.555 E12.85988
G1 X224.842 Y220.590 E12.96511
G1 X224.212 Y220.553 E13.03631
G1 X223.290 Y220.410 E13.14154
G1 X222.378 Y220.158 E13.24832
G1 X221.764 Y219.921 E13.32261
G1 X220.931 Y219.501 E13.42785
G1 X220.397 Y219.165 E13.49898
G1 X219.882 Y218.780 E13.57146
G1 X219.199 Y218.162 E13.67541
G1 X218.759 Y217.676 E13.74944
G1 X218.200 Y216.925 E13.85501
G1 X217.727 Y216.105 E13.96178
G1 X217.466 Y215.531 E14.03291
G1 X217.247 Y214.927 E14.10539
G1 X217.016 Y214.035 E14.20942
G1 X216.914 Y213.384 E14.28371
G1 X216.861 Y212.453 E14.38894
G1 X216.886 Y211.808 E14.46169
G1 X217.014 Y210.885 E14.56685
G1 X217.163 Y210.260 E14.63933
G1 X217.460 Y209.388 E14.74329
G1 X217.732 Y208.791 E14.81731
G1 X218.200 Y207.980 E14.92288
G1 X218.766 Y207.221 E15.02966
G1 X219.319 Y206.626 E15.12136
G1 X218.939 Y206.238 F6000.000
G1 F900
G1 X219.550 Y205.695 E15.21357
G1 X220.089 Y205.293 E15.28948
G1 X220.669 Y204.929 E15.36671
G1 X221.262 Y204.616 E15.44236
G1 X221.873 Y204.353 E15.51744
G1 X222.503 Y204.138 E15.59245
G1 X223.175 Y203.965 E15.67077
G1 X223.819 Y203.851 E15.74457
G1 X224.503 Y203.785 E15.82204
G1 X225.166 Y203.773 E15.89687
G1 X225.851 Y203.813 E15.97431
G1 X226.508 Y203.903 E16.04914
G1 X226.840 Y203.968 E16.08724
G1 X227.167 Y204.046 E16.12521
G1 X227.802 Y204.236 E16.19999
G1 X228.447 Y204.484 E16.27792
G1 X228.738 Y204.616 E16.31398
G1 X229.341 Y204.934 E16.39089
G1 X229.910 Y205.293 E16.46680
G1 X230.459 Y205.702 E16.54404
G1 X230.964 Y206.143 E16.61968
G1 X231.192 Y206.367 E16.65578
G1 X231.656 Y206.878 E16.73358
G1 X231.864 Y207.136 E16.77095
G1 X232.253 Y207.682 E16.84657
G1 X232.606 Y208.268 E16.92382
G1 X232.907 Y208.867 E16.99947
G1 X233.037 Y209.169 E17.03652
G1 X233.156 Y209.475 E17.07356
G1 X233.364 Y210.124 E17.15046
G1 X233.519 Y210.780 E17.22642
G1 X233.624 Y211.453 E17.30332
G1 X233.655 Y211.771 E17.33941
G1 X233.682 Y212.453 E17.41631
G1 X233.655 Y213.134 E17.49322
G1 X233.623 Y213.461 E17.53025
G1 X233.579 Y213.786 E17.56729
G1 X233.446 Y214.463 E17.64515
G1 X233.366 Y214.773 E17.68123
G1 X233.158 Y215.422 E17.75814
G1 X232.903 Y216.045 E17.83409
G1 X232.598 Y216.654 E17.91099
G1 X232.438 Y216.931 E17.94708
G1 X232.059 Y217.508 E18.02488
G1 X231.860 Y217.773 E18.06225
G1 X231.429 Y218.287 E18.13791
G1 X230.958 Y218.767 E18.21384
G1 X230.442 Y219.217 E18.29108
G1 X229.904 Y219.617 E18.36672
G1 X229.629 Y219.798 E18.40377
G1 X229.348 Y219.967 E18.44081
G1 X228.745 Y220.285 E18.51771
G1 X228.127 Y220.552 E18.59367
G1 X227.490 Y220.770 E18.66962
G1 X226.830 Y220.940 E18.74653
G1 X226.516 Y221.001 E18.78261
G1 X225.832 Y221.095 E18.86047
G1 X225.513 Y221.119 E18.89656
G1 X224.832 Y221.133 E18.97346
G1 X224.160 Y221.093 E19.04941
G1 X223.484 Y221.001 E19.12632
G1 X223.170 Y220.940 E19.16241
G1 X222.502 Y220.767 E19.24026
G1 X222.197 Y220.670 E19.27635
G1 X221.554 Y220.421 E19.35420
G1 X221.262 Y220.289 E19.39029
G1 X220.659 Y219.971 E19.46719
G1 X220.090 Y219.612 E19.54310
G1 X219.541 Y219.203 E19.62034
G1 X219.036 Y218.762 E19.69599
G1 X218.808 Y218.538 E19.73205
G1 X218.343 Y218.024 E19.81024
G1 X217.932 Y217.494 E19.88588
G1 X217.746 Y217.223 E19.92293
G1 X217.571 Y216.946 E19.95997
G1 X217.242 Y216.349 E20.03687
G1 X216.963 Y215.736 E20.11279
G1 X216.730 Y215.093 E20.19003
G1 X216.550 Y214.447 E20.26567
G1 X216.482 Y214.134 E20.30177
G1 X216.376 Y213.452 E20.37963
G1 X216.345 Y213.134 E20.41571
G1 X216.318 Y212.453 E20.49262
G1 X216.345 Y211.771 E20.56952
G1 X216.376 Y211.453 E20.60561
G1 X216.481 Y210.780 E20.68247
G1 X216.640 Y210.114 E20.75971
G1 X216.844 Y209.475 E20.83536
G1 X216.960 Y209.177 E20.87141
G1 X217.247 Y208.547 E20.94960
G1 X217.571 Y207.960 E21.02525
G1 X217.746 Y207.682 E21.06230
G1 X217.932 Y207.411 E21.09934
G1 X218.349 Y206.872 E21.17624
G1 X218.853 Y206.322 E21.26036
G1 X218.473 Y205.935 F6000.000
G1 F900
G1 X219.209 Y205.272 E21.37203
G1 X219.782 Y204.845 E21.45272
G1 X220.398 Y204.458 E21.53472
G1 X221.023 Y204.129 E21.61449
G1 X221.683 Y203.845 E21.69552
G1 X222.347 Y203.618 E21.77468
G1 X223.060 Y203.434 E21.85774
G1 X223.740 Y203.314 E21.93565
G1 X224.477 Y203.243 E22.01916
G1 X225.177 Y203.230 E22.09812
G1 X225.904 Y203.272 E22.18030
G1 X226.597 Y203.367 E22.25925
G1 X226.955 Y203.437 E22.30035
G1 X227.308 Y203.521 E22.34130
G1 X227.978 Y203.722 E22.42020
G1 X228.657 Y203.983 E22.50228
G1 X228.977 Y204.129 E22.54192
G1 X229.612 Y204.464 E22.62299
G1 X230.217 Y204.845 E22.70367
G1 X230.800 Y205.280 E22.78568
G1 X231.333 Y205.745 E22.86545
G1 X231.584 Y205.991 E22.90511
G1 X232.069 Y206.525 E22.98650
G1 X232.296 Y206.808 E23.02745
G1 X232.707 Y207.383 E23.10721
G1 X233.082 Y208.006 E23.18922
G1 X233.399 Y208.638 E23.26899
G1 X233.540 Y208.964 E23.30901
G1 X233.667 Y209.295 E23.34901
G1 X233.887 Y209.979 E23.43007
G1 X234.052 Y210.675 E23.51078
G1 X234.163 Y211.385 E23.59184
G1 X234.197 Y211.735 E23.63149
G1 X234.225 Y212.453 E23.71255
G1 X234.197 Y213.171 E23.79361
G1 X234.163 Y213.524 E23.83362
G1 X234.115 Y213.875 E23.87362
G1 X233.975 Y214.583 E23.95504
G1 X233.888 Y214.923 E23.99469
G1 X233.668 Y215.608 E24.07575
G1 X233.398 Y216.270 E24.15646
G1 X233.075 Y216.912 E24.23752
G1 X232.900 Y217.216 E24.27717
G1 X232.503 Y217.819 E24.35857
