; generated by Slic3r Prusa Edition 1.42.0-beta2 on 2020-10-30 at 18:15:40

; 

; external perimeters extrusion width = 1.05mm
; perimeters extrusion width = 1.05mm
; infill extrusion width = 1.05mm
; solid infill extrusion width = 1.05mm
; top infill extrusion width = 1.05mm
; first layer extrusion width = 0.75mm

M107
G28 Y0 X0 Z0  ;
M140 S85 ; set bed temp
M190 S85 ; wait for bed temp
M104 S245 ; set extruder temp
M109 S245 ; wait for extruder temp
M420 S Z5 ; call on the auto level gods
M300 S1000 P500 ; chirp
G1 Y25 X5.0 F4000.0 ; go outside print area
G92 E0.0
G1 Z0.5 F300.0; 
G1 X60.0 E9.0 F1000.0 ; intro line
G1 X100.0 E12.5 F1000.0 ; intro line
G92 E0.0
M900 K45 ; Filament gcode
G21 ; set units to millimeters
G90 ; use absolute coordinates
M82 ; use absolute distances for extrusion
G92 E0
G1 Z0.500 F3000.000
G1 X217.591 Y217.315
G1 F600
G1 X218.174 Y216.793 E0.10463
G1 X218.473 Y216.553 E0.15576
G1 X219.136 Y216.081 E0.26451
G1 X219.778 Y215.689 E0.36505
G1 X220.119 Y215.506 E0.41671
G1 X220.466 Y215.336 E0.46834
G1 X221.189 Y215.028 E0.57337
G1 X221.579 Y214.889 E0.62868
G1 X222.300 Y214.672 E0.72922
G1 X223.061 Y214.503 E0.83341
G1 X223.836 Y214.389 E0.93805
G1 X224.217 Y214.354 E0.98918
G1 X225.031 Y214.326 E1.09793
G1 X225.782 Y214.354 E1.19846
G1 X226.164 Y214.389 E1.24966
G1 X226.942 Y214.503 E1.35475
G1 X227.317 Y214.580 E1.40588
G1 X228.104 Y214.787 E1.51464
G1 X228.816 Y215.031 E1.61517
G1 X229.175 Y215.175 E1.66676
G1 X229.555 Y215.346 E1.72253
G1 X230.224 Y215.691 E1.82302
G1 X230.915 Y216.115 E1.93134
G1 X231.527 Y216.553 E2.03187
G1 X231.828 Y216.794 E2.08347
G1 X232.143 Y217.068 E2.13923
G1 X232.687 Y217.593 E2.24017
G1 X232.968 Y217.897 E2.29550
G1 X233.449 Y218.476 E2.39605
G1 X233.904 Y219.112 E2.50063
G1 X234.126 Y219.462 E2.55594
G1 X234.493 Y220.119 E2.65649
G1 X234.824 Y220.825 E2.76068
G1 X235.104 Y221.557 E2.86531
G1 X235.222 Y221.925 E2.91695
G1 X235.327 Y222.297 E2.96859
G1 X235.498 Y223.064 E3.07361
G1 X235.565 Y223.473 E3.12892
G1 X235.646 Y224.221 E3.22946
G1 X235.675 Y225.000 E3.33366
G1 X235.646 Y225.783 E3.43829
G1 X235.611 Y226.164 E3.48942
G1 X235.491 Y226.969 E3.59817
G1 X235.327 Y227.703 E3.69871
G1 X235.222 Y228.075 E3.75030
G1 X235.094 Y228.472 E3.80606
G1 X234.825 Y229.175 E3.90661
G1 X234.492 Y229.884 E4.01126
G1 X234.311 Y230.221 E4.06244
G1 X233.903 Y230.890 E4.16707
G1 X233.449 Y231.524 E4.27124
G1 X232.948 Y232.126 E4.37587
G1 X232.688 Y232.406 E4.42700
G1 X232.100 Y232.970 E4.53576
G1 X231.522 Y233.451 E4.63629
G1 X231.212 Y233.682 E4.68788
G1 X230.867 Y233.917 E4.74365
G1 X230.222 Y234.311 E4.84466
G1 X229.884 Y234.492 E4.89586
G1 X229.175 Y234.824 E5.00043
G1 X228.418 Y235.112 E5.10873
G1 X227.697 Y235.329 E5.20927
G1 X227.322 Y235.419 E5.26086
G1 X226.912 Y235.502 E5.31662
G1 X226.168 Y235.611 E5.41717
G1 X225.386 Y235.668 E5.52182
G1 X224.583 Y235.666 E5.62914
G1 X223.833 Y235.611 E5.72969
G1 X223.058 Y235.497 E5.83427
G1 X222.653 Y235.413 E5.88958
G1 X221.925 Y235.222 E5.99008
G1 X221.158 Y234.959 E6.09839
G1 X220.466 Y234.664 E6.19893
G1 X220.122 Y234.495 E6.25012
G1 X219.436 Y234.110 E6.35521
G1 X219.113 Y233.905 E6.40634
G1 X218.452 Y233.430 E6.51510
G1 X217.874 Y232.948 E6.61563
G1 X217.593 Y232.687 E6.66683
G1 X217.047 Y232.121 E6.77192
G1 X216.797 Y231.831 E6.82310
G1 X216.317 Y231.209 E6.92812
G1 X216.083 Y230.867 E6.98343
G1 X215.691 Y230.225 E7.08398
G1 X215.333 Y229.528 E7.18863
G1 X215.177 Y229.178 E7.23976
G1 X214.888 Y228.418 E7.34851
G1 X214.671 Y227.697 E7.44905
G1 X214.581 Y227.324 E7.50025
G1 X214.438 Y226.551 E7.60533
G1 X214.389 Y226.168 E7.65691
G1 X214.352 Y225.752 E7.71267
G1 X214.325 Y224.997 E7.81361
G1 X214.334 Y224.583 E7.86894
G1 X214.389 Y223.833 E7.96949
G1 X214.503 Y223.058 E8.07414
G1 X214.580 Y222.683 E8.12527
G1 X214.787 Y221.896 E8.23402
G1 X215.031 Y221.184 E8.33456
G1 X215.175 Y220.825 E8.38615
G1 X215.346 Y220.445 E8.44191
G1 X215.693 Y219.773 E8.54292
G1 X215.886 Y219.442 E8.59412
G1 X216.320 Y218.786 E8.69914
G1 X216.568 Y218.455 E8.75445
G1 X217.050 Y217.877 E8.85500
G1 X217.487 Y217.423 E8.93915
G1 X218.344 Y217.532 F3000.000
G1 X217.950 Y217.869
G1 F600
G1 X218.590 Y217.283 E9.05515
G1 X218.861 Y217.066 E9.10149
G1 X219.490 Y216.618 E9.20472
G1 X220.098 Y216.247 E9.29985
G1 X220.413 Y216.078 E9.34762
G1 X220.733 Y215.921 E9.39533
G1 X221.424 Y215.627 E9.49554
G1 X221.780 Y215.499 E9.54611
G1 X222.462 Y215.295 E9.64128
G1 X223.178 Y215.135 E9.73922
G1 X223.912 Y215.027 E9.83836
G1 X224.257 Y214.996 E9.88470
G1 X225.030 Y214.969 E9.98793
G1 X225.741 Y214.995 E10.08306
G1 X226.088 Y215.027 E10.12959
G1 X226.831 Y215.137 E10.22997
G1 X227.171 Y215.206 E10.27631
G1 X227.918 Y215.403 E10.37954
G1 X228.592 Y215.633 E10.47467
G1 X228.922 Y215.766 E10.52226
G1 X229.276 Y215.926 E10.57407
G1 X229.908 Y216.251 E10.66910
G1 X230.560 Y216.650 E10.77114
G1 X231.138 Y217.065 E10.86627
G1 X231.416 Y217.288 E10.91386
G1 X231.709 Y217.542 E10.96567
G1 X232.227 Y218.043 E11.06191
G1 X232.485 Y218.321 E11.11253
G1 X232.940 Y218.869 E11.20770
G1 X233.371 Y219.471 E11.30671
G1 X233.573 Y219.791 E11.35728
G1 X233.921 Y220.413 E11.45245
G1 X234.233 Y221.077 E11.55039
G1 X234.498 Y221.770 E11.64953
G1 X234.607 Y222.110 E11.69725
G1 X234.703 Y222.454 E11.74497
G1 X234.866 Y223.186 E11.84517
G1 X234.927 Y223.559 E11.89574
G1 X235.005 Y224.267 E11.99091
G1 X235.032 Y225.000 E12.08886
G1 X235.005 Y225.742 E12.18800
G1 X234.973 Y226.087 E12.23433
G1 X234.859 Y226.851 E12.33757
G1 X234.704 Y227.546 E12.43270
G1 X234.607 Y227.889 E12.48028
G1 X234.488 Y228.258 E12.53210
G1 X234.233 Y228.923 E12.62727
G1 X233.918 Y229.595 E12.72646
G1 X233.753 Y229.902 E12.77293
G1 X233.366 Y230.535 E12.87207
G1 X232.940 Y231.131 E12.96997
G1 X232.465 Y231.701 E13.06911
G1 X232.229 Y231.955 E13.11544
G1 X231.672 Y232.491 E13.21868
G1 X231.124 Y232.946 E13.31381
G1 X230.838 Y233.158 E13.36139
G1 X230.518 Y233.377 E13.41321
G1 X229.902 Y233.753 E13.50962
G1 X229.595 Y233.918 E13.55614
G1 X228.924 Y234.232 E13.65514
G1 X228.211 Y234.503 E13.75713
G1 X227.529 Y234.708 E13.85226
G1 X227.183 Y234.792 E13.89985
G1 X226.802 Y234.868 E13.95167
G1 X226.098 Y234.971 E14.04683
G1 X225.357 Y235.026 E14.14602
G1 X224.614 Y235.024 E14.24536
G1 X223.903 Y234.971 E14.34053
G1 X223.170 Y234.864 E14.43954
G1 X222.799 Y234.787 E14.49011
G1 X222.111 Y234.607 E14.58514
G1 X221.389 Y234.359 E14.68718
G1 X220.734 Y234.080 E14.78231
G1 X220.421 Y233.926 E14.82883
G1 X219.766 Y233.558 E14.92922
G1 X219.473 Y233.372 E14.97555
G1 X218.846 Y232.921 E15.07878
G1 X218.299 Y232.466 E15.17391
G1 X218.044 Y232.228 E15.22044
G1 X217.522 Y231.688 E15.32082
G1 X217.295 Y231.424 E15.36730
G1 X216.837 Y230.831 E15.46750
G1 X216.623 Y230.518 E15.51807
G1 X216.252 Y229.910 E15.61324
G1 X215.913 Y229.250 E15.71243
G1 X215.771 Y228.933 E15.75877
G1 X215.497 Y228.211 E15.86200
G1 X215.292 Y227.529 E15.95713
G1 X215.210 Y227.190 E16.00365
G1 X215.074 Y226.451 E16.10403
G1 X215.028 Y226.099 E16.15157
G1 X214.994 Y225.712 E16.20339
G1 X214.968 Y224.992 E16.29962
G1 X214.976 Y224.614 E16.35024
G1 X215.029 Y223.903 E16.44541
G1 X215.137 Y223.169 E16.54460
G1 X215.206 Y222.829 E16.59094
G1 X215.403 Y222.082 E16.69417
G1 X215.633 Y221.408 E16.78930
G1 X215.766 Y221.078 E16.83689
G1 X215.926 Y220.724 E16.88870
G1 X216.256 Y220.082 E16.98511
G1 X216.432 Y219.782 E17.03164
G1 X216.846 Y219.156 E17.13184
G1 X217.072 Y218.853 E17.18241
G1 X217.528 Y218.306 E17.27758
G1 X217.845 Y217.977 E17.33859
G1 X218.308 Y218.423 F3000.000
G1 F600
G1 X218.484 Y218.241 E17.37239
G1 X219.006 Y217.773 E17.46604
G1 X219.844 Y217.155 E17.60524
G1 X220.707 Y216.650 E17.73880
G1 X221.658 Y216.226 E17.87794
G1 X222.625 Y215.917 E18.01352
G1 X223.295 Y215.768 E18.10522
G1 X224.298 Y215.637 E18.24037
G1 X225.029 Y215.612 E18.33808
G1 X226.012 Y215.666 E18.46961
G1 X227.025 Y215.832 E18.60679
G1 X227.732 Y216.018 E18.70450
G1 X228.670 Y216.358 E18.83777
G1 X229.593 Y216.812 E18.97515
G1 X230.204 Y217.186 E19.07091
G1 X231.004 Y217.782 E19.20418
G1 X231.768 Y218.492 E19.34353
G1 X232.431 Y219.262 E19.47919
G1 X232.838 Y219.830 E19.57263
G1 X233.349 Y220.707 E19.70821
G1 X233.641 Y221.328 E19.79991
G1 X233.991 Y222.295 E19.93731
G1 X234.235 Y223.307 E20.07645
G1 X234.363 Y224.314 E20.21203
G1 X234.388 Y225.000 E20.30373
G1 X234.335 Y226.010 E20.43888
G1 X234.227 Y226.733 E20.53659
G1 X233.992 Y227.703 E20.66986
G1 X233.641 Y228.671 E20.80746
G1 X233.343 Y229.307 E20.90119
G1 X232.830 Y230.180 E21.03656
G1 X232.431 Y230.738 E21.12819
G1 X231.771 Y231.505 E21.26333
G1 X231.243 Y232.011 E21.36104
G1 X230.465 Y232.635 E21.49431
G1 X229.582 Y233.195 E21.63395
G1 X228.673 Y233.640 E21.76918
G1 X228.004 Y233.894 E21.86486
G1 X227.044 Y234.164 E21.99813
G1 X226.027 Y234.332 E22.13573
G1 X225.328 Y234.383 E22.22946
G1 X224.644 Y234.382 E22.32081
G1 X223.974 Y234.332 E22.41060
G1 X223.282 Y234.230 E22.50404
G1 X222.297 Y233.991 E22.63940
G1 X221.619 Y233.758 E22.73516
G1 X220.720 Y233.357 E22.86669
G1 X219.833 Y232.840 E23.00387
G1 X219.240 Y232.413 E23.10158
G1 X218.494 Y231.770 E23.23311
G1 X217.997 Y231.254 E23.32879
G1 X217.356 Y230.452 E23.46590
G1 X216.813 Y229.595 E23.60148
G1 X216.365 Y228.688 E23.73671
G1 X216.106 Y228.004 E23.83442
G1 X215.839 Y227.056 E23.96595
G1 X215.667 Y226.029 E24.10509
G1 X215.611 Y224.988 E24.24443
G1 X215.668 Y223.974 E24.38010
G1 X215.770 Y223.280 E24.47382
G1 X216.018 Y222.268 E24.61303
G1 X216.236 Y221.632 E24.70276
G1 X216.505 Y221.003 E24.79418
G1 X216.978 Y220.122 E24.92781
G1 X217.372 Y219.526 E25.02320
G1 X217.577 Y219.252 E25.06903
G1 X218.007 Y218.735 E25.15882
G1 X218.204 Y218.531 E25.19668
G1 X218.667 Y218.977 F3000.000
G1 F600
G1 X218.930 Y218.704 E25.24738
G1 X219.636 Y218.092 E25.37225
G1 X220.198 Y217.691 E25.46444
G1 X220.737 Y217.363 E25.54876
G1 X221.269 Y217.090 E25.62861
G1 X221.892 Y216.825 E25.71917
G1 X222.787 Y216.539 E25.84464
G1 X223.412 Y216.400 E25.93010
G1 X224.338 Y216.279 E26.05497
G1 X225.028 Y216.255 E26.14715
G1 X225.936 Y216.304 E26.26861
G1 X226.879 Y216.458 E26.39629
G1 X227.546 Y216.634 E26.48848
G1 X228.418 Y216.949 E26.61235
G1 X229.277 Y217.372 E26.74031
G1 X229.848 Y217.722 E26.82980
G1 X230.361 Y218.090 E26.91412
G1 X230.841 Y218.491 E26.99760
G1 X231.308 Y218.942 E27.08442
G1 X231.921 Y219.654 E27.21000
G1 X232.304 Y220.189 E27.29787
G1 X232.777 Y221.000 E27.42334
G1 X233.049 Y221.580 E27.50879
G1 X233.376 Y222.480 E27.63678
G1 X233.604 Y223.429 E27.76718
G1 X233.722 Y224.361 E27.89265
G1 X233.745 Y225.000 E27.97811
G1 X233.696 Y225.933 E28.10297
G1 X233.594 Y226.616 E28.19516
G1 X233.457 Y227.232 E28.27948
G1 X233.275 Y227.830 E28.36296
G1 X233.049 Y228.420 E28.44737
G1 X232.637 Y229.262 E28.57266
G1 X232.294 Y229.825 E28.66082
G1 X231.922 Y230.345 E28.74616
G1 X231.313 Y231.054 E28.87103
G1 X230.815 Y231.532 E28.96322
G1 X230.092 Y232.112 E29.08709
G1 X229.263 Y232.637 E29.21818
G1 X228.422 Y233.048 E29.34316
G1 X227.797 Y233.285 E29.43253
G1 X226.905 Y233.537 E29.55640
G1 X225.957 Y233.693 E29.68467
G1 X225.298 Y233.741 E29.77295
G1 X224.674 Y233.740 E29.85631
G1 X224.044 Y233.693 E29.94072
G1 X223.394 Y233.597 E30.02859
G1 X222.484 Y233.375 E30.15374
G1 X221.850 Y233.158 E30.24323
G1 X221.020 Y232.788 E30.36469
G1 X220.194 Y232.307 E30.49237
G1 X219.633 Y231.904 E30.58455
G1 X218.945 Y231.311 E30.70601
G1 X218.472 Y230.821 E30.79698
G1 X217.876 Y230.074 E30.92458
G1 X217.374 Y229.281 E31.05004
G1 X216.960 Y228.442 E31.17502
G1 X216.715 Y227.797 E31.26721
G1 X216.468 Y226.922 E31.38867
G1 X216.306 Y225.960 E31.51907
G1 X216.254 Y224.983 E31.64976
G1 X216.307 Y224.044 E31.77534
G1 X216.403 Y223.391 E31.86361
G1 X216.634 Y222.454 E31.99250
G1 X216.838 Y221.857 E32.07682
G1 X217.084 Y221.282 E32.16030
G1 X217.523 Y220.462 E32.28466
G1 X218.082 Y219.650 E32.41628
G1 X218.563 Y219.085 E32.51537
G1 X219.025 Y219.531 F3000.000
G1 F600
G1 X219.376 Y219.167 E32.58297
G1 X220.024 Y218.605 E32.69756
G1 X220.552 Y218.228 E32.78423
G1 X221.057 Y217.921 E32.86314
G1 X221.536 Y217.674 E32.93518
G1 X222.127 Y217.423 E33.02093
G1 X222.950 Y217.161 E33.13628
G1 X223.528 Y217.033 E33.21550
G1 X224.379 Y216.921 E33.33008
G1 X225.027 Y216.898 E33.41675
G1 X225.860 Y216.942 E33.52813
G1 X226.733 Y217.084 E33.64632
G1 X227.360 Y217.250 E33.73298
G1 X228.166 Y217.540 E33.84745
G1 X228.962 Y217.933 E33.96600
G1 X229.493 Y218.258 E34.04921
G1 X229.973 Y218.602 E34.12813
G1 X230.407 Y218.965 E34.20365
G1 X230.849 Y219.392 E34.28576
G1 X231.412 Y220.047 E34.40126
G1 X231.771 Y220.548 E34.48356
G1 X232.205 Y221.294 E34.59891
G1 X232.457 Y221.831 E34.67812
G1 X232.760 Y222.665 E34.79671
G1 X232.972 Y223.551 E34.91837
G1 X233.081 Y224.408 E35.03372
G1 X233.102 Y225.000 E35.11294
G1 X233.058 Y225.857 E35.22752
G1 X232.962 Y226.498 E35.31419
G1 X232.833 Y227.075 E35.39311
G1 X232.669 Y227.615 E35.46863
G1 X232.457 Y228.168 E35.54766
G1 X232.080 Y228.942 E35.66279
G1 X231.757 Y229.471 E35.74546
G1 X231.413 Y229.952 E35.82452
G1 X231.017 Y230.427 E35.90719
G1 X230.386 Y231.052 E36.02577
G1 X229.718 Y231.588 E36.14024
G1 X228.943 Y232.079 E36.26279
G1 X228.172 Y232.456 E36.37751
G1 X227.590 Y232.677 E36.46058
G1 X226.766 Y232.909 E36.57505
G1 X225.887 Y233.054 E36.69399
G1 X225.269 Y233.099 E36.77681
G1 X224.705 Y233.097 E36.85218
G1 X224.115 Y233.054 E36.93121
G1 X223.505 Y232.964 E37.01351
G1 X222.670 Y232.760 E37.12847
G1 X222.081 Y232.558 E37.21168
G1 X221.319 Y232.219 E37.32306
G1 X220.756 Y231.903 E37.40932
G1 X220.027 Y231.396 E37.52791
G1 X219.573 Y231.018 E37.60683
G1 X218.947 Y230.387 E37.72555
G1 X218.396 Y229.696 E37.84362
G1 X217.935 Y228.966 E37.95898
G1 X217.652 Y228.415 E38.04179
G1 X217.323 Y227.590 E38.16037
G1 X217.154 Y227.025 E38.23929
G1 X216.979 Y226.153 E38.35802
G1 X216.919 Y225.592 E38.43340
G1 X216.897 Y224.978 E38.51551
G1 X216.946 Y224.115 E38.63101
G1 X217.084 Y223.267 E38.74574
G1 X217.250 Y222.640 E38.83241
G1 X217.540 Y221.834 E38.94687
G1 X217.946 Y221.012 E39.06942
G1 X218.423 Y220.266 E39.18763
G1 X218.925 Y219.643 E39.29455
G92 E0
G1 X223.479 Y223.514 F3000.000
G1 F600
G1 X223.774 Y223.263 E0.05180
G1 X224.109 Y223.069 E0.10347
G1 X224.465 Y222.943 E0.15399
G1 X224.671 Y222.900 E0.18208
G1 X225.035 Y222.874 E0.23085
G1 X225.432 Y222.918 E0.28418
G1 X225.803 Y223.031 E0.33598
G1 X226.146 Y223.209 E0.38766
G1 X226.445 Y223.441 E0.43818
G1 X226.592 Y223.591 E0.46632
G1 X226.817 Y223.895 E0.51684
G1 X226.987 Y224.242 E0.56851
G1 X227.091 Y224.615 E0.62018
G1 X227.127 Y225.000 E0.67185
G1 X227.091 Y225.385 E0.72352
G1 X226.987 Y225.758 E0.77520
G1 X226.821 Y226.097 E0.82572
G1 X226.703 Y226.272 E0.85381
G1 X226.461 Y226.544 E0.90257
G1 X226.147 Y226.791 E0.95591
G1 X225.803 Y226.969 E1.00771
G1 X225.433 Y227.082 E1.05938
G1 X225.048 Y227.126 E1.11105
G1 X224.663 Y227.100 E1.16272
G1 X224.288 Y227.004 E1.21440
G1 X223.937 Y226.842 E1.26607
G1 X223.621 Y226.619 E1.31774
G1 X223.350 Y226.342 E1.36941
G1 X223.135 Y226.021 E1.42108
G1 X222.981 Y225.667 E1.47271
G1 X222.898 Y225.312 E1.52143
G1 X222.876 Y225.089 E1.55124
G1 X222.893 Y224.710 E1.60193
G1 X222.979 Y224.342 E1.65245
G1 X223.053 Y224.146 E1.68055
G1 X223.228 Y223.825 E1.72931
G1 X223.384 Y223.631 E1.76261
G1 X223.374 Y223.141 F3000.000
G92 E0
G1 X222.362 Y224.154
G1 F600
G1 X222.468 Y223.876 E0.03976
G1 X222.691 Y223.467 E0.10202
G1 X223.016 Y223.064 E0.17112
G1 X223.401 Y222.735 E0.23881
G1 X223.838 Y222.483 E0.30617
G1 X224.291 Y222.322 E0.37040
G1 X224.582 Y222.262 E0.41016
G1 X225.047 Y222.229 E0.47242
G1 X225.561 Y222.285 E0.54152
G1 X226.046 Y222.433 E0.60922
G1 X226.494 Y222.665 E0.67657
G1 X226.874 Y222.960 E0.74081
G1 X227.082 Y223.173 E0.78069
G1 X227.368 Y223.560 E0.84493
G1 X227.590 Y224.013 E0.91228
G1 X227.726 Y224.498 E0.97964
G1 X227.772 Y225.000 E1.04699
G1 X227.726 Y225.502 E1.11434
G1 X227.590 Y225.987 E1.18169
G1 X227.379 Y226.419 E1.24593
G1 X227.213 Y226.666 E1.28569
G1 X226.903 Y227.015 E1.34795
G1 X226.496 Y227.334 E1.41705
G1 X226.046 Y227.567 E1.48475
G1 X225.564 Y227.714 E1.55210
G1 X225.063 Y227.771 E1.61945
G1 X224.560 Y227.737 E1.68680
G1 X224.072 Y227.612 E1.75416
