; generated by Slic3r Prusa Edition 1.42.0-beta2 on 2020-10-30 at 18:14:56

; 

; external perimeters extrusion width = 1.05mm
; perimeters extrusion width = 1.05mm
; infill extrusion width = 1.05mm
; solid infill extrusion width = 1.05mm
; top infill extrusion width = 1.05mm
; first layer extrusion width = 0.75mm

M107
G28 Y0 X0 Z0  ;
M140 S85 ; set bed temp
M190 S85 ; wait for bed temp
M104 S245 ; set extruder temp
M109 S245 ; wait for extruder temp
M420 S Z5 ; call on the auto level gods
M300 S1000 P500 ; chirp
G1 Y25 X5.0 F4000.0 ; go outside print area
G92 E0.0
G1 Z0.5 F300.0; 
G1 X60.0 E9.0 F1000.0 ; intro line
G1 X100.0 E12.5 F1000.0 ; intro line
G92 E0.0
M900 K45 ; Filament gcode
G21 ; set units to millimeters
G90 ; use absolute coordinates
M82 ; use absolute distances for extrusion
G92 E0
G1 Z0.500 F3000.000
G1 X217.706 Y217.205
G1 F600
G1 X218.323 Y216.670 E0.10907
G1 X218.640 Y216.426 E0.16242
G1 X219.317 Y215.963 E0.27196
G1 X219.658 Y215.757 E0.32532
G1 X220.380 Y215.376 E0.43438
G1 X221.129 Y215.051 E0.54342
G1 X221.516 Y214.910 E0.59845
G1 X222.285 Y214.676 E0.70586
G1 X223.079 Y214.499 E0.81446
G1 X223.887 Y214.383 E0.92353
G1 X224.284 Y214.349 E0.97686
G1 X225.113 Y214.326 E1.08760
G1 X225.916 Y214.365 E1.19500
G1 X226.317 Y214.407 E1.24881
G1 X226.728 Y214.466 E1.30431
G1 X227.516 Y214.626 E1.41173
G1 X228.301 Y214.849 E1.52080
G1 X228.678 Y214.979 E1.57415
G1 X229.437 Y215.291 E1.68367
G1 X229.808 Y215.470 E1.73869
G1 X230.511 Y215.859 E1.84611
G1 X231.191 Y216.305 E1.95470
G1 X231.837 Y216.803 E2.06377
G1 X232.139 Y217.065 E2.11712
G1 X232.727 Y217.636 E2.22664
G1 X233.005 Y217.940 E2.28167
G1 X233.514 Y218.562 E2.38908
G1 X233.979 Y219.229 E2.49765
G1 X234.398 Y219.940 E2.60792
G1 X234.752 Y220.661 E2.71532
G1 X234.908 Y221.029 E2.76868
G1 X235.182 Y221.798 E2.87775
G1 X235.397 Y222.586 E2.98682
G1 X235.480 Y222.976 E3.04017
G1 X235.605 Y223.787 E3.14971
G1 X235.643 Y224.184 E3.20306
G1 X235.674 Y225.004 E3.31261
G1 X235.666 Y225.403 E3.36594
G1 X235.602 Y226.229 E3.47668
G1 X235.480 Y227.024 E3.58409
G1 X235.397 Y227.414 E3.63744
G1 X235.181 Y228.205 E3.74699
G1 X235.054 Y228.584 E3.80032
G1 X234.746 Y229.353 E3.91106
G1 X234.391 Y230.074 E4.01847
G1 X234.193 Y230.425 E4.07227
G1 X233.974 Y230.779 E4.12778
G1 X233.514 Y231.438 E4.23519
G1 X232.997 Y232.070 E4.34426
G1 X232.727 Y232.364 E4.39762
G1 X232.139 Y232.935 E4.50716
G1 X231.837 Y233.197 E4.56051
G1 X231.191 Y233.695 E4.66958
G1 X230.511 Y234.141 E4.77817
G1 X229.797 Y234.536 E4.88724
G1 X229.437 Y234.709 E4.94059
G1 X228.682 Y235.019 E5.04963
G1 X227.897 Y235.274 E5.15990
G1 X227.115 Y235.463 E5.26730
G1 X226.723 Y235.535 E5.32064
G1 X225.900 Y235.636 E5.43138
G1 X225.097 Y235.674 E5.53879
G1 X224.698 Y235.671 E5.59215
G1 X223.880 Y235.616 E5.70169
G1 X223.483 Y235.567 E5.75504
G1 X222.677 Y235.419 E5.86459
G1 X222.289 Y235.325 E5.91794
G1 X221.508 Y235.088 E6.02699
G1 X220.739 Y234.788 E6.13725
G1 X220.014 Y234.440 E6.24465
G1 X219.665 Y234.246 E6.29801
G1 X218.971 Y233.810 E6.40756
G1 X218.642 Y233.576 E6.46139
G1 X218.323 Y233.330 E6.51521
G1 X217.706 Y232.795 E6.62428
G1 X217.134 Y232.218 E6.73287
G1 X216.608 Y231.599 E6.84146
G1 X216.128 Y230.938 E6.95053
G1 X215.912 Y230.602 E7.00388
G1 X215.511 Y229.891 E7.11295
G1 X215.165 Y229.152 E7.22202
G1 X215.016 Y228.782 E7.27535
G1 X214.753 Y227.995 E7.38609
G1 X214.557 Y227.216 E7.49349
G1 X214.481 Y226.824 E7.54683
G1 X214.372 Y226.002 E7.65757
G1 X214.326 Y225.200 E7.76498
G1 X214.326 Y224.797 E7.81878
G1 X214.342 Y224.382 E7.87429
G1 X214.419 Y223.582 E7.98170
G1 X214.558 Y222.781 E8.09030
G1 X214.758 Y221.989 E8.19936
G1 X214.877 Y221.608 E8.25272
G1 X215.166 Y220.845 E8.36178
G1 X215.512 Y220.105 E8.47085
G1 X215.702 Y219.754 E8.52418
G1 X216.137 Y219.049 E8.63492
G1 X216.610 Y218.398 E8.74233
G1 X216.865 Y218.087 E8.79616
G1 X217.132 Y217.785 E8.84999
G1 X217.601 Y217.311 E8.93902
G1 X218.486 Y217.447 F3000.000
G1 X218.058 Y217.763
G1 F600
G1 X218.730 Y217.168 E9.05909
G1 X219.018 Y216.946 E9.10753
G1 X219.664 Y216.504 E9.21217
G1 X219.975 Y216.317 E9.26062
G1 X220.659 Y215.956 E9.36396
G1 X221.368 Y215.648 E9.46723
G1 X221.720 Y215.519 E9.51734
G1 X222.449 Y215.298 E9.61907
G1 X223.194 Y215.132 E9.72114
G1 X223.960 Y215.022 E9.82448
G1 X224.321 Y214.991 E9.87287
G1 X225.107 Y214.969 E9.97787
G1 X225.867 Y215.006 E10.07959
G1 X226.237 Y215.045 E10.12928
G1 X226.618 Y215.100 E10.18068
G1 X227.364 Y215.251 E10.28242
G1 X228.108 Y215.462 E10.38578
G1 X228.451 Y215.581 E10.43422
G1 X229.175 Y215.878 E10.53879
G1 X229.513 Y216.041 E10.58889
G1 X230.179 Y216.409 E10.69063
G1 X230.818 Y216.829 E10.79270
G1 X231.430 Y217.301 E10.89604
G1 X231.704 Y217.538 E10.94449
G1 X232.266 Y218.084 E11.04905
G1 X232.519 Y218.360 E11.09916
G1 X233.001 Y218.950 E11.20089
G1 X233.438 Y219.576 E11.30290
G1 X233.832 Y220.245 E11.40661
G1 X234.168 Y220.928 E11.50833
G1 X234.309 Y221.263 E11.55679
G1 X234.569 Y221.991 E11.66014
G1 X234.772 Y222.737 E11.76348
G1 X234.848 Y223.092 E11.81192
G1 X234.967 Y223.866 E11.91656
G1 X235.001 Y224.227 E11.96501
G1 X235.031 Y225.010 E12.06965
G1 X235.024 Y225.372 E12.11804
G1 X234.964 Y226.155 E12.22304
G1 X234.848 Y226.908 E12.32476
G1 X234.772 Y227.263 E12.37322
G1 X234.566 Y228.018 E12.47786
G1 X234.451 Y228.362 E12.52625
G1 X234.158 Y229.091 E12.63125
G1 X233.822 Y229.774 E12.73297
G1 X233.639 Y230.098 E12.78266
G1 X233.437 Y230.425 E12.83406
G1 X233.001 Y231.050 E12.93579
G1 X232.511 Y231.649 E13.03916
G1 X232.266 Y231.916 E13.08760
G1 X231.704 Y232.462 E13.19224
G1 X231.430 Y232.699 E13.24069
G1 X230.818 Y233.171 E13.34403
G1 X230.179 Y233.591 E13.44608
G1 X229.502 Y233.964 E13.54942
G1 X229.175 Y234.121 E13.59787
G1 X228.460 Y234.415 E13.70115
G1 X227.722 Y234.655 E13.80486
G1 X226.982 Y234.834 E13.90658
G1 X226.625 Y234.899 E13.95499
G1 X225.845 Y234.996 E14.05999
G1 X225.085 Y235.032 E14.16171
G1 X224.722 Y235.028 E14.21017
G1 X223.941 Y234.976 E14.31481
G1 X223.581 Y234.931 E14.36326
G1 X222.810 Y234.790 E14.46790
G1 X222.458 Y234.705 E14.51634
G1 X221.718 Y234.480 E14.61963
G1 X220.995 Y234.198 E14.72333
G1 X220.309 Y233.868 E14.82505
G1 X219.991 Y233.693 E14.87352
G1 X219.329 Y233.276 E14.97816
G1 X219.025 Y233.060 E15.02790
G1 X218.730 Y232.832 E15.07764
G1 X218.146 Y232.326 E15.18098
G1 X217.608 Y231.783 E15.28303
G1 X217.114 Y231.201 E15.38507
G1 X216.659 Y230.575 E15.48842
G1 X216.463 Y230.270 E15.53686
G1 X216.083 Y229.597 E15.64021
G1 X215.755 Y228.896 E15.74355
G1 X215.620 Y228.560 E15.79194
G1 X215.371 Y227.815 E15.89694
G1 X215.184 Y227.076 E15.99866
G1 X215.116 Y226.721 E16.04707
G1 X215.012 Y225.942 E16.15207
G1 X214.969 Y225.181 E16.25379
G1 X214.984 Y224.425 E16.35486
G1 X215.056 Y223.667 E16.45659
G1 X215.187 Y222.914 E16.55866
G1 X215.376 Y222.164 E16.66200
G1 X215.485 Y221.818 E16.71045
G1 X215.759 Y221.095 E16.81379
G1 X216.087 Y220.394 E16.91713
G1 X216.259 Y220.076 E16.96552
G1 X216.672 Y219.407 E17.07053
G1 X217.119 Y218.791 E17.17224
G1 X217.355 Y218.503 E17.22200
G1 X217.952 Y217.870 E17.33823
G1 X218.409 Y218.322 F3000.000
G1 F600
G1 X218.585 Y218.144 E17.37177
G1 X219.137 Y217.665 E17.46939
G1 X219.396 Y217.466 E17.51293
G1 X220.012 Y217.045 E17.61266
G1 X220.291 Y216.877 E17.65620
G1 X220.937 Y216.536 E17.75382
G1 X221.606 Y216.245 E17.85131
G1 X221.924 Y216.129 E17.89650
G1 X222.612 Y215.920 E17.99256
G1 X223.310 Y215.765 E18.08810
G1 X224.033 Y215.661 E18.18572
G1 X224.357 Y215.633 E18.22916
G1 X225.100 Y215.612 E18.32843
G1 X225.818 Y215.647 E18.42446
G1 X226.157 Y215.682 E18.47002
G1 X226.508 Y215.733 E18.51732
G1 X227.212 Y215.876 E18.61338
G1 X227.915 Y216.075 E18.71103
G1 X228.223 Y216.182 E18.75457
G1 X228.913 Y216.466 E18.85418
G1 X229.218 Y216.612 E18.89937
G1 X229.847 Y216.960 E18.99543
G1 X230.445 Y217.352 E19.09097
G1 X231.023 Y217.799 E19.18859
G1 X231.270 Y218.012 E19.23213
G1 X231.804 Y218.532 E19.33174
G1 X232.033 Y218.781 E19.37693
G1 X232.488 Y219.338 E19.47299
G1 X232.897 Y219.924 E19.56843
G1 X233.266 Y220.550 E19.66558
G1 X233.583 Y221.195 E19.76161
G1 X233.710 Y221.496 E19.80518
G1 X233.955 Y222.184 E19.90280
G1 X234.148 Y222.889 E20.00042
G1 X234.215 Y223.208 E20.04396
G1 X234.329 Y223.945 E20.14369
G1 X234.360 Y224.270 E20.18723
G1 X234.388 Y225.016 E20.28697
G1 X234.382 Y225.341 E20.33041
G1 X234.325 Y226.082 E20.42968
G1 X234.215 Y226.792 E20.52571
G1 X234.148 Y227.111 E20.56928
G1 X233.951 Y227.831 E20.66901
G1 X233.848 Y228.140 E20.71246
G1 X233.571 Y228.829 E20.81172
G1 X233.253 Y229.474 E20.90775
G1 X233.086 Y229.771 E20.95332
G1 X232.900 Y230.072 E21.00062
G1 X232.488 Y230.662 E21.09668
G1 X232.025 Y231.228 E21.19433
G1 X231.805 Y231.468 E21.23787
G1 X231.270 Y231.988 E21.33760
G1 X231.023 Y232.201 E21.38114
G1 X230.445 Y232.648 E21.47876
G1 X229.847 Y233.040 E21.57426
G1 X229.208 Y233.393 E21.67188
G1 X228.914 Y233.534 E21.71542
G1 X228.239 Y233.812 E21.81295
G1 X227.547 Y234.036 E21.91010
G1 X226.848 Y234.205 E22.00613
G1 X226.528 Y234.264 E22.04961
G1 X225.791 Y234.355 E22.14888
G1 X225.073 Y234.389 E22.24490
G1 X224.747 Y234.386 E22.28848
G1 X224.002 Y234.336 E22.38821
G1 X223.678 Y234.296 E22.43175
G1 X222.944 Y234.161 E22.53148
G1 X222.627 Y234.085 E22.57502
G1 X221.929 Y233.872 E22.67255
G1 X221.252 Y233.608 E22.76970
G1 X220.604 Y233.297 E22.86573
G1 X220.318 Y233.139 E22.90930
G1 X219.686 Y232.741 E23.00903
G1 X219.137 Y232.335 E23.10032
G1 X218.585 Y231.856 E23.19794
G1 X218.082 Y231.348 E23.29344
G1 X217.619 Y230.804 E23.38895
G1 X217.190 Y230.212 E23.48657
G1 X217.014 Y229.938 E23.53011
G1 X216.654 Y229.302 E23.62773
G1 X216.344 Y228.640 E23.72534
G1 X216.224 Y228.338 E23.76879
G1 X215.988 Y227.634 E23.86806
G1 X215.812 Y226.937 E23.96409
G1 X215.750 Y226.617 E24.00756
G1 X215.652 Y225.881 E24.10683
G1 X215.611 Y225.163 E24.20286
G1 X215.625 Y224.468 E24.29571
G1 X215.694 Y223.753 E24.39177
G1 X215.816 Y223.048 E24.48730
G1 X215.995 Y222.340 E24.58492
G1 X216.093 Y222.029 E24.62846
G1 X216.351 Y221.345 E24.72608
G1 X216.661 Y220.684 E24.82370
G1 X216.815 Y220.398 E24.86715
G1 X217.206 Y219.765 E24.96641
G1 X217.628 Y219.184 E25.06244
G1 X217.845 Y218.919 E25.10813
G1 X218.303 Y218.429 E25.19778
G1 X218.760 Y218.881 F3000.000
G1 F600
G1 X219.025 Y218.614 E25.24809
G1 X219.773 Y217.987 E25.37857
G1 X220.359 Y217.586 E25.47340
G1 X221.215 Y217.116 E25.60388
G1 X221.845 Y216.842 E25.69561
G1 X222.775 Y216.542 E25.82622
G1 X223.426 Y216.397 E25.91522
G1 X224.394 Y216.275 E26.04558
G1 X225.094 Y216.255 E26.13911
G1 X226.077 Y216.320 E26.27084
G1 X227.060 Y216.501 E26.40438
G1 X227.723 Y216.689 E26.49632
G1 X228.651 Y217.053 E26.62956
G1 X229.515 Y217.511 E26.76017
G1 X230.072 Y217.876 E26.84918
G1 X230.835 Y218.486 E26.97966
G1 X231.343 Y218.980 E27.07432
G1 X231.975 Y219.726 E27.20493
G1 X232.355 Y220.271 E27.29380
G1 X232.700 Y220.855 E27.38440
G1 X233.110 Y221.729 E27.51338
G1 X233.342 Y222.377 E27.60527
G1 X233.583 Y223.323 E27.73575
G1 X233.718 Y224.313 E27.86917
G1 X233.740 Y225.310 E28.00246
G1 X233.686 Y226.008 E28.09599
G1 X233.523 Y226.960 E28.22497
G1 X233.244 Y227.918 E28.35825
G1 X232.983 Y228.567 E28.45178
G1 X232.532 Y229.444 E28.58352
G1 X231.975 Y230.274 E28.71705
G1 X231.344 Y231.020 E28.84758
G1 X230.835 Y231.514 E28.94241
G1 X230.072 Y232.124 E29.07289
G1 X229.515 Y232.489 E29.16185
G1 X228.652 Y232.947 E29.29234
G1 X228.017 Y233.208 E29.38410
G1 X227.372 Y233.417 E29.47470
G1 X226.715 Y233.576 E29.56504
G1 X225.736 Y233.714 E29.69707
G1 X225.061 Y233.746 E29.78742
G1 X224.063 Y233.696 E29.92087
G1 X223.078 Y233.532 E30.05429
G1 X222.140 Y233.265 E30.18464
G1 X221.508 Y233.018 E30.27524
G1 X220.645 Y232.585 E30.40422
G1 X220.044 Y232.207 E30.49904
G1 X219.544 Y231.837 E30.58216
G1 X219.025 Y231.386 E30.67405
G1 X218.556 Y230.913 E30.76301
G1 X218.125 Y230.406 E30.85198
G1 X217.720 Y229.849 E30.94387
G1 X217.226 Y229.007 E31.07436
G1 X216.934 Y228.384 E31.16625
G1 X216.605 Y227.453 E31.29824
G1 X216.440 Y226.797 E31.38858
G1 X216.293 Y225.820 E31.52061
G1 X216.254 Y225.145 E31.61095
G1 X216.267 Y224.512 E31.69558
G1 X216.331 Y223.838 E31.78596
G1 X216.445 Y223.182 E31.87497
G1 X216.700 Y222.239 E32.00545
G1 X216.944 Y221.596 E32.09734
G1 X217.372 Y220.719 E32.22770
G1 X217.740 Y220.123 E32.32123
G1 X218.137 Y219.577 E32.41157
G1 X218.654 Y218.988 E32.51623
G1 X218.824 Y219.752 F3000.000
G1 F600
G1 X219.464 Y219.083 E32.63983
G1 X220.151 Y218.507 E32.75969
G1 X220.707 Y218.127 E32.84961
G1 X221.494 Y217.696 E32.96947
G1 X222.084 Y217.439 E33.05542
G1 X222.939 Y217.164 E33.17544
G1 X223.541 Y217.030 E33.25791
G1 X224.430 Y216.917 E33.37761
G1 X225.087 Y216.899 E33.46540
G1 X225.998 Y216.958 E33.58732
G1 X226.909 Y217.126 E33.71109
G1 X227.530 Y217.302 E33.79732
G1 X228.389 Y217.640 E33.92071
G1 X229.183 Y218.062 E34.04073
G1 X229.699 Y218.400 E34.12320
G1 X230.400 Y218.959 E34.24306
G1 X230.882 Y219.427 E34.33276
G1 X231.462 Y220.113 E34.45278
G1 X231.814 Y220.619 E34.53509
G1 X232.133 Y221.161 E34.61914
G1 X232.511 Y221.962 E34.73753
G1 X232.728 Y222.570 E34.82370
G1 X232.950 Y223.439 E34.94356
G1 X233.077 Y224.355 E35.06717
G1 X233.102 Y225.028 E35.15709
G1 X233.047 Y225.934 E35.27840
G1 X232.898 Y226.808 E35.39681
G1 X232.721 Y227.457 E35.48672
G1 X232.396 Y228.305 E35.60804
G1 X231.979 Y229.117 E35.72997
G1 X231.462 Y229.886 E35.85373
G1 X231.054 Y230.386 E35.93996
G1 X230.400 Y231.041 E36.06357
G1 X229.699 Y231.600 E36.18343
G1 X229.183 Y231.938 E36.26584
G1 X228.618 Y232.250 E36.35202
G1 X227.795 Y232.604 E36.47171
G1 X227.197 Y232.798 E36.55575
G1 X226.334 Y232.993 E36.67398
G1 X225.681 Y233.073 E36.76178
G1 X224.796 Y233.101 E36.88017
G1 X224.124 Y233.056 E36.97009
G1 X223.874 Y233.025 E37.00382
G1 X222.966 Y232.844 E37.12743
G1 X222.350 Y232.657 E37.21344
G1 X221.764 Y232.428 E37.29748
G1 X221.193 Y232.154 E37.38213
G1 X220.402 Y231.673 E37.50580
G1 X219.951 Y231.339 E37.58074
G1 X219.464 Y230.917 E37.66691
G1 X219.030 Y230.478 E37.74933
G1 X218.630 Y230.008 E37.83174
G1 X218.251 Y229.487 E37.91792
G1 X217.798 Y228.713 E38.03777
G1 X217.431 Y227.895 E38.15747
G1 X217.222 Y227.272 E38.24526
G1 X217.020 Y226.411 E38.36349
G1 X216.933 Y225.759 E38.45129
G1 X216.897 Y224.847 E38.57321
G1 X216.969 Y223.924 E38.69698
G1 X217.074 Y223.315 E38.77945
G1 X217.232 Y222.690 E38.86562
G1 X217.536 Y221.846 E38.98548
G1 X217.809 Y221.262 E39.07165
G1 X218.274 Y220.482 E39.19297
G1 X218.729 Y219.868 E39.29509
G92 E0
G1 X222.075 Y221.403 F3000.000
G1 F600
G1 X227.923 Y221.403 E0.78126
G1 X228.419 Y221.885 E0.87365
G1 X228.759 Y222.307 E0.94611
G1 X228.930 Y222.562 E0.98706
G1 X229.195 Y223.052 E1.06147
G1 X229.393 Y223.557 E1.13394
G1 X229.479 Y223.851 E1.17489
G1 X229.585 Y224.398 E1.24929
G1 X229.624 Y224.939 E1.32176
G1 X229.618 Y225.245 E1.36269
G1 X229.558 Y225.779 E1.43446
G1 X229.497 Y226.079 E1.47542
G1 X229.335 Y226.612 E1.54982
G1 X229.116 Y227.108 E1.62229
G1 X228.967 Y227.377 E1.66325
G1 X228.653 Y227.836 E1.73764
G1 X228.295 Y228.244 E1.81012
G1 X228.074 Y228.456 E1.85105
G1 X227.652 Y228.789 E1.92282
G1 X227.396 Y228.956 E1.96375
G1 X226.921 Y229.207 E2.03552
G1 X226.638 Y229.325 E2.07645
G1 X226.125 Y229.486 E2.14823
G1 X225.826 Y229.551 E2.18919
G1 X225.273 Y229.617 E2.26356
G1 X224.730 Y229.617 E2.33605
G1 X224.425 Y229.590 E2.37698
G1 X223.892 Y229.491 E2.44947
G1 X223.360 Y229.325 E2.52384
G1 X223.077 Y229.207 E2.56481
G1 X222.598 Y228.954 E2.63730
G1 X222.140 Y228.636 E2.71167
G1 X221.906 Y228.439 E2.75264
G1 X221.528 Y228.057 E2.82441
G1 X221.333 Y227.820 E2.86534
G1 X221.028 Y227.372 E2.93782
G1 X220.772 Y226.878 E3.01221
G1 X220.657 Y226.593 E3.05317
G1 X220.500 Y226.074 E3.12564
G1 X220.404 Y225.526 E3.20004
G1 X220.379 Y225.220 E3.24099
G1 X220.385 Y224.683 E3.31277
G1 X220.416 Y224.378 E3.35370
G1 X220.520 Y223.846 E3.42616
G1 X220.691 Y223.316 E3.50057
G1 X220.812 Y223.034 E3.54152
G1 X221.071 Y222.557 E3.61399
G1 X221.393 Y222.103 E3.68840
G1 X221.593 Y221.871 E3.72935
G1 X221.968 Y221.508 E3.79905
G1 X222.330 Y220.436 F3000.000
G1 X221.520 Y221.046
G1 F600
G1 X221.815 Y220.760 E3.85391
G1 X228.184 Y220.760 E4.70484
